P3
256 256
255
0 0 255	0 0 255	0 0 255	0 0 255	0 0 255	0 0 255	0 0 255	0 0 255	0 0 255	0 0 255	0 0 255	0 0 255	0 0 255	0 0 255	0 0 255	0 0 255	0 0 255	0 0 255	0 0 255	0 0 255	0 0 255	0 0 255	0 0 255	0 0 255	0 0 255	0 0 255	0 0 255	0 0 255	0 0 255	0 0 255	0 0 255	0 0 255	0 0 255	0 0 255	0 0 255	0 0 255	0 0 255	0 0 255	0 0 255	0 0 255	0 0 255	0 0 255	0 0 255	0 0 255	0 0 255	0 0 255	0 0 255	0 0 255	0 0 255	0 0 255	0 0 255	0 0 255	0 0 255	0 0 255	0 0 255	0 0 255	0 0 255	0 0 255	0 0 255	0 0 255	0 0 255	0 0 255	0 0 255	0 0 255	0 0 255	0 0 255	0 0 255	0 0 255	0 0 255	0 0 255	0 0 255	0 0 255	0 0 255	0 0 255	0 0 255	0 0 255	0 0 255	0 0 255	0 0 255	0 0 255	0 0 255	0 0 255	0 0 255	0 0 255	0 0 255	0 0 255	0 0 255	0 0 255	0 0 255	0 0 255	0 0 255	0 0 255	0 0 255	0 0 255	0 0 255	0 0 255	0 0 255	0 0 255	0 0 255	0 0 255	0 0 255	0 0 255	0 0 255	0 0 255	0 0 255	0 0 255	0 0 255	0 0 255	0 0 255	0 0 255	0 0 255	0 0 255	0 0 255	0 0 255	0 0 255	0 0 255	0 0 255	0 0 255	0 0 255	0 0 255	0 0 255	0 0 255	0 0 255	0 0 255	0 0 255	0 0 255	0 0 255	0 0 255	0 0 255	0 0 255	0 0 255	0 0 255	0 0 255	0 0 255	0 0 255	0 0 255	0 0 255	0 0 255	0 0 255	0 0 255	0 0 255	0 0 255	0 0 255	0 0 255	0 0 255	0 0 255	0 0 255	0 0 255	0 0 255	0 0 255	0 0 255	0 0 255	0 0 255	0 0 255	0 0 255	0 0 255	0 0 255	0 0 255	0 0 255	0 0 255	0 0 255	0 0 255	0 0 255	0 0 255	0 0 255	0 0 255	0 0 255	0 0 255	0 0 255	0 0 255	0 0 255	0 0 255	0 0 255	0 0 255	0 0 255	0 0 255	0 0 255	0 0 255	0 0 255	0 0 255	0 0 255	0 0 255	0 0 255	0 0 255	0 0 255	0 0 255	0 0 255	0 0 255	0 0 255	0 0 255	0 0 255	0 0 255	0 0 255	0 0 255	0 0 255	0 0 255	0 0 255	0 0 255	0 0 255	0 0 255	0 0 255	0 0 255	0 0 255	0 0 255	0 0 255	0 0 255	0 0 255	0 0 255	0 0 255	0 0 255	0 0 255	0 0 255	0 0 255	0 0 255	0 0 255	0 0 255	0 0 255	0 0 255	0 0 255	0 0 255	0 0 255	0 0 255	0 0 255	0 0 255	0 0 255	0 0 255	0 0 255	0 0 255	0 0 255	0 0 255	0 0 255	0 0 255	0 0 255	0 0 255	0 0 255	0 0 255	0 0 255	0 0 255	0 0 255	0 0 255	0 0 255	0 0 255	0 0 255	0 0 255	0 0 255	0 0 255	0 0 255	0 0 255	0 0 255	0 0 255	0 0 255	0 0 255	0 0 255	0 0 255	0 0 255	0 0 255	
0 0 255	0 0 255	0 0 255	0 0 255	0 0 255	0 0 255	0 0 255	0 0 255	0 0 255	0 0 255	0 0 255	0 0 255	0 0 255	0 0 255	0 0 255	0 0 255	0 0 255	0 0 255	0 0 255	0 0 255	0 0 255	0 0 255	0 0 255	0 0 255	0 0 255	0 0 255	0 0 255	0 0 255	0 0 255	0 0 255	0 0 255	0 0 255	0 0 255	0 0 255	0 0 255	0 0 255	0 0 255	0 0 255	0 0 255	0 0 255	0 0 255	0 0 255	0 0 255	0 0 255	0 0 255	0 0 255	0 0 255	0 0 255	0 0 255	0 0 255	0 0 255	0 0 255	0 0 255	0 0 255	0 0 255	0 0 255	0 0 255	0 0 255	0 0 255	0 0 255	0 0 255	0 0 255	0 0 255	0 0 255	0 0 255	0 0 255	0 0 255	0 0 255	0 0 255	0 0 255	0 0 255	0 0 255	0 0 255	0 0 255	0 0 255	0 0 255	0 0 255	0 0 255	0 0 255	0 0 255	0 0 255	0 0 255	0 0 255	0 0 255	0 0 255	0 0 255	0 0 255	0 0 255	0 0 255	0 0 255	0 0 255	0 0 255	0 0 255	0 0 255	0 0 255	0 0 255	0 0 255	0 0 255	0 0 255	0 0 255	0 0 255	0 0 255	0 0 255	0 0 255	0 0 255	0 0 255	0 0 255	0 0 255	0 0 255	0 0 255	0 0 255	0 0 255	0 0 255	0 0 255	0 0 255	0 0 255	0 0 255	0 0 255	0 0 255	0 0 255	0 0 255	0 0 255	0 0 255	0 0 255	0 0 255	0 0 255	0 0 255	0 0 255	0 0 255	0 0 255	0 0 255	0 0 255	0 0 255	0 0 255	0 0 255	0 0 255	0 0 255	0 0 255	0 0 255	0 0 255	0 0 255	0 0 255	0 0 255	0 0 255	0 0 255	0 0 255	0 0 255	0 0 255	0 0 255	0 0 255	0 0 255	0 0 255	0 0 255	0 0 255	0 0 255	0 0 255	0 0 255	0 0 255	0 0 255	0 0 255	0 0 255	0 0 255	0 0 255	0 0 255	0 0 255	0 0 255	0 0 255	0 0 255	0 0 255	0 0 255	0 0 255	0 0 255	0 0 255	0 0 255	0 0 255	0 0 255	0 0 255	0 0 255	0 0 255	0 0 255	0 0 255	0 0 255	0 0 255	0 0 255	0 0 255	0 0 255	0 0 255	0 0 255	0 0 255	0 0 255	0 0 255	0 0 255	0 0 255	0 0 255	0 0 255	0 0 255	0 0 255	0 0 255	0 0 255	0 0 255	0 0 255	0 0 255	0 0 255	0 0 255	0 0 255	0 0 255	0 0 255	0 0 255	0 0 255	0 0 255	0 0 255	0 0 255	0 0 255	0 0 255	0 0 255	0 0 255	0 0 255	0 0 255	0 0 255	0 0 255	0 0 255	0 0 255	0 0 255	0 0 255	0 0 255	0 0 255	0 0 255	0 0 255	0 0 255	0 0 255	0 0 255	0 0 255	0 0 255	0 0 255	0 0 255	0 0 255	0 0 255	0 0 255	0 0 255	0 0 255	0 0 255	0 0 255	0 0 255	0 0 255	0 0 255	0 0 255	0 0 255	0 0 255	0 0 255	0 0 255	0 0 255	0 0 255	0 0 255	0 0 255	0 0 255	0 0 255	
0 0 255	0 0 255	0 0 255	0 0 255	0 0 255	0 0 255	0 0 255	0 0 255	0 0 255	0 0 255	0 0 255	0 0 255	0 0 255	0 0 255	0 0 255	0 0 255	0 0 255	0 0 255	0 0 255	0 0 255	0 0 255	0 0 255	0 0 255	0 0 255	0 0 255	0 0 255	0 0 255	0 0 255	0 0 255	0 0 255	0 0 255	0 0 255	0 0 255	0 0 255	0 0 255	0 0 255	0 0 255	0 0 255	0 0 255	0 0 255	0 0 255	0 0 255	0 0 255	0 0 255	0 0 255	0 0 255	0 0 255	0 0 255	0 0 255	0 0 255	0 0 255	0 0 255	0 0 255	0 0 255	0 0 255	0 0 255	0 0 255	0 0 255	0 0 255	0 0 255	0 0 255	0 0 255	0 0 255	0 0 255	0 0 255	0 0 255	0 0 255	0 0 255	0 0 255	0 0 255	0 0 255	0 0 255	0 0 255	0 0 255	0 0 255	0 0 255	0 0 255	0 0 255	0 0 255	0 0 255	0 0 255	0 0 255	0 0 255	0 0 255	0 0 255	0 0 255	0 0 255	0 0 255	0 0 255	0 0 255	0 0 255	0 0 255	0 0 255	0 0 255	0 0 255	0 0 255	0 0 255	0 0 255	0 0 255	0 0 255	0 0 255	0 0 255	0 0 255	0 0 255	0 0 255	0 0 255	0 0 255	0 0 255	0 0 255	0 0 255	0 0 255	0 0 255	0 0 255	0 0 255	0 0 255	0 0 255	0 0 255	0 0 255	0 0 255	0 0 255	0 0 255	0 0 255	0 0 255	0 0 255	0 0 255	0 0 255	0 0 255	0 0 255	0 0 255	0 0 255	0 0 255	0 0 255	0 0 255	0 0 255	0 0 255	0 0 255	0 0 255	0 0 255	0 0 255	0 0 255	0 0 255	0 0 255	0 0 255	0 0 255	0 0 255	0 0 255	0 0 255	0 0 255	0 0 255	0 0 255	0 0 255	0 0 255	0 0 255	0 0 255	0 0 255	0 0 255	0 0 255	0 0 255	0 0 255	0 0 255	0 0 255	0 0 255	0 0 255	0 0 255	0 0 255	0 0 255	0 0 255	0 0 255	0 0 255	0 0 255	0 0 255	0 0 255	0 0 255	0 0 255	0 0 255	0 0 255	0 0 255	0 0 255	0 0 255	0 0 255	0 0 255	0 0 255	0 0 255	0 0 255	0 0 255	0 0 255	0 0 255	0 0 255	0 0 255	0 0 255	0 0 255	0 0 255	0 0 255	0 0 255	0 0 255	0 0 255	0 0 255	0 0 255	0 0 255	0 0 255	0 0 255	0 0 255	0 0 255	0 0 255	0 0 255	0 0 255	0 0 255	0 0 255	0 0 255	0 0 255	0 0 255	0 0 255	0 0 255	0 0 255	0 0 255	0 0 255	0 0 255	0 0 255	0 0 255	0 0 255	0 0 255	0 0 255	0 0 255	0 0 255	0 0 255	0 0 255	0 0 255	0 0 255	0 0 255	0 0 255	0 0 255	0 0 255	0 0 255	0 0 255	0 0 255	0 0 255	0 0 255	0 0 255	0 0 255	0 0 255	0 0 255	0 0 255	0 0 255	0 0 255	0 0 255	0 0 255	0 0 255	0 0 255	0 0 255	0 0 255	0 0 255	0 0 255	0 0 255	0 0 255	0 0 255	0 0 255	
0 0 255	0 0 255	0 0 255	0 0 255	0 0 255	0 0 255	0 0 255	0 0 255	0 0 255	0 0 255	0 0 255	0 0 255	0 0 255	0 0 255	0 0 255	0 0 255	0 0 255	0 0 255	0 0 255	0 0 255	0 0 255	0 0 255	0 0 255	0 0 255	0 0 255	0 0 255	0 0 255	0 0 255	0 0 255	0 0 255	0 0 255	0 0 255	0 0 255	0 0 255	0 0 255	0 0 255	0 0 255	0 0 255	0 0 255	0 0 255	0 0 255	0 0 255	0 0 255	0 0 255	0 0 255	0 0 255	0 0 255	0 0 255	0 0 255	0 0 255	0 0 255	0 0 255	0 0 255	0 0 255	0 0 255	0 0 255	0 0 255	0 0 255	0 0 255	0 0 255	0 0 255	0 0 255	0 0 255	0 0 255	0 0 255	0 0 255	0 0 255	0 0 255	0 0 255	0 0 255	0 0 255	0 0 255	0 0 255	0 0 255	0 0 255	0 0 255	0 0 255	0 0 255	0 0 255	0 0 255	0 0 255	0 0 255	0 0 255	0 0 255	0 0 255	0 0 255	0 0 255	0 0 255	0 0 255	0 0 255	0 0 255	0 0 255	0 0 255	0 0 255	0 0 255	0 0 255	0 0 255	0 0 255	0 0 255	0 0 255	0 0 255	0 0 255	0 0 255	0 0 255	0 0 255	0 0 255	0 0 255	0 0 255	0 0 255	0 0 255	0 0 255	0 0 255	0 0 255	0 0 255	0 0 255	0 0 255	0 0 255	0 0 255	0 0 255	0 0 255	0 0 255	0 0 255	0 0 255	0 0 255	0 0 255	0 0 255	0 0 255	0 0 255	0 0 255	0 0 255	0 0 255	0 0 255	0 0 255	0 0 255	0 0 255	0 0 255	0 0 255	0 0 255	0 0 255	0 0 255	0 0 255	0 0 255	0 0 255	0 0 255	0 0 255	0 0 255	0 0 255	0 0 255	0 0 255	0 0 255	0 0 255	0 0 255	0 0 255	0 0 255	0 0 255	0 0 255	0 0 255	0 0 255	0 0 255	0 0 255	0 0 255	0 0 255	0 0 255	0 0 255	0 0 255	0 0 255	0 0 255	0 0 255	0 0 255	0 0 255	0 0 255	0 0 255	0 0 255	0 0 255	0 0 255	0 0 255	0 0 255	0 0 255	0 0 255	0 0 255	0 0 255	0 0 255	0 0 255	0 0 255	0 0 255	0 0 255	0 0 255	0 0 255	0 0 255	0 0 255	0 0 255	0 0 255	0 0 255	0 0 255	0 0 255	0 0 255	0 0 255	0 0 255	0 0 255	0 0 255	0 0 255	0 0 255	0 0 255	0 0 255	0 0 255	0 0 255	0 0 255	0 0 255	0 0 255	0 0 255	0 0 255	0 0 255	0 0 255	0 0 255	0 0 255	0 0 255	0 0 255	0 0 255	0 0 255	0 0 255	0 0 255	0 0 255	0 0 255	0 0 255	0 0 255	0 0 255	0 0 255	0 0 255	0 0 255	0 0 255	0 0 255	0 0 255	0 0 255	0 0 255	0 0 255	0 0 255	0 0 255	0 0 255	0 0 255	0 0 255	0 0 255	0 0 255	0 0 255	0 0 255	0 0 255	0 0 255	0 0 255	0 0 255	0 0 255	0 0 255	0 0 255	0 0 255	0 0 255	0 0 255	0 0 255	0 0 255	
0 0 255	0 0 255	0 0 255	0 0 255	0 0 255	0 0 255	0 0 255	0 0 255	0 0 255	0 0 255	0 0 255	0 0 255	0 0 255	0 0 255	0 0 255	0 0 255	0 0 255	0 0 255	0 0 255	0 0 255	0 0 255	0 0 255	0 0 255	0 0 255	0 0 255	0 0 255	0 0 255	0 0 255	0 0 255	0 0 255	0 0 255	0 0 255	0 0 255	0 0 255	0 0 255	0 0 255	0 0 255	0 0 255	0 0 255	0 0 255	0 0 255	0 0 255	0 0 255	0 0 255	0 0 255	0 0 255	0 0 255	0 0 255	0 0 255	0 0 255	0 0 255	0 0 255	0 0 255	0 0 255	0 0 255	0 0 255	0 0 255	0 0 255	0 0 255	0 0 255	0 0 255	0 0 255	0 0 255	0 0 255	0 0 255	0 0 255	0 0 255	0 0 255	0 0 255	0 0 255	0 0 255	0 0 255	0 0 255	0 0 255	0 0 255	0 0 255	0 0 255	0 0 255	0 0 255	0 0 255	0 0 255	0 0 255	0 0 255	0 0 255	0 0 255	0 0 255	0 0 255	0 0 255	0 0 255	0 0 255	0 0 255	0 0 255	0 0 255	0 0 255	0 0 255	0 0 255	0 0 255	0 0 255	0 0 255	0 0 255	0 0 255	0 0 255	0 0 255	0 0 255	0 0 255	0 0 255	0 0 255	0 0 255	0 0 255	0 0 255	0 0 255	0 0 255	0 0 255	0 0 255	0 0 255	0 0 255	0 0 255	0 0 255	0 0 255	0 0 255	0 0 255	0 0 255	0 0 255	0 0 255	0 0 255	0 0 255	0 0 255	0 0 255	0 0 255	0 0 255	0 0 255	0 0 255	0 0 255	0 0 255	0 0 255	0 0 255	0 0 255	0 0 255	0 0 255	0 0 255	0 0 255	0 0 255	0 0 255	0 0 255	0 0 255	0 0 255	0 0 255	0 0 255	0 0 255	0 0 255	0 0 255	0 0 255	0 0 255	0 0 255	0 0 255	0 0 255	0 0 255	0 0 255	0 0 255	0 0 255	0 0 255	0 0 255	0 0 255	0 0 255	0 0 255	0 0 255	0 0 255	0 0 255	0 0 255	0 0 255	0 0 255	0 0 255	0 0 255	0 0 255	0 0 255	0 0 255	0 0 255	0 0 255	0 0 255	0 0 255	0 0 255	0 0 255	0 0 255	0 0 255	0 0 255	0 0 255	0 0 255	0 0 255	0 0 255	0 0 255	0 0 255	0 0 255	0 0 255	0 0 255	0 0 255	0 0 255	0 0 255	0 0 255	0 0 255	0 0 255	0 0 255	0 0 255	0 0 255	0 0 255	0 0 255	0 0 255	0 0 255	0 0 255	0 0 255	0 0 255	0 0 255	0 0 255	0 0 255	0 0 255	0 0 255	0 0 255	0 0 255	0 0 255	0 0 255	0 0 255	0 0 255	0 0 255	0 0 255	0 0 255	0 0 255	0 0 255	0 0 255	0 0 255	0 0 255	0 0 255	0 0 255	0 0 255	0 0 255	0 0 255	0 0 255	0 0 255	0 0 255	0 0 255	0 0 255	0 0 255	0 0 255	0 0 255	0 0 255	0 0 255	0 0 255	0 0 255	0 0 255	0 0 255	0 0 255	0 0 255	0 0 255	0 0 255	0 0 255	0 0 255	0 0 255	0 0 255	
0 0 255	0 0 255	0 0 255	0 0 255	0 0 255	0 0 255	0 0 255	0 0 255	0 0 255	0 0 255	0 0 255	0 0 255	0 0 255	0 0 255	0 0 255	0 0 255	0 0 255	0 0 255	0 0 255	0 0 255	0 0 255	0 0 255	0 0 255	0 0 255	0 0 255	0 0 255	0 0 255	0 0 255	0 0 255	0 0 255	0 0 255	0 0 255	0 0 255	0 0 255	0 0 255	0 0 255	0 0 255	0 0 255	0 0 255	0 0 255	0 0 255	0 0 255	0 0 255	0 0 255	0 0 255	0 0 255	0 0 255	0 0 255	0 0 255	0 0 255	0 0 255	0 0 255	0 0 255	0 0 255	0 0 255	0 0 255	0 0 255	0 0 255	0 0 255	0 0 255	0 0 255	0 0 255	0 0 255	0 0 255	0 0 255	0 0 255	0 0 255	0 0 255	0 0 255	0 0 255	0 0 255	0 0 255	0 0 255	0 0 255	0 0 255	0 0 255	0 0 255	0 0 255	0 0 255	0 0 255	0 0 255	0 0 255	0 0 255	0 0 255	0 0 255	0 0 255	0 0 255	0 0 255	0 0 255	0 0 255	0 0 255	0 0 255	0 0 255	0 0 255	0 0 255	0 0 255	0 0 255	0 0 255	0 0 255	0 0 255	0 0 255	0 0 255	0 0 255	0 0 255	0 0 255	0 0 255	0 0 255	0 0 255	0 0 255	0 0 255	0 0 255	0 0 255	0 0 255	0 0 255	0 0 255	0 0 255	0 0 255	0 0 255	0 0 255	0 0 255	0 0 255	0 0 255	0 0 255	0 0 255	0 0 255	0 0 255	0 0 255	0 0 255	0 0 255	0 0 255	0 0 255	0 0 255	0 0 255	0 0 255	0 0 255	0 0 255	0 0 255	0 0 255	0 0 255	0 0 255	0 0 255	0 0 255	0 0 255	0 0 255	0 0 255	0 0 255	0 0 255	0 0 255	0 0 255	0 0 255	0 0 255	0 0 255	0 0 255	0 0 255	0 0 255	0 0 255	0 0 255	0 0 255	0 0 255	0 0 255	0 0 255	0 0 255	0 0 255	0 0 255	0 0 255	0 0 255	0 0 255	0 0 255	0 0 255	0 0 255	0 0 255	0 0 255	0 0 255	0 0 255	0 0 255	0 0 255	0 0 255	0 0 255	0 0 255	0 0 255	0 0 255	0 0 255	0 0 255	0 0 255	0 0 255	0 0 255	0 0 255	0 0 255	0 0 255	0 0 255	0 0 255	0 0 255	0 0 255	0 0 255	0 0 255	0 0 255	0 0 255	0 0 255	0 0 255	0 0 255	0 0 255	0 0 255	0 0 255	0 0 255	0 0 255	0 0 255	0 0 255	0 0 255	0 0 255	0 0 255	0 0 255	0 0 255	0 0 255	0 0 255	0 0 255	0 0 255	0 0 255	0 0 255	0 0 255	0 0 255	0 0 255	0 0 255	0 0 255	0 0 255	0 0 255	0 0 255	0 0 255	0 0 255	0 0 255	0 0 255	0 0 255	0 0 255	0 0 255	0 0 255	0 0 255	0 0 255	0 0 255	0 0 255	0 0 255	0 0 255	0 0 255	0 0 255	0 0 255	0 0 255	0 0 255	0 0 255	0 0 255	0 0 255	0 0 255	0 0 255	0 0 255	0 0 255	0 0 255	0 0 255	0 0 255	0 0 255	
0 0 255	0 0 255	0 0 255	0 0 255	0 0 255	0 0 255	0 0 255	0 0 255	0 0 255	0 0 255	0 0 255	0 0 255	0 0 255	0 0 255	0 0 255	0 0 255	0 0 255	0 0 255	0 0 255	0 0 255	0 0 255	0 0 255	0 0 255	0 0 255	0 0 255	0 0 255	0 0 255	0 0 255	0 0 255	0 0 255	0 0 255	0 0 255	0 0 255	0 0 255	0 0 255	0 0 255	0 0 255	0 0 255	0 0 255	0 0 255	0 0 255	0 0 255	0 0 255	0 0 255	0 0 255	0 0 255	0 0 255	0 0 255	0 0 255	0 0 255	0 0 255	0 0 255	0 0 255	0 0 255	0 0 255	0 0 255	0 0 255	0 0 255	0 0 255	0 0 255	0 0 255	0 0 255	0 0 255	0 0 255	0 0 255	0 0 255	0 0 255	0 0 255	0 0 255	0 0 255	0 0 255	0 0 255	0 0 255	0 0 255	0 0 255	0 0 255	0 0 255	0 0 255	0 0 255	0 0 255	0 0 255	0 0 255	0 0 255	0 0 255	0 0 255	0 0 255	0 0 255	0 0 255	0 0 255	0 0 255	0 0 255	0 0 255	0 0 255	0 0 255	0 0 255	0 0 255	0 0 255	0 0 255	0 0 255	0 0 255	0 0 255	0 0 255	0 0 255	0 0 255	0 0 255	0 0 255	0 0 255	0 0 255	0 0 255	0 0 255	0 0 255	0 0 255	0 0 255	0 0 255	0 0 255	0 0 255	0 0 255	0 0 255	0 0 255	0 0 255	0 0 255	0 0 255	0 0 255	0 0 255	0 0 255	0 0 255	0 0 255	0 0 255	0 0 255	0 0 255	0 0 255	0 0 255	0 0 255	0 0 255	0 0 255	0 0 255	0 0 255	0 0 255	0 0 255	0 0 255	0 0 255	0 0 255	0 0 255	0 0 255	0 0 255	0 0 255	0 0 255	0 0 255	0 0 255	0 0 255	0 0 255	0 0 255	0 0 255	0 0 255	0 0 255	0 0 255	0 0 255	0 0 255	0 0 255	0 0 255	0 0 255	0 0 255	0 0 255	0 0 255	0 0 255	0 0 255	0 0 255	0 0 255	0 0 255	0 0 255	0 0 255	0 0 255	0 0 255	0 0 255	0 0 255	0 0 255	0 0 255	0 0 255	0 0 255	0 0 255	0 0 255	0 0 255	0 0 255	0 0 255	0 0 255	0 0 255	0 0 255	0 0 255	0 0 255	0 0 255	0 0 255	0 0 255	0 0 255	0 0 255	0 0 255	0 0 255	0 0 255	0 0 255	0 0 255	0 0 255	0 0 255	0 0 255	0 0 255	0 0 255	0 0 255	0 0 255	0 0 255	0 0 255	0 0 255	0 0 255	0 0 255	0 0 255	0 0 255	0 0 255	0 0 255	0 0 255	0 0 255	0 0 255	0 0 255	0 0 255	0 0 255	0 0 255	0 0 255	0 0 255	0 0 255	0 0 255	0 0 255	0 0 255	0 0 255	0 0 255	0 0 255	0 0 255	0 0 255	0 0 255	0 0 255	0 0 255	0 0 255	0 0 255	0 0 255	0 0 255	0 0 255	0 0 255	0 0 255	0 0 255	0 0 255	0 0 255	0 0 255	0 0 255	0 0 255	0 0 255	0 0 255	0 0 255	0 0 255	0 0 255	0 0 255	0 0 255	
0 0 255	0 0 255	0 0 255	0 0 255	0 0 255	0 0 255	0 0 255	0 0 255	0 0 255	0 0 255	0 0 255	0 0 255	0 0 255	0 0 255	0 0 255	0 0 255	0 0 255	0 0 255	0 0 255	0 0 255	0 0 255	0 0 255	0 0 255	0 0 255	0 0 255	0 0 255	0 0 255	0 0 255	0 0 255	0 0 255	0 0 255	0 0 255	0 0 255	0 0 255	0 0 255	0 0 255	0 0 255	0 0 255	0 0 255	0 0 255	0 0 255	0 0 255	0 0 255	0 0 255	0 0 255	0 0 255	0 0 255	0 0 255	0 0 255	0 0 255	0 0 255	0 0 255	0 0 255	0 0 255	0 0 255	0 0 255	0 0 255	0 0 255	0 0 255	0 0 255	0 0 255	0 0 255	0 0 255	0 0 255	0 0 255	0 0 255	0 0 255	0 0 255	0 0 255	0 0 255	0 0 255	0 0 255	0 0 255	0 0 255	0 0 255	0 0 255	0 0 255	0 0 255	0 0 255	0 0 255	0 0 255	0 0 255	0 0 255	0 0 255	0 0 255	0 0 255	0 0 255	0 0 255	0 0 255	0 0 255	0 0 255	0 0 255	0 0 255	0 0 255	0 0 255	0 0 255	0 0 255	0 0 255	0 0 255	0 0 255	0 0 255	0 0 255	0 0 255	0 0 255	0 0 255	0 0 255	0 0 255	0 0 255	0 0 255	0 0 255	0 0 255	0 0 255	0 0 255	0 0 255	0 0 255	0 0 255	0 0 255	0 0 255	0 0 255	0 0 255	0 0 255	0 0 255	0 0 255	0 0 255	0 0 255	0 0 255	0 0 255	0 0 255	0 0 255	0 0 255	0 0 255	0 0 255	0 0 255	0 0 255	0 0 255	0 0 255	0 0 255	0 0 255	0 0 255	0 0 255	0 0 255	0 0 255	0 0 255	0 0 255	0 0 255	0 0 255	0 0 255	0 0 255	0 0 255	0 0 255	0 0 255	0 0 255	0 0 255	0 0 255	0 0 255	0 0 255	0 0 255	0 0 255	0 0 255	0 0 255	0 0 255	0 0 255	0 0 255	0 0 255	0 0 255	0 0 255	0 0 255	0 0 255	0 0 255	0 0 255	0 0 255	0 0 255	0 0 255	0 0 255	0 0 255	0 0 255	0 0 255	0 0 255	0 0 255	0 0 255	0 0 255	0 0 255	0 0 255	0 0 255	0 0 255	0 0 255	0 0 255	0 0 255	0 0 255	0 0 255	0 0 255	0 0 255	0 0 255	0 0 255	0 0 255	0 0 255	0 0 255	0 0 255	0 0 255	0 0 255	0 0 255	0 0 255	0 0 255	0 0 255	0 0 255	0 0 255	0 0 255	0 0 255	0 0 255	0 0 255	0 0 255	0 0 255	0 0 255	0 0 255	0 0 255	0 0 255	0 0 255	0 0 255	0 0 255	0 0 255	0 0 255	0 0 255	0 0 255	0 0 255	0 0 255	0 0 255	0 0 255	0 0 255	0 0 255	0 0 255	0 0 255	0 0 255	0 0 255	0 0 255	0 0 255	0 0 255	0 0 255	0 0 255	0 0 255	0 0 255	0 0 255	0 0 255	0 0 255	0 0 255	0 0 255	0 0 255	0 0 255	0 0 255	0 0 255	0 0 255	0 0 255	0 0 255	0 0 255	0 0 255	0 0 255	0 0 255	
0 0 255	0 0 255	0 0 255	0 0 255	0 0 255	0 0 255	0 0 255	0 0 255	0 0 255	0 0 255	0 0 255	0 0 255	0 0 255	0 0 255	0 0 255	0 0 255	0 0 255	0 0 255	0 0 255	0 0 255	0 0 255	0 0 255	0 0 255	0 0 255	0 0 255	0 0 255	0 0 255	0 0 255	0 0 255	0 0 255	0 0 255	0 0 255	0 0 255	0 0 255	0 0 255	0 0 255	0 0 255	0 0 255	0 0 255	0 0 255	0 0 255	0 0 255	0 0 255	0 0 255	0 0 255	0 0 255	0 0 255	0 0 255	0 0 255	0 0 255	0 0 255	0 0 255	0 0 255	0 0 255	0 0 255	0 0 255	0 0 255	0 0 255	0 0 255	0 0 255	0 0 255	0 0 255	0 0 255	0 0 255	0 0 255	0 0 255	0 0 255	0 0 255	0 0 255	0 0 255	0 0 255	0 0 255	0 0 255	0 0 255	0 0 255	0 0 255	0 0 255	0 0 255	0 0 255	0 0 255	0 0 255	0 0 255	0 0 255	0 0 255	0 0 255	0 0 255	0 0 255	0 0 255	0 0 255	0 0 255	0 0 255	0 0 255	0 0 255	0 0 255	0 0 255	0 0 255	0 0 255	0 0 255	0 0 255	0 0 255	0 0 255	0 0 255	0 0 255	0 0 255	0 0 255	0 0 255	0 0 255	0 0 255	0 0 255	0 0 255	0 0 255	0 0 255	0 0 255	0 0 255	0 0 255	0 0 255	0 0 255	0 0 255	0 0 255	0 0 255	0 0 255	0 0 255	0 0 255	0 0 255	0 0 255	0 0 255	0 0 255	0 0 255	0 0 255	0 0 255	0 0 255	0 0 255	0 0 255	0 0 255	0 0 255	0 0 255	0 0 255	0 0 255	0 0 255	0 0 255	0 0 255	0 0 255	0 0 255	0 0 255	0 0 255	0 0 255	0 0 255	0 0 255	0 0 255	0 0 255	0 0 255	0 0 255	0 0 255	0 0 255	0 0 255	0 0 255	0 0 255	0 0 255	0 0 255	0 0 255	0 0 255	0 0 255	0 0 255	0 0 255	0 0 255	0 0 255	0 0 255	0 0 255	0 0 255	0 0 255	0 0 255	0 0 255	0 0 255	0 0 255	0 0 255	0 0 255	0 0 255	0 0 255	0 0 255	0 0 255	0 0 255	0 0 255	0 0 255	0 0 255	0 0 255	0 0 255	0 0 255	0 0 255	0 0 255	0 0 255	0 0 255	0 0 255	0 0 255	0 0 255	0 0 255	0 0 255	0 0 255	0 0 255	0 0 255	0 0 255	0 0 255	0 0 255	0 0 255	0 0 255	0 0 255	0 0 255	0 0 255	0 0 255	0 0 255	0 0 255	0 0 255	0 0 255	0 0 255	0 0 255	0 0 255	0 0 255	0 0 255	0 0 255	0 0 255	0 0 255	0 0 255	0 0 255	0 0 255	0 0 255	0 0 255	0 0 255	0 0 255	0 0 255	0 0 255	0 0 255	0 0 255	0 0 255	0 0 255	0 0 255	0 0 255	0 0 255	0 0 255	0 0 255	0 0 255	0 0 255	0 0 255	0 0 255	0 0 255	0 0 255	0 0 255	0 0 255	0 0 255	0 0 255	0 0 255	0 0 255	0 0 255	0 0 255	0 0 255	0 0 255	0 0 255	0 0 255	
0 0 255	0 0 255	0 0 255	0 0 255	0 0 255	0 0 255	0 0 255	0 0 255	0 0 255	0 0 255	0 0 255	0 0 255	0 0 255	0 0 255	0 0 255	0 0 255	0 0 255	0 0 255	0 0 255	0 0 255	0 0 255	0 0 255	0 0 255	0 0 255	0 0 255	0 0 255	0 0 255	0 0 255	0 0 255	0 0 255	0 0 255	0 0 255	0 0 255	0 0 255	0 0 255	0 0 255	0 0 255	0 0 255	0 0 255	0 0 255	0 0 255	0 0 255	0 0 255	0 0 255	0 0 255	0 0 255	0 0 255	0 0 255	0 0 255	0 0 255	0 0 255	0 0 255	0 0 255	0 0 255	0 0 255	0 0 255	0 0 255	0 0 255	0 0 255	0 0 255	0 0 255	0 0 255	0 0 255	0 0 255	0 0 255	0 0 255	0 0 255	0 0 255	0 0 255	0 0 255	0 0 255	0 0 255	0 0 255	0 0 255	0 0 255	0 0 255	0 0 255	0 0 255	0 0 255	0 0 255	0 0 255	0 0 255	0 0 255	0 0 255	0 0 255	0 0 255	0 0 255	0 0 255	0 0 255	0 0 255	0 0 255	0 0 255	0 0 255	0 0 255	0 0 255	0 0 255	0 0 255	0 0 255	0 0 255	0 0 255	0 0 255	0 0 255	0 0 255	0 0 255	0 0 255	0 0 255	0 0 255	0 0 255	0 0 255	0 0 255	0 0 255	0 0 255	0 0 255	0 0 255	0 0 255	0 0 255	0 0 255	0 0 255	0 0 255	0 0 255	0 0 255	0 0 255	0 0 255	0 0 255	0 0 255	0 0 255	0 0 255	0 0 255	0 0 255	0 0 255	0 0 255	0 0 255	0 0 255	0 0 255	0 0 255	0 0 255	0 0 255	0 0 255	0 0 255	0 0 255	0 0 255	0 0 255	0 0 255	0 0 255	0 0 255	0 0 255	0 0 255	0 0 255	0 0 255	0 0 255	0 0 255	0 0 255	0 0 255	0 0 255	0 0 255	0 0 255	0 0 255	0 0 255	0 0 255	0 0 255	0 0 255	0 0 255	0 0 255	0 0 255	0 0 255	0 0 255	0 0 255	0 0 255	0 0 255	0 0 255	0 0 255	0 0 255	0 0 255	0 0 255	0 0 255	0 0 255	0 0 255	0 0 255	0 0 255	0 0 255	0 0 255	0 0 255	0 0 255	0 0 255	0 0 255	0 0 255	0 0 255	0 0 255	0 0 255	0 0 255	0 0 255	0 0 255	0 0 255	0 0 255	0 0 255	0 0 255	0 0 255	0 0 255	0 0 255	0 0 255	0 0 255	0 0 255	0 0 255	0 0 255	0 0 255	0 0 255	0 0 255	0 0 255	0 0 255	0 0 255	0 0 255	0 0 255	0 0 255	0 0 255	0 0 255	0 0 255	0 0 255	0 0 255	0 0 255	0 0 255	0 0 255	0 0 255	0 0 255	0 0 255	0 0 255	0 0 255	0 0 255	0 0 255	0 0 255	0 0 255	0 0 255	0 0 255	0 0 255	0 0 255	0 0 255	0 0 255	0 0 255	0 0 255	0 0 255	0 0 255	0 0 255	0 0 255	0 0 255	0 0 255	0 0 255	0 0 255	0 0 255	0 0 255	0 0 255	0 0 255	0 0 255	0 0 255	0 0 255	0 0 255	0 0 255	0 0 255	
0 0 255	0 0 255	0 0 255	0 0 255	0 0 255	0 0 255	0 0 255	0 0 255	0 0 255	0 0 255	0 0 255	0 0 255	0 0 255	0 0 255	0 0 255	0 0 255	0 0 255	0 0 255	0 0 255	0 0 255	0 0 255	0 0 255	0 0 255	0 0 255	0 0 255	0 0 255	0 0 255	0 0 255	0 0 255	0 0 255	0 0 255	0 0 255	0 0 255	0 0 255	0 0 255	0 0 255	0 0 255	0 0 255	0 0 255	0 0 255	0 0 255	0 0 255	0 0 255	0 0 255	0 0 255	0 0 255	0 0 255	0 0 255	0 0 255	0 0 255	0 0 255	0 0 255	0 0 255	0 0 255	0 0 255	0 0 255	0 0 255	0 0 255	0 0 255	0 0 255	0 0 255	0 0 255	0 0 255	0 0 255	0 0 255	0 0 255	0 0 255	0 0 255	0 0 255	0 0 255	0 0 255	0 0 255	0 0 255	0 0 255	0 0 255	0 0 255	0 0 255	0 0 255	0 0 255	0 0 255	0 0 255	0 0 255	0 0 255	0 0 255	0 0 255	0 0 255	0 0 255	0 0 255	0 0 255	0 0 255	0 0 255	0 0 255	0 0 255	0 0 255	0 0 255	0 0 255	0 0 255	0 0 255	0 0 255	0 0 255	0 0 255	0 0 255	0 0 255	0 0 255	0 0 255	0 0 255	0 0 255	0 0 255	0 0 255	0 0 255	0 0 255	0 0 255	0 0 255	0 0 255	0 0 255	0 0 255	0 0 255	0 0 255	0 0 255	0 0 255	0 0 255	0 0 255	0 0 255	0 0 255	0 0 255	0 0 255	0 0 255	0 0 255	0 0 255	0 0 255	0 0 255	0 0 255	0 0 255	0 0 255	0 0 255	0 0 255	0 0 255	0 0 255	0 0 255	0 0 255	0 0 255	0 0 255	0 0 255	0 0 255	0 0 255	0 0 255	0 0 255	0 0 255	0 0 255	0 0 255	0 0 255	0 0 255	0 0 255	0 0 255	0 0 255	0 0 255	0 0 255	0 0 255	0 0 255	0 0 255	0 0 255	0 0 255	0 0 255	0 0 255	0 0 255	0 0 255	0 0 255	0 0 255	0 0 255	0 0 255	0 0 255	0 0 255	0 0 255	0 0 255	0 0 255	0 0 255	0 0 255	0 0 255	0 0 255	0 0 255	0 0 255	0 0 255	0 0 255	0 0 255	0 0 255	0 0 255	0 0 255	0 0 255	0 0 255	0 0 255	0 0 255	0 0 255	0 0 255	0 0 255	0 0 255	0 0 255	0 0 255	0 0 255	0 0 255	0 0 255	0 0 255	0 0 255	0 0 255	0 0 255	0 0 255	0 0 255	0 0 255	0 0 255	0 0 255	0 0 255	0 0 255	0 0 255	0 0 255	0 0 255	0 0 255	0 0 255	0 0 255	0 0 255	0 0 255	0 0 255	0 0 255	0 0 255	0 0 255	0 0 255	0 0 255	0 0 255	0 0 255	0 0 255	0 0 255	0 0 255	0 0 255	0 0 255	0 0 255	0 0 255	0 0 255	0 0 255	0 0 255	0 0 255	0 0 255	0 0 255	0 0 255	0 0 255	0 0 255	0 0 255	0 0 255	0 0 255	0 0 255	0 0 255	0 0 255	0 0 255	0 0 255	0 0 255	0 0 255	0 0 255	0 0 255	0 0 255	
0 0 255	0 0 255	0 0 255	0 0 255	0 0 255	0 0 255	0 0 255	0 0 255	0 0 255	0 0 255	0 0 255	0 0 255	0 0 255	0 0 255	0 0 255	0 0 255	0 0 255	0 0 255	0 0 255	0 0 255	0 0 255	0 0 255	0 0 255	0 0 255	0 0 255	0 0 255	0 0 255	0 0 255	0 0 255	0 0 255	0 0 255	0 0 255	0 0 255	0 0 255	0 0 255	0 0 255	0 0 255	0 0 255	0 0 255	0 0 255	0 0 255	0 0 255	0 0 255	0 0 255	0 0 255	0 0 255	0 0 255	0 0 255	0 0 255	0 0 255	0 0 255	0 0 255	0 0 255	0 0 255	0 0 255	0 0 255	0 0 255	0 0 255	0 0 255	0 0 255	0 0 255	0 0 255	0 0 255	0 0 255	0 0 255	0 0 255	0 0 255	0 0 255	0 0 255	0 0 255	0 0 255	0 0 255	0 0 255	0 0 255	0 0 255	0 0 255	0 0 255	0 0 255	0 0 255	0 0 255	0 0 255	0 0 255	0 0 255	0 0 255	0 0 255	0 0 255	0 0 255	0 0 255	0 0 255	0 0 255	0 0 255	0 0 255	0 0 255	0 0 255	0 0 255	0 0 255	0 0 255	0 0 255	0 0 255	0 0 255	0 0 255	0 0 255	0 0 255	0 0 255	0 0 255	0 0 255	0 0 255	0 0 255	0 0 255	0 0 255	0 0 255	0 0 255	0 0 255	0 0 255	0 0 255	0 0 255	0 0 255	0 0 255	0 0 255	0 0 255	0 0 255	0 0 255	0 0 255	0 0 255	0 0 255	0 0 255	0 0 255	0 0 255	0 0 255	0 0 255	0 0 255	0 0 255	0 0 255	0 0 255	0 0 255	0 0 255	0 0 255	0 0 255	0 0 255	0 0 255	0 0 255	0 0 255	0 0 255	0 0 255	0 0 255	0 0 255	0 0 255	0 0 255	0 0 255	0 0 255	0 0 255	0 0 255	0 0 255	0 0 255	0 0 255	0 0 255	0 0 255	0 0 255	0 0 255	0 0 255	0 0 255	0 0 255	0 0 255	0 0 255	0 0 255	0 0 255	0 0 255	0 0 255	0 0 255	0 0 255	0 0 255	0 0 255	0 0 255	0 0 255	0 0 255	0 0 255	0 0 255	0 0 255	0 0 255	0 0 255	0 0 255	0 0 255	0 0 255	0 0 255	0 0 255	0 0 255	0 0 255	0 0 255	0 0 255	0 0 255	0 0 255	0 0 255	0 0 255	0 0 255	0 0 255	0 0 255	0 0 255	0 0 255	0 0 255	0 0 255	0 0 255	0 0 255	0 0 255	0 0 255	0 0 255	0 0 255	0 0 255	0 0 255	0 0 255	0 0 255	0 0 255	0 0 255	0 0 255	0 0 255	0 0 255	0 0 255	0 0 255	0 0 255	0 0 255	0 0 255	0 0 255	0 0 255	0 0 255	0 0 255	0 0 255	0 0 255	0 0 255	0 0 255	0 0 255	0 0 255	0 0 255	0 0 255	0 0 255	0 0 255	0 0 255	0 0 255	0 0 255	0 0 255	0 0 255	0 0 255	0 0 255	0 0 255	0 0 255	0 0 255	0 0 255	0 0 255	0 0 255	0 0 255	0 0 255	0 0 255	0 0 255	0 0 255	0 0 255	0 0 255	0 0 255	0 0 255	
0 0 255	0 0 255	0 0 255	0 0 255	0 0 255	0 0 255	0 0 255	0 0 255	0 0 255	0 0 255	0 0 255	0 0 255	0 0 255	0 0 255	0 0 255	0 0 255	0 0 255	0 0 255	0 0 255	0 0 255	0 0 255	0 0 255	0 0 255	0 0 255	0 0 255	0 0 255	0 0 255	0 0 255	0 0 255	0 0 255	0 0 255	0 0 255	0 0 255	0 0 255	0 0 255	0 0 255	0 0 255	0 0 255	0 0 255	0 0 255	0 0 255	0 0 255	0 0 255	0 0 255	0 0 255	0 0 255	0 0 255	0 0 255	0 0 255	0 0 255	0 0 255	0 0 255	0 0 255	0 0 255	0 0 255	0 0 255	0 0 255	0 0 255	0 0 255	0 0 255	0 0 255	0 0 255	0 0 255	0 0 255	0 0 255	0 0 255	0 0 255	0 0 255	0 0 255	0 0 255	0 0 255	0 0 255	0 0 255	0 0 255	0 0 255	0 0 255	0 0 255	0 0 255	0 0 255	0 0 255	0 0 255	0 0 255	0 0 255	0 0 255	0 0 255	0 0 255	0 0 255	0 0 255	0 0 255	0 0 255	0 0 255	0 0 255	0 0 255	0 0 255	0 0 255	0 0 255	0 0 255	0 0 255	0 0 255	0 0 255	0 0 255	0 0 255	0 0 255	0 0 255	0 0 255	0 0 255	0 0 255	0 0 255	0 0 255	0 0 255	0 0 255	0 0 255	0 0 255	0 0 255	0 0 255	0 0 255	0 0 255	0 0 255	0 0 255	0 0 255	0 0 255	0 0 255	0 0 255	0 0 255	0 0 255	0 0 255	0 0 255	0 0 255	0 0 255	0 0 255	0 0 255	0 0 255	0 0 255	0 0 255	0 0 255	0 0 255	0 0 255	0 0 255	0 0 255	0 0 255	0 0 255	0 0 255	0 0 255	0 0 255	0 0 255	0 0 255	0 0 255	0 0 255	0 0 255	0 0 255	0 0 255	0 0 255	0 0 255	0 0 255	0 0 255	0 0 255	0 0 255	0 0 255	0 0 255	0 0 255	0 0 255	0 0 255	0 0 255	0 0 255	0 0 255	0 0 255	0 0 255	0 0 255	0 0 255	0 0 255	0 0 255	0 0 255	0 0 255	0 0 255	0 0 255	0 0 255	0 0 255	0 0 255	0 0 255	0 0 255	0 0 255	0 0 255	0 0 255	0 0 255	0 0 255	0 0 255	0 0 255	0 0 255	0 0 255	0 0 255	0 0 255	0 0 255	0 0 255	0 0 255	0 0 255	0 0 255	0 0 255	0 0 255	0 0 255	0 0 255	0 0 255	0 0 255	0 0 255	0 0 255	0 0 255	0 0 255	0 0 255	0 0 255	0 0 255	0 0 255	0 0 255	0 0 255	0 0 255	0 0 255	0 0 255	0 0 255	0 0 255	0 0 255	0 0 255	0 0 255	0 0 255	0 0 255	0 0 255	0 0 255	0 0 255	0 0 255	0 0 255	0 0 255	0 0 255	0 0 255	0 0 255	0 0 255	0 0 255	0 0 255	0 0 255	0 0 255	0 0 255	0 0 255	0 0 255	0 0 255	0 0 255	0 0 255	0 0 255	0 0 255	0 0 255	0 0 255	0 0 255	0 0 255	0 0 255	0 0 255	0 0 255	0 0 255	0 0 255	0 0 255	0 0 255	0 0 255	
0 0 255	0 0 255	0 0 255	0 0 255	0 0 255	0 0 255	0 0 255	0 0 255	0 0 255	0 0 255	0 0 255	0 0 255	0 0 255	0 0 255	0 0 255	0 0 255	0 0 255	0 0 255	0 0 255	0 0 255	0 0 255	0 0 255	0 0 255	0 0 255	0 0 255	0 0 255	0 0 255	0 0 255	0 0 255	0 0 255	0 0 255	0 0 255	0 0 255	0 0 255	0 0 255	0 0 255	0 0 255	0 0 255	0 0 255	0 0 255	0 0 255	0 0 255	0 0 255	0 0 255	0 0 255	0 0 255	0 0 255	0 0 255	0 0 255	0 0 255	0 0 255	0 0 255	0 0 255	0 0 255	0 0 255	0 0 255	0 0 255	0 0 255	0 0 255	0 0 255	0 0 255	0 0 255	0 0 255	0 0 255	0 0 255	0 0 255	0 0 255	0 0 255	0 0 255	0 0 255	0 0 255	0 0 255	0 0 255	0 0 255	0 0 255	0 0 255	0 0 255	0 0 255	0 0 255	0 0 255	0 0 255	0 0 255	0 0 255	0 0 255	0 0 255	0 0 255	0 0 255	0 0 255	0 0 255	0 0 255	0 0 255	0 0 255	0 0 255	0 0 255	0 0 255	0 0 255	0 0 255	0 0 255	0 0 255	0 0 255	0 0 255	0 0 255	0 0 255	0 0 255	0 0 255	0 0 255	0 0 255	0 0 255	0 0 255	0 0 255	0 0 255	0 0 255	0 0 255	0 0 255	0 0 255	0 0 255	0 0 255	0 0 255	0 0 255	0 0 255	0 0 255	0 0 255	0 0 255	0 0 255	0 0 255	0 0 255	0 0 255	0 0 255	0 0 255	0 0 255	0 0 255	0 0 255	0 0 255	0 0 255	0 0 255	0 0 255	0 0 255	0 0 255	0 0 255	0 0 255	0 0 255	0 0 255	0 0 255	0 0 255	0 0 255	0 0 255	0 0 255	0 0 255	0 0 255	0 0 255	0 0 255	0 0 255	0 0 255	0 0 255	0 0 255	0 0 255	0 0 255	0 0 255	0 0 255	0 0 255	0 0 255	0 0 255	0 0 255	0 0 255	0 0 255	0 0 255	0 0 255	0 0 255	0 0 255	0 0 255	0 0 255	0 0 255	0 0 255	0 0 255	0 0 255	0 0 255	0 0 255	0 0 255	0 0 255	0 0 255	0 0 255	0 0 255	0 0 255	0 0 255	0 0 255	0 0 255	0 0 255	0 0 255	0 0 255	0 0 255	0 0 255	0 0 255	0 0 255	0 0 255	0 0 255	0 0 255	0 0 255	0 0 255	0 0 255	0 0 255	0 0 255	0 0 255	0 0 255	0 0 255	0 0 255	0 0 255	0 0 255	0 0 255	0 0 255	0 0 255	0 0 255	0 0 255	0 0 255	0 0 255	0 0 255	0 0 255	0 0 255	0 0 255	0 0 255	0 0 255	0 0 255	0 0 255	0 0 255	0 0 255	0 0 255	0 0 255	0 0 255	0 0 255	0 0 255	0 0 255	0 0 255	0 0 255	0 0 255	0 0 255	0 0 255	0 0 255	0 0 255	0 0 255	0 0 255	0 0 255	0 0 255	0 0 255	0 0 255	0 0 255	0 0 255	0 0 255	0 0 255	0 0 255	0 0 255	0 0 255	0 0 255	0 0 255	0 0 255	0 0 255	0 0 255	0 0 255	
0 0 255	0 0 255	0 0 255	0 0 255	0 0 255	0 0 255	0 0 255	0 0 255	0 0 255	0 0 255	0 0 255	0 0 255	0 0 255	0 0 255	0 0 255	0 0 255	0 0 255	0 0 255	0 0 255	0 0 255	0 0 255	0 0 255	0 0 255	0 0 255	0 0 255	0 0 255	0 0 255	0 0 255	0 0 255	0 0 255	0 0 255	0 0 255	0 0 255	0 0 255	0 0 255	0 0 255	0 0 255	0 0 255	0 0 255	0 0 255	0 0 255	0 0 255	0 0 255	0 0 255	0 0 255	0 0 255	0 0 255	0 0 255	0 0 255	0 0 255	0 0 255	0 0 255	0 0 255	0 0 255	0 0 255	0 0 255	0 0 255	0 0 255	0 0 255	0 0 255	0 0 255	0 0 255	0 0 255	0 0 255	0 0 255	0 0 255	0 0 255	0 0 255	0 0 255	0 0 255	0 0 255	0 0 255	0 0 255	0 0 255	0 0 255	0 0 255	0 0 255	0 0 255	0 0 255	0 0 255	0 0 255	0 0 255	0 0 255	0 0 255	0 0 255	0 0 255	0 0 255	0 0 255	0 0 255	0 0 255	0 0 255	0 0 255	0 0 255	0 0 255	0 0 255	0 0 255	0 0 255	0 0 255	0 0 255	0 0 255	0 0 255	0 0 255	0 0 255	0 0 255	0 0 255	0 0 255	0 0 255	0 0 255	0 0 255	0 0 255	0 0 255	0 0 255	0 0 255	0 0 255	0 0 255	0 0 255	0 0 255	0 0 255	0 0 255	0 0 255	0 0 255	0 0 255	0 0 255	0 0 255	0 0 255	0 0 255	0 0 255	0 0 255	0 0 255	0 0 255	0 0 255	0 0 255	0 0 255	0 0 255	0 0 255	0 0 255	0 0 255	0 0 255	0 0 255	0 0 255	0 0 255	0 0 255	0 0 255	0 0 255	0 0 255	0 0 255	0 0 255	0 0 255	0 0 255	0 0 255	0 0 255	0 0 255	0 0 255	0 0 255	0 0 255	0 0 255	0 0 255	0 0 255	0 0 255	0 0 255	0 0 255	0 0 255	0 0 255	0 0 255	0 0 255	0 0 255	0 0 255	0 0 255	0 0 255	0 0 255	0 0 255	0 0 255	0 0 255	0 0 255	0 0 255	0 0 255	0 0 255	0 0 255	0 0 255	0 0 255	0 0 255	0 0 255	0 0 255	0 0 255	0 0 255	0 0 255	0 0 255	0 0 255	0 0 255	0 0 255	0 0 255	0 0 255	0 0 255	0 0 255	0 0 255	0 0 255	0 0 255	0 0 255	0 0 255	0 0 255	0 0 255	0 0 255	0 0 255	0 0 255	0 0 255	0 0 255	0 0 255	0 0 255	0 0 255	0 0 255	0 0 255	0 0 255	0 0 255	0 0 255	0 0 255	0 0 255	0 0 255	0 0 255	0 0 255	0 0 255	0 0 255	0 0 255	0 0 255	0 0 255	0 0 255	0 0 255	0 0 255	0 0 255	0 0 255	0 0 255	0 0 255	0 0 255	0 0 255	0 0 255	0 0 255	0 0 255	0 0 255	0 0 255	0 0 255	0 0 255	0 0 255	0 0 255	0 0 255	0 0 255	0 0 255	0 0 255	0 0 255	0 0 255	0 0 255	0 0 255	0 0 255	0 0 255	0 0 255	0 0 255	0 0 255	0 0 255	
0 0 255	0 0 255	0 0 255	0 0 255	0 0 255	0 0 255	0 0 255	0 0 255	0 0 255	0 0 255	0 0 255	0 0 255	0 0 255	0 0 255	0 0 255	0 0 255	0 0 255	0 0 255	0 0 255	0 0 255	0 0 255	0 0 255	0 0 255	0 0 255	0 0 255	0 0 255	0 0 255	0 0 255	0 0 255	0 0 255	0 0 255	0 0 255	0 0 255	0 0 255	0 0 255	0 0 255	0 0 255	0 0 255	0 0 255	0 0 255	0 0 255	0 0 255	0 0 255	0 0 255	0 0 255	0 0 255	0 0 255	0 0 255	0 0 255	0 0 255	0 0 255	0 0 255	0 0 255	0 0 255	0 0 255	0 0 255	0 0 255	0 0 255	0 0 255	0 0 255	0 0 255	0 0 255	0 0 255	0 0 255	0 0 255	0 0 255	0 0 255	0 0 255	0 0 255	0 0 255	0 0 255	0 0 255	0 0 255	0 0 255	0 0 255	0 0 255	0 0 255	0 0 255	0 0 255	0 0 255	0 0 255	0 0 255	0 0 255	0 0 255	0 0 255	0 0 255	0 0 255	0 0 255	0 0 255	0 0 255	0 0 255	0 0 255	0 0 255	0 0 255	0 0 255	0 0 255	0 0 255	0 0 255	0 0 255	0 0 255	0 0 255	0 0 255	0 0 255	0 0 255	0 0 255	0 0 255	0 0 255	0 0 255	0 0 255	0 0 255	0 0 255	0 0 255	0 0 255	0 0 255	0 0 255	0 0 255	0 0 255	0 0 255	0 0 255	0 0 255	0 0 255	0 0 255	0 0 255	0 0 255	0 0 255	0 0 255	0 0 255	0 0 255	0 0 255	0 0 255	0 0 255	0 0 255	0 0 255	0 0 255	0 0 255	0 0 255	0 0 255	0 0 255	0 0 255	0 0 255	0 0 255	0 0 255	0 0 255	0 0 255	0 0 255	0 0 255	0 0 255	0 0 255	0 0 255	0 0 255	0 0 255	0 0 255	0 0 255	0 0 255	0 0 255	0 0 255	0 0 255	0 0 255	0 0 255	0 0 255	0 0 255	0 0 255	0 0 255	0 0 255	0 0 255	0 0 255	0 0 255	0 0 255	0 0 255	0 0 255	0 0 255	0 0 255	0 0 255	0 0 255	0 0 255	0 0 255	0 0 255	0 0 255	0 0 255	0 0 255	0 0 255	0 0 255	0 0 255	0 0 255	0 0 255	0 0 255	0 0 255	0 0 255	0 0 255	0 0 255	0 0 255	0 0 255	0 0 255	0 0 255	0 0 255	0 0 255	0 0 255	0 0 255	0 0 255	0 0 255	0 0 255	0 0 255	0 0 255	0 0 255	0 0 255	0 0 255	0 0 255	0 0 255	0 0 255	0 0 255	0 0 255	0 0 255	0 0 255	0 0 255	0 0 255	0 0 255	0 0 255	0 0 255	0 0 255	0 0 255	0 0 255	0 0 255	0 0 255	0 0 255	0 0 255	0 0 255	0 0 255	0 0 255	0 0 255	0 0 255	0 0 255	0 0 255	0 0 255	0 0 255	0 0 255	0 0 255	0 0 255	0 0 255	0 0 255	0 0 255	0 0 255	0 0 255	0 0 255	0 0 255	0 0 255	0 0 255	0 0 255	0 0 255	0 0 255	0 0 255	0 0 255	0 0 255	0 0 255	0 0 255	0 0 255	0 0 255	
0 0 255	0 0 255	0 0 255	0 0 255	0 0 255	0 0 255	0 0 255	0 0 255	0 0 255	0 0 255	0 0 255	0 0 255	0 0 255	0 0 255	0 0 255	0 0 255	0 0 255	0 0 255	0 0 255	0 0 255	0 0 255	0 0 255	0 0 255	0 0 255	0 0 255	0 0 255	0 0 255	0 0 255	0 0 255	0 0 255	0 0 255	0 0 255	0 0 255	0 0 255	0 0 255	0 0 255	0 0 255	0 0 255	0 0 255	0 0 255	0 0 255	0 0 255	0 0 255	0 0 255	0 0 255	0 0 255	0 0 255	0 0 255	0 0 255	0 0 255	0 0 255	0 0 255	0 0 255	0 0 255	0 0 255	0 0 255	0 0 255	0 0 255	0 0 255	0 0 255	0 0 255	0 0 255	0 0 255	0 0 255	0 0 255	0 0 255	0 0 255	0 0 255	0 0 255	0 0 255	0 0 255	0 0 255	0 0 255	0 0 255	0 0 255	0 0 255	0 0 255	0 0 255	0 0 255	0 0 255	0 0 255	0 0 255	0 0 255	0 0 255	0 0 255	0 0 255	0 0 255	0 0 255	0 0 255	0 0 255	0 0 255	0 0 255	0 0 255	0 0 255	0 0 255	0 0 255	0 0 255	0 0 255	0 0 255	0 0 255	0 0 255	0 0 255	0 0 255	0 0 255	0 0 255	0 0 255	0 0 255	0 0 255	0 0 255	0 0 255	0 0 255	0 0 255	0 0 255	0 0 255	0 0 255	0 0 255	0 0 255	0 0 255	0 0 255	0 0 255	0 0 255	0 0 255	0 0 255	0 0 255	0 0 255	0 0 255	0 0 255	0 0 255	0 0 255	0 0 255	0 0 255	0 0 255	0 0 255	0 0 255	0 0 255	0 0 255	0 0 255	0 0 255	0 0 255	0 0 255	0 0 255	0 0 255	0 0 255	0 0 255	0 0 255	0 0 255	0 0 255	0 0 255	0 0 255	0 0 255	0 0 255	0 0 255	0 0 255	0 0 255	0 0 255	0 0 255	0 0 255	0 0 255	0 0 255	0 0 255	0 0 255	0 0 255	0 0 255	0 0 255	0 0 255	0 0 255	0 0 255	0 0 255	0 0 255	0 0 255	0 0 255	0 0 255	0 0 255	0 0 255	0 0 255	0 0 255	0 0 255	0 0 255	0 0 255	0 0 255	0 0 255	0 0 255	0 0 255	0 0 255	0 0 255	0 0 255	0 0 255	0 0 255	0 0 255	0 0 255	0 0 255	0 0 255	0 0 255	0 0 255	0 0 255	0 0 255	0 0 255	0 0 255	0 0 255	0 0 255	0 0 255	0 0 255	0 0 255	0 0 255	0 0 255	0 0 255	0 0 255	0 0 255	0 0 255	0 0 255	0 0 255	0 0 255	0 0 255	0 0 255	0 0 255	0 0 255	0 0 255	0 0 255	0 0 255	0 0 255	0 0 255	0 0 255	0 0 255	0 0 255	0 0 255	0 0 255	0 0 255	0 0 255	0 0 255	0 0 255	0 0 255	0 0 255	0 0 255	0 0 255	0 0 255	0 0 255	0 0 255	0 0 255	0 0 255	0 0 255	0 0 255	0 0 255	0 0 255	0 0 255	0 0 255	0 0 255	0 0 255	0 0 255	0 0 255	0 0 255	0 0 255	0 0 255	0 0 255	0 0 255	0 0 255	0 0 255	
0 0 255	0 0 255	0 0 255	0 0 255	0 0 255	0 0 255	0 0 255	0 0 255	0 0 255	0 0 255	0 0 255	0 0 255	0 0 255	0 0 255	0 0 255	0 0 255	0 0 255	0 0 255	0 0 255	0 0 255	0 0 255	0 0 255	0 0 255	0 0 255	0 0 255	0 0 255	0 0 255	0 0 255	0 0 255	0 0 255	0 0 255	0 0 255	0 0 255	0 0 255	0 0 255	0 0 255	0 0 255	0 0 255	0 0 255	0 0 255	0 0 255	0 0 255	0 0 255	0 0 255	0 0 255	0 0 255	0 0 255	0 0 255	0 0 255	0 0 255	0 0 255	0 0 255	0 0 255	0 0 255	0 0 255	0 0 255	0 0 255	0 0 255	0 0 255	0 0 255	0 0 255	0 0 255	0 0 255	0 0 255	0 0 255	0 0 255	0 0 255	0 0 255	0 0 255	0 0 255	0 0 255	0 0 255	0 0 255	0 0 255	0 0 255	0 0 255	0 0 255	0 0 255	0 0 255	0 0 255	0 0 255	0 0 255	0 0 255	0 0 255	0 0 255	0 0 255	0 0 255	0 0 255	0 0 255	0 0 255	0 0 255	0 0 255	0 0 255	0 0 255	0 0 255	0 0 255	0 0 255	0 0 255	0 0 255	0 0 255	0 0 255	0 0 255	0 0 255	0 0 255	0 0 255	0 0 255	0 0 255	0 0 255	0 0 255	0 0 255	0 0 255	0 0 255	0 0 255	0 0 255	0 0 255	0 0 255	0 0 255	0 0 255	0 0 255	0 0 255	0 0 255	0 0 255	0 0 255	0 0 255	0 0 255	0 0 255	0 0 255	0 0 255	0 0 255	0 0 255	0 0 255	0 0 255	0 0 255	0 0 255	0 0 255	0 0 255	0 0 255	0 0 255	0 0 255	0 0 255	0 0 255	0 0 255	0 0 255	0 0 255	0 0 255	0 0 255	0 0 255	0 0 255	0 0 255	0 0 255	0 0 255	0 0 255	0 0 255	0 0 255	0 0 255	0 0 255	0 0 255	0 0 255	0 0 255	0 0 255	0 0 255	0 0 255	0 0 255	0 0 255	0 0 255	0 0 255	0 0 255	0 0 255	0 0 255	0 0 255	0 0 255	0 0 255	0 0 255	0 0 255	0 0 255	0 0 255	0 0 255	0 0 255	0 0 255	0 0 255	0 0 255	0 0 255	0 0 255	0 0 255	0 0 255	0 0 255	0 0 255	0 0 255	0 0 255	0 0 255	0 0 255	0 0 255	0 0 255	0 0 255	0 0 255	0 0 255	0 0 255	0 0 255	0 0 255	0 0 255	0 0 255	0 0 255	0 0 255	0 0 255	0 0 255	0 0 255	0 0 255	0 0 255	0 0 255	0 0 255	0 0 255	0 0 255	0 0 255	0 0 255	0 0 255	0 0 255	0 0 255	0 0 255	0 0 255	0 0 255	0 0 255	0 0 255	0 0 255	0 0 255	0 0 255	0 0 255	0 0 255	0 0 255	0 0 255	0 0 255	0 0 255	0 0 255	0 0 255	0 0 255	0 0 255	0 0 255	0 0 255	0 0 255	0 0 255	0 0 255	0 0 255	0 0 255	0 0 255	0 0 255	0 0 255	0 0 255	0 0 255	0 0 255	0 0 255	0 0 255	0 0 255	0 0 255	0 0 255	0 0 255	0 0 255	0 0 255	
0 0 255	0 0 255	0 0 255	0 0 255	0 0 255	0 0 255	0 0 255	0 0 255	0 0 255	0 0 255	0 0 255	0 0 255	0 0 255	0 0 255	0 0 255	0 0 255	0 0 255	0 0 255	0 0 255	0 0 255	0 0 255	0 0 255	0 0 255	0 0 255	0 0 255	0 0 255	0 0 255	0 0 255	0 0 255	0 0 255	0 0 255	0 0 255	0 0 255	0 0 255	0 0 255	0 0 255	0 0 255	0 0 255	0 0 255	0 0 255	0 0 255	0 0 255	0 0 255	0 0 255	0 0 255	0 0 255	0 0 255	0 0 255	0 0 255	0 0 255	0 0 255	0 0 255	0 0 255	0 0 255	0 0 255	0 0 255	0 0 255	0 0 255	0 0 255	0 0 255	0 0 255	0 0 255	0 0 255	0 0 255	0 0 255	0 0 255	0 0 255	0 0 255	0 0 255	0 0 255	0 0 255	0 0 255	0 0 255	0 0 255	0 0 255	0 0 255	0 0 255	0 0 255	0 0 255	0 0 255	0 0 255	0 0 255	0 0 255	0 0 255	0 0 255	0 0 255	0 0 255	0 0 255	0 0 255	0 0 255	0 0 255	0 0 255	0 0 255	0 0 255	0 0 255	0 0 255	0 0 255	0 0 255	0 0 255	0 0 255	0 0 255	0 0 255	0 0 255	0 0 255	0 0 255	0 0 255	0 0 255	0 0 255	0 0 255	0 0 255	0 0 255	0 0 255	0 0 255	0 0 255	0 0 255	0 0 255	0 0 255	0 0 255	0 0 255	0 0 255	0 0 255	0 0 255	0 0 255	0 0 255	0 0 255	0 0 255	0 0 255	0 0 255	0 0 255	0 0 255	0 0 255	0 0 255	0 0 255	0 0 255	0 0 255	0 0 255	0 0 255	0 0 255	0 0 255	0 0 255	0 0 255	0 0 255	0 0 255	0 0 255	0 0 255	0 0 255	0 0 255	0 0 255	0 0 255	0 0 255	0 0 255	0 0 255	0 0 255	0 0 255	0 0 255	0 0 255	0 0 255	0 0 255	0 0 255	0 0 255	0 0 255	0 0 255	0 0 255	0 0 255	0 0 255	0 0 255	0 0 255	0 0 255	0 0 255	0 0 255	0 0 255	0 0 255	0 0 255	0 0 255	0 0 255	0 0 255	0 0 255	0 0 255	0 0 255	0 0 255	0 0 255	0 0 255	0 0 255	0 0 255	0 0 255	0 0 255	0 0 255	0 0 255	0 0 255	0 0 255	0 0 255	0 0 255	0 0 255	0 0 255	0 0 255	0 0 255	0 0 255	0 0 255	0 0 255	0 0 255	0 0 255	0 0 255	0 0 255	0 0 255	0 0 255	0 0 255	0 0 255	0 0 255	0 0 255	0 0 255	0 0 255	0 0 255	0 0 255	0 0 255	0 0 255	0 0 255	0 0 255	0 0 255	0 0 255	0 0 255	0 0 255	0 0 255	0 0 255	0 0 255	0 0 255	0 0 255	0 0 255	0 0 255	0 0 255	0 0 255	0 0 255	0 0 255	0 0 255	0 0 255	0 0 255	0 0 255	0 0 255	0 0 255	0 0 255	0 0 255	0 0 255	0 0 255	0 0 255	0 0 255	0 0 255	0 0 255	0 0 255	0 0 255	0 0 255	0 0 255	0 0 255	0 0 255	0 0 255	0 0 255	0 0 255	0 0 255	
0 0 255	0 0 255	0 0 255	0 0 255	0 0 255	0 0 255	0 0 255	0 0 255	0 0 255	0 0 255	0 0 255	0 0 255	0 0 255	0 0 255	0 0 255	0 0 255	0 0 255	0 0 255	0 0 255	0 0 255	0 0 255	0 0 255	0 0 255	0 0 255	0 0 255	0 0 255	0 0 255	0 0 255	0 0 255	0 0 255	0 0 255	0 0 255	0 0 255	0 0 255	0 0 255	0 0 255	0 0 255	0 0 255	0 0 255	0 0 255	0 0 255	0 0 255	0 0 255	0 0 255	0 0 255	0 0 255	0 0 255	0 0 255	0 0 255	0 0 255	0 0 255	0 0 255	0 0 255	0 0 255	0 0 255	0 0 255	0 0 255	0 0 255	0 0 255	0 0 255	0 0 255	0 0 255	0 0 255	0 0 255	0 0 255	0 0 255	0 0 255	0 0 255	0 0 255	0 0 255	0 0 255	0 0 255	0 0 255	0 0 255	0 0 255	0 0 255	0 0 255	0 0 255	0 0 255	0 0 255	0 0 255	0 0 255	0 0 255	0 0 255	0 0 255	0 0 255	0 0 255	0 0 255	0 0 255	0 0 255	0 0 255	0 0 255	0 0 255	0 0 255	0 0 255	0 0 255	0 0 255	0 0 255	0 0 255	0 0 255	0 0 255	0 0 255	0 0 255	0 0 255	0 0 255	0 0 255	0 0 255	0 0 255	0 0 255	0 0 255	0 0 255	0 0 255	0 0 255	0 0 255	0 0 255	0 0 255	0 0 255	0 0 255	0 0 255	0 0 255	0 0 255	0 0 255	0 0 255	0 0 255	0 0 255	0 0 255	0 0 255	0 0 255	0 0 255	0 0 255	0 0 255	0 0 255	0 0 255	0 0 255	0 0 255	0 0 255	0 0 255	0 0 255	0 0 255	0 0 255	0 0 255	0 0 255	0 0 255	0 0 255	0 0 255	0 0 255	0 0 255	0 0 255	0 0 255	0 0 255	0 0 255	0 0 255	0 0 255	0 0 255	0 0 255	0 0 255	0 0 255	0 0 255	0 0 255	0 0 255	0 0 255	0 0 255	0 0 255	0 0 255	0 0 255	0 0 255	0 0 255	0 0 255	0 0 255	0 0 255	0 0 255	0 0 255	0 0 255	0 0 255	0 0 255	0 0 255	0 0 255	0 0 255	0 0 255	0 0 255	0 0 255	0 0 255	0 0 255	0 0 255	0 0 255	0 0 255	0 0 255	0 0 255	0 0 255	0 0 255	0 0 255	0 0 255	0 0 255	0 0 255	0 0 255	0 0 255	0 0 255	0 0 255	0 0 255	0 0 255	0 0 255	0 0 255	0 0 255	0 0 255	0 0 255	0 0 255	0 0 255	0 0 255	0 0 255	0 0 255	0 0 255	0 0 255	0 0 255	0 0 255	0 0 255	0 0 255	0 0 255	0 0 255	0 0 255	0 0 255	0 0 255	0 0 255	0 0 255	0 0 255	0 0 255	0 0 255	0 0 255	0 0 255	0 0 255	0 0 255	0 0 255	0 0 255	0 0 255	0 0 255	0 0 255	0 0 255	0 0 255	0 0 255	0 0 255	0 0 255	0 0 255	0 0 255	0 0 255	0 0 255	0 0 255	0 0 255	0 0 255	0 0 255	0 0 255	0 0 255	0 0 255	0 0 255	0 0 255	0 0 255	0 0 255	0 0 255	
0 0 255	0 0 255	0 0 255	0 0 255	0 0 255	0 0 255	0 0 255	0 0 255	0 0 255	0 0 255	0 0 255	0 0 255	0 0 255	0 0 255	0 0 255	0 0 255	0 0 255	0 0 255	0 0 255	0 0 255	0 0 255	0 0 255	0 0 255	0 0 255	0 0 255	0 0 255	0 0 255	0 0 255	0 0 255	0 0 255	0 0 255	0 0 255	0 0 255	0 0 255	0 0 255	0 0 255	0 0 255	0 0 255	0 0 255	0 0 255	0 0 255	0 0 255	0 0 255	0 0 255	0 0 255	0 0 255	0 0 255	0 0 255	0 0 255	0 0 255	0 0 255	0 0 255	0 0 255	0 0 255	0 0 255	0 0 255	0 0 255	0 0 255	0 0 255	0 0 255	0 0 255	0 0 255	0 0 255	0 0 255	0 0 255	0 0 255	0 0 255	0 0 255	0 0 255	0 0 255	0 0 255	0 0 255	0 0 255	0 0 255	0 0 255	0 0 255	0 0 255	0 0 255	0 0 255	0 0 255	0 0 255	0 0 255	0 0 255	0 0 255	0 0 255	0 0 255	0 0 255	0 0 255	0 0 255	0 0 255	0 0 255	0 0 255	0 0 255	0 0 255	0 0 255	0 0 255	0 0 255	0 0 255	0 0 255	0 0 255	0 0 255	0 0 255	0 0 255	0 0 255	0 0 255	0 0 255	0 0 255	0 0 255	0 0 255	0 0 255	0 0 255	0 0 255	0 0 255	0 0 255	0 0 255	0 0 255	0 0 255	0 0 255	0 0 255	0 0 255	0 0 255	0 0 255	0 0 255	0 0 255	0 0 255	0 0 255	0 0 255	0 0 255	0 0 255	0 0 255	0 0 255	0 0 255	0 0 255	0 0 255	0 0 255	0 0 255	0 0 255	0 0 255	0 0 255	0 0 255	0 0 255	0 0 255	0 0 255	0 0 255	0 0 255	0 0 255	0 0 255	0 0 255	0 0 255	0 0 255	0 0 255	0 0 255	0 0 255	0 0 255	0 0 255	0 0 255	0 0 255	0 0 255	0 0 255	0 0 255	0 0 255	0 0 255	0 0 255	0 0 255	0 0 255	0 0 255	0 0 255	0 0 255	0 0 255	0 0 255	0 0 255	0 0 255	0 0 255	0 0 255	0 0 255	0 0 255	0 0 255	0 0 255	0 0 255	0 0 255	0 0 255	0 0 255	0 0 255	0 0 255	0 0 255	0 0 255	0 0 255	0 0 255	0 0 255	0 0 255	0 0 255	0 0 255	0 0 255	0 0 255	0 0 255	0 0 255	0 0 255	0 0 255	0 0 255	0 0 255	0 0 255	0 0 255	0 0 255	0 0 255	0 0 255	0 0 255	0 0 255	0 0 255	0 0 255	0 0 255	0 0 255	0 0 255	0 0 255	0 0 255	0 0 255	0 0 255	0 0 255	0 0 255	0 0 255	0 0 255	0 0 255	0 0 255	0 0 255	0 0 255	0 0 255	0 0 255	0 0 255	0 0 255	0 0 255	0 0 255	0 0 255	0 0 255	0 0 255	0 0 255	0 0 255	0 0 255	0 0 255	0 0 255	0 0 255	0 0 255	0 0 255	0 0 255	0 0 255	0 0 255	0 0 255	0 0 255	0 0 255	0 0 255	0 0 255	0 0 255	0 0 255	0 0 255	0 0 255	0 0 255	0 0 255	0 0 255	
0 0 255	0 0 255	0 0 255	0 0 255	0 0 255	0 0 255	0 0 255	0 0 255	0 0 255	0 0 255	0 0 255	0 0 255	0 0 255	0 0 255	0 0 255	0 0 255	0 0 255	0 0 255	0 0 255	0 0 255	0 0 255	0 0 255	0 0 255	0 0 255	0 0 255	0 0 255	0 0 255	0 0 255	0 0 255	0 0 255	0 0 255	0 0 255	0 0 255	0 0 255	0 0 255	0 0 255	0 0 255	0 0 255	0 0 255	0 0 255	0 0 255	0 0 255	0 0 255	0 0 255	0 0 255	0 0 255	0 0 255	0 0 255	0 0 255	0 0 255	0 0 255	0 0 255	0 0 255	0 0 255	0 0 255	0 0 255	0 0 255	0 0 255	0 0 255	0 0 255	0 0 255	0 0 255	0 0 255	0 0 255	0 0 255	0 0 255	0 0 255	0 0 255	0 0 255	0 0 255	0 0 255	0 0 255	0 0 255	0 0 255	0 0 255	0 0 255	0 0 255	0 0 255	0 0 255	0 0 255	0 0 255	0 0 255	0 0 255	0 0 255	0 0 255	0 0 255	0 0 255	0 0 255	0 0 255	0 0 255	0 0 255	0 0 255	0 0 255	0 0 255	0 0 255	0 0 255	0 0 255	0 0 255	0 0 255	0 0 255	0 0 255	0 0 255	0 0 255	0 0 255	0 0 255	0 0 255	0 0 255	0 0 255	0 0 255	0 0 255	0 0 255	0 0 255	0 0 255	0 0 255	0 0 255	0 0 255	0 0 255	0 0 255	0 0 255	0 0 255	0 0 255	0 0 255	0 0 255	0 0 255	0 0 255	0 0 255	0 0 255	0 0 255	0 0 255	0 0 255	0 0 255	0 0 255	0 0 255	0 0 255	0 0 255	0 0 255	0 0 255	0 0 255	0 0 255	0 0 255	0 0 255	0 0 255	0 0 255	0 0 255	0 0 255	0 0 255	0 0 255	0 0 255	0 0 255	0 0 255	0 0 255	0 0 255	0 0 255	0 0 255	0 0 255	0 0 255	0 0 255	0 0 255	0 0 255	0 0 255	0 0 255	0 0 255	0 0 255	0 0 255	0 0 255	0 0 255	0 0 255	0 0 255	0 0 255	0 0 255	0 0 255	0 0 255	0 0 255	0 0 255	0 0 255	0 0 255	0 0 255	0 0 255	0 0 255	0 0 255	0 0 255	0 0 255	0 0 255	0 0 255	0 0 255	0 0 255	0 0 255	0 0 255	0 0 255	0 0 255	0 0 255	0 0 255	0 0 255	0 0 255	0 0 255	0 0 255	0 0 255	0 0 255	0 0 255	0 0 255	0 0 255	0 0 255	0 0 255	0 0 255	0 0 255	0 0 255	0 0 255	0 0 255	0 0 255	0 0 255	0 0 255	0 0 255	0 0 255	0 0 255	0 0 255	0 0 255	0 0 255	0 0 255	0 0 255	0 0 255	0 0 255	0 0 255	0 0 255	0 0 255	0 0 255	0 0 255	0 0 255	0 0 255	0 0 255	0 0 255	0 0 255	0 0 255	0 0 255	0 0 255	0 0 255	0 0 255	0 0 255	0 0 255	0 0 255	0 0 255	0 0 255	0 0 255	0 0 255	0 0 255	0 0 255	0 0 255	0 0 255	0 0 255	0 0 255	0 0 255	0 0 255	0 0 255	0 0 255	0 0 255	0 0 255	0 0 255	
0 0 255	0 0 255	0 0 255	0 0 255	0 0 255	0 0 255	0 0 255	0 0 255	0 0 255	0 0 255	0 0 255	0 0 255	0 0 255	0 0 255	0 0 255	0 0 255	0 0 255	0 0 255	0 0 255	0 0 255	0 0 255	0 0 255	0 0 255	0 0 255	0 0 255	0 0 255	0 0 255	0 0 255	0 0 255	0 0 255	0 0 255	0 0 255	0 0 255	0 0 255	0 0 255	0 0 255	0 0 255	0 0 255	0 0 255	0 0 255	0 0 255	0 0 255	0 0 255	0 0 255	0 0 255	0 0 255	0 0 255	0 0 255	0 0 255	0 0 255	0 0 255	0 0 255	0 0 255	0 0 255	0 0 255	0 0 255	0 0 255	0 0 255	0 0 255	0 0 255	0 0 255	0 0 255	0 0 255	0 0 255	0 0 255	0 0 255	0 0 255	0 0 255	0 0 255	0 0 255	0 0 255	0 0 255	0 0 255	0 0 255	0 0 255	0 0 255	0 0 255	0 0 255	0 0 255	0 0 255	0 0 255	0 0 255	0 0 255	0 0 255	0 0 255	0 0 255	0 0 255	0 0 255	0 0 255	0 0 255	0 0 255	0 0 255	0 0 255	0 0 255	0 0 255	0 0 255	0 0 255	0 0 255	0 0 255	0 0 255	0 0 255	0 0 255	0 0 255	0 0 255	0 0 255	0 0 255	0 0 255	0 0 255	0 0 255	0 0 255	0 0 255	0 0 255	0 0 255	0 0 255	0 0 255	0 0 255	0 0 255	0 0 255	0 0 255	0 0 255	0 0 255	0 0 255	0 0 255	0 0 255	0 0 255	0 0 255	0 0 255	0 0 255	0 0 255	0 0 255	0 0 255	0 0 255	0 0 255	0 0 255	0 0 255	0 0 255	0 0 255	0 0 255	0 0 255	0 0 255	0 0 255	0 0 255	0 0 255	0 0 255	0 0 255	0 0 255	0 0 255	0 0 255	0 0 255	0 0 255	0 0 255	0 0 255	0 0 255	0 0 255	0 0 255	0 0 255	0 0 255	0 0 255	0 0 255	0 0 255	0 0 255	0 0 255	0 0 255	0 0 255	0 0 255	0 0 255	0 0 255	0 0 255	0 0 255	0 0 255	0 0 255	0 0 255	0 0 255	0 0 255	0 0 255	0 0 255	0 0 255	0 0 255	0 0 255	0 0 255	0 0 255	0 0 255	0 0 255	0 0 255	0 0 255	0 0 255	0 0 255	0 0 255	0 0 255	0 0 255	0 0 255	0 0 255	0 0 255	0 0 255	0 0 255	0 0 255	0 0 255	0 0 255	0 0 255	0 0 255	0 0 255	0 0 255	0 0 255	0 0 255	0 0 255	0 0 255	0 0 255	0 0 255	0 0 255	0 0 255	0 0 255	0 0 255	0 0 255	0 0 255	0 0 255	0 0 255	0 0 255	0 0 255	0 0 255	0 0 255	0 0 255	0 0 255	0 0 255	0 0 255	0 0 255	0 0 255	0 0 255	0 0 255	0 0 255	0 0 255	0 0 255	0 0 255	0 0 255	0 0 255	0 0 255	0 0 255	0 0 255	0 0 255	0 0 255	0 0 255	0 0 255	0 0 255	0 0 255	0 0 255	0 0 255	0 0 255	0 0 255	0 0 255	0 0 255	0 0 255	0 0 255	0 0 255	0 0 255	0 0 255	0 0 255	0 0 255	
0 0 255	0 0 255	0 0 255	0 0 255	0 0 255	0 0 255	0 0 255	0 0 255	0 0 255	0 0 255	0 0 255	0 0 255	0 0 255	0 0 255	0 0 255	0 0 255	0 0 255	0 0 255	0 0 255	0 0 255	0 0 255	0 0 255	0 0 255	0 0 255	0 0 255	0 0 255	0 0 255	0 0 255	0 0 255	0 0 255	0 0 255	0 0 255	0 0 255	0 0 255	0 0 255	0 0 255	0 0 255	0 0 255	0 0 255	0 0 255	0 0 255	0 0 255	0 0 255	0 0 255	0 0 255	0 0 255	0 0 255	0 0 255	0 0 255	0 0 255	0 0 255	0 0 255	0 0 255	0 0 255	0 0 255	0 0 255	0 0 255	0 0 255	0 0 255	0 0 255	0 0 255	0 0 255	0 0 255	0 0 255	0 0 255	0 0 255	0 0 255	0 0 255	0 0 255	0 0 255	0 0 255	0 0 255	0 0 255	0 0 255	0 0 255	0 0 255	0 0 255	0 0 255	0 0 255	0 0 255	0 0 255	0 0 255	0 0 255	0 0 255	0 0 255	0 0 255	0 0 255	0 0 255	0 0 255	0 0 255	0 0 255	0 0 255	0 0 255	0 0 255	0 0 255	0 0 255	0 0 255	0 0 255	0 0 255	0 0 255	0 0 255	0 0 255	0 0 255	0 0 255	0 0 255	0 0 255	0 0 255	0 0 255	0 0 255	0 0 255	0 0 255	0 0 255	0 0 255	0 0 255	0 0 255	0 0 255	0 0 255	0 0 255	0 0 255	0 0 255	0 0 255	0 0 255	0 0 255	0 0 255	0 0 255	0 0 255	0 0 255	0 0 255	0 0 255	0 0 255	0 0 255	0 0 255	0 0 255	0 0 255	0 0 255	0 0 255	0 0 255	0 0 255	0 0 255	0 0 255	0 0 255	0 0 255	0 0 255	0 0 255	0 0 255	0 0 255	0 0 255	0 0 255	0 0 255	0 0 255	0 0 255	0 0 255	0 0 255	0 0 255	0 0 255	0 0 255	0 0 255	0 0 255	0 0 255	0 0 255	0 0 255	0 0 255	0 0 255	0 0 255	0 0 255	0 0 255	0 0 255	0 0 255	0 0 255	0 0 255	0 0 255	0 0 255	0 0 255	0 0 255	0 0 255	0 0 255	0 0 255	0 0 255	0 0 255	0 0 255	0 0 255	0 0 255	0 0 255	0 0 255	0 0 255	0 0 255	0 0 255	0 0 255	0 0 255	0 0 255	0 0 255	0 0 255	0 0 255	0 0 255	0 0 255	0 0 255	0 0 255	0 0 255	0 0 255	0 0 255	0 0 255	0 0 255	0 0 255	0 0 255	0 0 255	0 0 255	0 0 255	0 0 255	0 0 255	0 0 255	0 0 255	0 0 255	0 0 255	0 0 255	0 0 255	0 0 255	0 0 255	0 0 255	0 0 255	0 0 255	0 0 255	0 0 255	0 0 255	0 0 255	0 0 255	0 0 255	0 0 255	0 0 255	0 0 255	0 0 255	0 0 255	0 0 255	0 0 255	0 0 255	0 0 255	0 0 255	0 0 255	0 0 255	0 0 255	0 0 255	0 0 255	0 0 255	0 0 255	0 0 255	0 0 255	0 0 255	0 0 255	0 0 255	0 0 255	0 0 255	0 0 255	0 0 255	0 0 255	0 0 255	0 0 255	0 0 255	
0 0 255	0 0 255	0 0 255	0 0 255	0 0 255	0 0 255	0 0 255	0 0 255	0 0 255	0 0 255	0 0 255	0 0 255	0 0 255	0 0 255	0 0 255	0 0 255	0 0 255	0 0 255	0 0 255	0 0 255	0 0 255	0 0 255	0 0 255	0 0 255	0 0 255	0 0 255	0 0 255	0 0 255	0 0 255	0 0 255	0 0 255	0 0 255	0 0 255	0 0 255	0 0 255	0 0 255	0 0 255	0 0 255	0 0 255	0 0 255	0 0 255	0 0 255	0 0 255	0 0 255	0 0 255	0 0 255	0 0 255	0 0 255	0 0 255	0 0 255	0 0 255	0 0 255	0 0 255	0 0 255	0 0 255	0 0 255	0 0 255	0 0 255	0 0 255	0 0 255	0 0 255	0 0 255	0 0 255	0 0 255	0 0 255	0 0 255	0 0 255	0 0 255	0 0 255	0 0 255	0 0 255	0 0 255	0 0 255	0 0 255	0 0 255	0 0 255	0 0 255	0 0 255	0 0 255	0 0 255	0 0 255	0 0 255	0 0 255	0 0 255	0 0 255	0 0 255	0 0 255	0 0 255	0 0 255	0 0 255	0 0 255	0 0 255	0 0 255	0 0 255	0 0 255	0 0 255	0 0 255	0 0 255	0 0 255	0 0 255	0 0 255	0 0 255	0 0 255	0 0 255	0 0 255	0 0 255	0 0 255	0 0 255	0 0 255	0 0 255	0 0 255	0 0 255	0 0 255	0 0 255	0 0 255	0 0 255	0 0 255	0 0 255	0 0 255	0 0 255	0 0 255	0 0 255	0 0 255	0 0 255	0 0 255	0 0 255	0 0 255	0 0 255	0 0 255	0 0 255	0 0 255	0 0 255	0 0 255	0 0 255	0 0 255	0 0 255	0 0 255	0 0 255	0 0 255	0 0 255	0 0 255	0 0 255	0 0 255	0 0 255	0 0 255	0 0 255	0 0 255	0 0 255	0 0 255	0 0 255	0 0 255	0 0 255	0 0 255	0 0 255	0 0 255	0 0 255	0 0 255	0 0 255	0 0 255	0 0 255	0 0 255	0 0 255	0 0 255	0 0 255	0 0 255	0 0 255	0 0 255	0 0 255	0 0 255	0 0 255	0 0 255	0 0 255	0 0 255	0 0 255	0 0 255	0 0 255	0 0 255	0 0 255	0 0 255	0 0 255	0 0 255	0 0 255	0 0 255	0 0 255	0 0 255	0 0 255	0 0 255	0 0 255	0 0 255	0 0 255	0 0 255	0 0 255	0 0 255	0 0 255	0 0 255	0 0 255	0 0 255	0 0 255	0 0 255	0 0 255	0 0 255	0 0 255	0 0 255	0 0 255	0 0 255	0 0 255	0 0 255	0 0 255	0 0 255	0 0 255	0 0 255	0 0 255	0 0 255	0 0 255	0 0 255	0 0 255	0 0 255	0 0 255	0 0 255	0 0 255	0 0 255	0 0 255	0 0 255	0 0 255	0 0 255	0 0 255	0 0 255	0 0 255	0 0 255	0 0 255	0 0 255	0 0 255	0 0 255	0 0 255	0 0 255	0 0 255	0 0 255	0 0 255	0 0 255	0 0 255	0 0 255	0 0 255	0 0 255	0 0 255	0 0 255	0 0 255	0 0 255	0 0 255	0 0 255	0 0 255	0 0 255	0 0 255	0 0 255	0 0 255	0 0 255	0 0 255	
0 0 255	0 0 255	0 0 255	0 0 255	0 0 255	0 0 255	0 0 255	0 0 255	0 0 255	0 0 255	0 0 255	0 0 255	0 0 255	0 0 255	0 0 255	0 0 255	0 0 255	0 0 255	0 0 255	0 0 255	0 0 255	0 0 255	0 0 255	0 0 255	0 0 255	0 0 255	0 0 255	0 0 255	0 0 255	0 0 255	0 0 255	0 0 255	0 0 255	0 0 255	0 0 255	0 0 255	0 0 255	0 0 255	0 0 255	0 0 255	0 0 255	0 0 255	0 0 255	0 0 255	0 0 255	0 0 255	0 0 255	0 0 255	0 0 255	0 0 255	0 0 255	0 0 255	0 0 255	0 0 255	0 0 255	0 0 255	0 0 255	0 0 255	0 0 255	0 0 255	0 0 255	0 0 255	0 0 255	0 0 255	0 0 255	0 0 255	0 0 255	0 0 255	0 0 255	0 0 255	0 0 255	0 0 255	0 0 255	0 0 255	0 0 255	0 0 255	0 0 255	0 0 255	0 0 255	0 0 255	0 0 255	0 0 255	0 0 255	0 0 255	0 0 255	0 0 255	0 0 255	0 0 255	0 0 255	0 0 255	0 0 255	0 0 255	0 0 255	0 0 255	0 0 255	0 0 255	0 0 255	0 0 255	0 0 255	0 0 255	0 0 255	0 0 255	0 0 255	0 0 255	0 0 255	0 0 255	0 0 255	0 0 255	0 0 255	0 0 255	0 0 255	0 0 255	0 0 255	0 0 255	0 0 255	0 0 255	0 0 255	0 0 255	0 0 255	0 0 255	0 0 255	0 0 255	0 0 255	0 0 255	0 0 255	0 0 255	0 0 255	0 0 255	0 0 255	0 0 255	0 0 255	0 0 255	0 0 255	0 0 255	0 0 255	0 0 255	0 0 255	0 0 255	0 0 255	0 0 255	0 0 255	0 0 255	0 0 255	0 0 255	0 0 255	0 0 255	0 0 255	0 0 255	0 0 255	0 0 255	0 0 255	0 0 255	0 0 255	0 0 255	0 0 255	0 0 255	0 0 255	0 0 255	0 0 255	0 0 255	0 0 255	0 0 255	0 0 255	0 0 255	0 0 255	0 0 255	0 0 255	0 0 255	0 0 255	0 0 255	0 0 255	0 0 255	0 0 255	0 0 255	0 0 255	0 0 255	0 0 255	0 0 255	0 0 255	0 0 255	0 0 255	0 0 255	0 0 255	0 0 255	0 0 255	0 0 255	0 0 255	0 0 255	0 0 255	0 0 255	0 0 255	0 0 255	0 0 255	0 0 255	0 0 255	0 0 255	0 0 255	0 0 255	0 0 255	0 0 255	0 0 255	0 0 255	0 0 255	0 0 255	0 0 255	0 0 255	0 0 255	0 0 255	0 0 255	0 0 255	0 0 255	0 0 255	0 0 255	0 0 255	0 0 255	0 0 255	0 0 255	0 0 255	0 0 255	0 0 255	0 0 255	0 0 255	0 0 255	0 0 255	0 0 255	0 0 255	0 0 255	0 0 255	0 0 255	0 0 255	0 0 255	0 0 255	0 0 255	0 0 255	0 0 255	0 0 255	0 0 255	0 0 255	0 0 255	0 0 255	0 0 255	0 0 255	0 0 255	0 0 255	0 0 255	0 0 255	0 0 255	0 0 255	0 0 255	0 0 255	0 0 255	0 0 255	0 0 255	0 0 255	0 0 255	0 0 255	
0 0 255	0 0 255	0 0 255	0 0 255	0 0 255	0 0 255	0 0 255	0 0 255	0 0 255	0 0 255	0 0 255	0 0 255	0 0 255	0 0 255	0 0 255	0 0 255	0 0 255	0 0 255	0 0 255	0 0 255	0 0 255	0 0 255	0 0 255	0 0 255	0 0 255	0 0 255	0 0 255	0 0 255	0 0 255	0 0 255	0 0 255	0 0 255	0 0 255	0 0 255	0 0 255	0 0 255	0 0 255	0 0 255	0 0 255	0 0 255	0 0 255	0 0 255	0 0 255	0 0 255	0 0 255	0 0 255	0 0 255	0 0 255	0 0 255	0 0 255	0 0 255	0 0 255	0 0 255	0 0 255	0 0 255	0 0 255	0 0 255	0 0 255	0 0 255	0 0 255	0 0 255	0 0 255	0 0 255	0 0 255	0 0 255	0 0 255	0 0 255	0 0 255	0 0 255	0 0 255	0 0 255	0 0 255	0 0 255	0 0 255	0 0 255	0 0 255	0 0 255	0 0 255	0 0 255	0 0 255	0 0 255	0 0 255	0 0 255	0 0 255	0 0 255	0 0 255	0 0 255	0 0 255	0 0 255	0 0 255	0 0 255	0 0 255	0 0 255	0 0 255	0 0 255	0 0 255	0 0 255	0 0 255	0 0 255	0 0 255	0 0 255	0 0 255	0 0 255	0 0 255	0 0 255	0 0 255	0 0 255	0 0 255	0 0 255	0 0 255	0 0 255	0 0 255	0 0 255	0 0 255	0 0 255	0 0 255	0 0 255	0 0 255	0 0 255	0 0 255	0 0 255	0 0 255	0 0 255	0 0 255	0 0 255	0 0 255	0 0 255	0 0 255	0 0 255	0 0 255	0 0 255	0 0 255	0 0 255	0 0 255	0 0 255	0 0 255	0 0 255	0 0 255	0 0 255	0 0 255	0 0 255	0 0 255	0 0 255	0 0 255	0 0 255	0 0 255	0 0 255	0 0 255	0 0 255	0 0 255	0 0 255	0 0 255	0 0 255	0 0 255	0 0 255	0 0 255	0 0 255	0 0 255	0 0 255	0 0 255	0 0 255	0 0 255	0 0 255	0 0 255	0 0 255	0 0 255	0 0 255	0 0 255	0 0 255	0 0 255	0 0 255	0 0 255	0 0 255	0 0 255	0 0 255	0 0 255	0 0 255	0 0 255	0 0 255	0 0 255	0 0 255	0 0 255	0 0 255	0 0 255	0 0 255	0 0 255	0 0 255	0 0 255	0 0 255	0 0 255	0 0 255	0 0 255	0 0 255	0 0 255	0 0 255	0 0 255	0 0 255	0 0 255	0 0 255	0 0 255	0 0 255	0 0 255	0 0 255	0 0 255	0 0 255	0 0 255	0 0 255	0 0 255	0 0 255	0 0 255	0 0 255	0 0 255	0 0 255	0 0 255	0 0 255	0 0 255	0 0 255	0 0 255	0 0 255	0 0 255	0 0 255	0 0 255	0 0 255	0 0 255	0 0 255	0 0 255	0 0 255	0 0 255	0 0 255	0 0 255	0 0 255	0 0 255	0 0 255	0 0 255	0 0 255	0 0 255	0 0 255	0 0 255	0 0 255	0 0 255	0 0 255	0 0 255	0 0 255	0 0 255	0 0 255	0 0 255	0 0 255	0 0 255	0 0 255	0 0 255	0 0 255	0 0 255	0 0 255	0 0 255	0 0 255	0 0 255	
0 0 255	0 0 255	0 0 255	0 0 255	0 0 255	0 0 255	0 0 255	0 0 255	0 0 255	0 0 255	0 0 255	0 0 255	0 0 255	0 0 255	0 0 255	0 0 255	0 0 255	0 0 255	0 0 255	0 0 255	0 0 255	0 0 255	0 0 255	0 0 255	0 0 255	0 0 255	0 0 255	0 0 255	0 0 255	0 0 255	0 0 255	0 0 255	0 0 255	0 0 255	0 0 255	0 0 255	0 0 255	0 0 255	0 0 255	0 0 255	0 0 255	0 0 255	0 0 255	0 0 255	0 0 255	0 0 255	0 0 255	0 0 255	0 0 255	0 0 255	0 0 255	0 0 255	0 0 255	0 0 255	0 0 255	0 0 255	0 0 255	0 0 255	0 0 255	0 0 255	0 0 255	0 0 255	0 0 255	0 0 255	0 0 255	0 0 255	0 0 255	0 0 255	0 0 255	0 0 255	0 0 255	0 0 255	0 0 255	0 0 255	0 0 255	0 0 255	0 0 255	0 0 255	0 0 255	0 0 255	0 0 255	0 0 255	0 0 255	0 0 255	0 0 255	0 0 255	0 0 255	0 0 255	0 0 255	0 0 255	0 0 255	0 0 255	0 0 255	0 0 255	0 0 255	0 0 255	0 0 255	0 0 255	0 0 255	0 0 255	0 0 255	0 0 255	0 0 255	0 0 255	0 0 255	0 0 255	0 0 255	0 0 255	0 0 255	0 0 255	0 0 255	0 0 255	0 0 255	0 0 255	0 0 255	0 0 255	0 0 255	0 0 255	0 0 255	0 0 255	0 0 255	0 0 255	0 0 255	0 0 255	0 0 255	0 0 255	0 0 255	0 0 255	0 0 255	0 0 255	0 0 255	0 0 255	0 0 255	0 0 255	0 0 255	0 0 255	0 0 255	0 0 255	0 0 255	0 0 255	0 0 255	0 0 255	0 0 255	0 0 255	0 0 255	0 0 255	0 0 255	0 0 255	0 0 255	0 0 255	0 0 255	0 0 255	0 0 255	0 0 255	0 0 255	0 0 255	0 0 255	0 0 255	0 0 255	0 0 255	0 0 255	0 0 255	0 0 255	0 0 255	0 0 255	0 0 255	0 0 255	0 0 255	0 0 255	0 0 255	0 0 255	0 0 255	0 0 255	0 0 255	0 0 255	0 0 255	0 0 255	0 0 255	0 0 255	0 0 255	0 0 255	0 0 255	0 0 255	0 0 255	0 0 255	0 0 255	0 0 255	0 0 255	0 0 255	0 0 255	0 0 255	0 0 255	0 0 255	0 0 255	0 0 255	0 0 255	0 0 255	0 0 255	0 0 255	0 0 255	0 0 255	0 0 255	0 0 255	0 0 255	0 0 255	0 0 255	0 0 255	0 0 255	0 0 255	0 0 255	0 0 255	0 0 255	0 0 255	0 0 255	0 0 255	0 0 255	0 0 255	0 0 255	0 0 255	0 0 255	0 0 255	0 0 255	0 0 255	0 0 255	0 0 255	0 0 255	0 0 255	0 0 255	0 0 255	0 0 255	0 0 255	0 0 255	0 0 255	0 0 255	0 0 255	0 0 255	0 0 255	0 0 255	0 0 255	0 0 255	0 0 255	0 0 255	0 0 255	0 0 255	0 0 255	0 0 255	0 0 255	0 0 255	0 0 255	0 0 255	0 0 255	0 0 255	0 0 255	0 0 255	0 0 255	0 0 255	
0 0 255	0 0 255	0 0 255	0 0 255	0 0 255	0 0 255	0 0 255	0 0 255	0 0 255	0 0 255	0 0 255	0 0 255	0 0 255	0 0 255	0 0 255	0 0 255	0 0 255	0 0 255	0 0 255	0 0 255	0 0 255	0 0 255	0 0 255	0 0 255	0 0 255	0 0 255	0 0 255	0 0 255	0 0 255	0 0 255	0 0 255	0 0 255	0 0 255	0 0 255	0 0 255	0 0 255	0 0 255	0 0 255	0 0 255	0 0 255	0 0 255	0 0 255	0 0 255	0 0 255	0 0 255	0 0 255	0 0 255	0 0 255	0 0 255	0 0 255	0 0 255	0 0 255	0 0 255	0 0 255	0 0 255	0 0 255	0 0 255	0 0 255	0 0 255	0 0 255	0 0 255	0 0 255	0 0 255	0 0 255	0 0 255	0 0 255	0 0 255	0 0 255	0 0 255	0 0 255	0 0 255	0 0 255	0 0 255	0 0 255	0 0 255	0 0 255	0 0 255	0 0 255	0 0 255	0 0 255	0 0 255	0 0 255	0 0 255	0 0 255	0 0 255	0 0 255	0 0 255	0 0 255	0 0 255	0 0 255	0 0 255	0 0 255	0 0 255	0 0 255	0 0 255	0 0 255	0 0 255	0 0 255	0 0 255	0 0 255	0 0 255	0 0 255	0 0 255	0 0 255	0 0 255	0 0 255	0 0 255	0 0 255	0 0 255	0 0 255	0 0 255	0 0 255	0 0 255	0 0 255	0 0 255	0 0 255	0 0 255	0 0 255	0 0 255	0 0 255	0 0 255	0 0 255	0 0 255	0 0 255	0 0 255	0 0 255	0 0 255	0 0 255	0 0 255	0 0 255	0 0 255	0 0 255	0 0 255	0 0 255	0 0 255	0 0 255	0 0 255	0 0 255	0 0 255	0 0 255	0 0 255	0 0 255	0 0 255	0 0 255	0 0 255	0 0 255	0 0 255	0 0 255	0 0 255	0 0 255	0 0 255	0 0 255	0 0 255	0 0 255	0 0 255	0 0 255	0 0 255	0 0 255	0 0 255	0 0 255	0 0 255	0 0 255	0 0 255	0 0 255	0 0 255	0 0 255	0 0 255	0 0 255	0 0 255	0 0 255	0 0 255	0 0 255	0 0 255	0 0 255	0 0 255	0 0 255	0 0 255	0 0 255	0 0 255	0 0 255	0 0 255	0 0 255	0 0 255	0 0 255	0 0 255	0 0 255	0 0 255	0 0 255	0 0 255	0 0 255	0 0 255	0 0 255	0 0 255	0 0 255	0 0 255	0 0 255	0 0 255	0 0 255	0 0 255	0 0 255	0 0 255	0 0 255	0 0 255	0 0 255	0 0 255	0 0 255	0 0 255	0 0 255	0 0 255	0 0 255	0 0 255	0 0 255	0 0 255	0 0 255	0 0 255	0 0 255	0 0 255	0 0 255	0 0 255	0 0 255	0 0 255	0 0 255	0 0 255	0 0 255	0 0 255	0 0 255	0 0 255	0 0 255	0 0 255	0 0 255	0 0 255	0 0 255	0 0 255	0 0 255	0 0 255	0 0 255	0 0 255	0 0 255	0 0 255	0 0 255	0 0 255	0 0 255	0 0 255	0 0 255	0 0 255	0 0 255	0 0 255	0 0 255	0 0 255	0 0 255	0 0 255	0 0 255	0 0 255	0 0 255	0 0 255	0 0 255	
0 0 255	0 0 255	0 0 255	0 0 255	0 0 255	0 0 255	0 0 255	0 0 255	0 0 255	0 0 255	0 0 255	0 0 255	0 0 255	0 0 255	0 0 255	0 0 255	0 0 255	0 0 255	0 0 255	0 0 255	0 0 255	0 0 255	0 0 255	0 0 255	0 0 255	0 0 255	0 0 255	0 0 255	0 0 255	0 0 255	0 0 255	0 0 255	0 0 255	0 0 255	0 0 255	0 0 255	0 0 255	0 0 255	0 0 255	0 0 255	0 0 255	0 0 255	0 0 255	0 0 255	0 0 255	0 0 255	0 0 255	0 0 255	0 0 255	0 0 255	0 0 255	0 0 255	0 0 255	0 0 255	0 0 255	0 0 255	0 0 255	0 0 255	0 0 255	0 0 255	0 0 255	0 0 255	0 0 255	0 0 255	0 0 255	0 0 255	0 0 255	0 0 255	0 0 255	0 0 255	0 0 255	0 0 255	0 0 255	0 0 255	0 0 255	0 0 255	0 0 255	0 0 255	0 0 255	0 0 255	0 0 255	0 0 255	0 0 255	0 0 255	0 0 255	0 0 255	0 0 255	0 0 255	0 0 255	0 0 255	0 0 255	0 0 255	0 0 255	0 0 255	0 0 255	0 0 255	0 0 255	0 0 255	0 0 255	0 0 255	0 0 255	0 0 255	0 0 255	0 0 255	0 0 255	0 0 255	0 0 255	0 0 255	0 0 255	0 0 255	0 0 255	0 0 255	0 0 255	0 0 255	0 0 255	0 0 255	0 0 255	0 0 255	0 0 255	0 0 255	0 0 255	0 0 255	0 0 255	0 0 255	0 0 255	0 0 255	0 0 255	0 0 255	0 0 255	0 0 255	0 0 255	0 0 255	0 0 255	0 0 255	0 0 255	0 0 255	0 0 255	0 0 255	0 0 255	0 0 255	0 0 255	0 0 255	0 0 255	0 0 255	0 0 255	0 0 255	0 0 255	0 0 255	0 0 255	0 0 255	0 0 255	0 0 255	0 0 255	0 0 255	0 0 255	0 0 255	0 0 255	0 0 255	0 0 255	0 0 255	0 0 255	0 0 255	0 0 255	0 0 255	0 0 255	0 0 255	0 0 255	0 0 255	0 0 255	0 0 255	0 0 255	0 0 255	0 0 255	0 0 255	0 0 255	0 0 255	0 0 255	0 0 255	0 0 255	0 0 255	0 0 255	0 0 255	0 0 255	0 0 255	0 0 255	0 0 255	0 0 255	0 0 255	0 0 255	0 0 255	0 0 255	0 0 255	0 0 255	0 0 255	0 0 255	0 0 255	0 0 255	0 0 255	0 0 255	0 0 255	0 0 255	0 0 255	0 0 255	0 0 255	0 0 255	0 0 255	0 0 255	0 0 255	0 0 255	0 0 255	0 0 255	0 0 255	0 0 255	0 0 255	0 0 255	0 0 255	0 0 255	0 0 255	0 0 255	0 0 255	0 0 255	0 0 255	0 0 255	0 0 255	0 0 255	0 0 255	0 0 255	0 0 255	0 0 255	0 0 255	0 0 255	0 0 255	0 0 255	0 0 255	0 0 255	0 0 255	0 0 255	0 0 255	0 0 255	0 0 255	0 0 255	0 0 255	0 0 255	0 0 255	0 0 255	0 0 255	0 0 255	0 0 255	0 0 255	0 0 255	0 0 255	0 0 255	0 0 255	0 0 255	0 0 255	0 0 255	
0 0 255	0 0 255	0 0 255	0 0 255	0 0 255	0 0 255	0 0 255	0 0 255	0 0 255	0 0 255	0 0 255	0 0 255	0 0 255	0 0 255	0 0 255	0 0 255	0 0 255	0 0 255	0 0 255	0 0 255	0 0 255	0 0 255	0 0 255	0 0 255	0 0 255	0 0 255	0 0 255	0 0 255	0 0 255	0 0 255	0 0 255	0 0 255	0 0 255	0 0 255	0 0 255	0 0 255	0 0 255	0 0 255	0 0 255	0 0 255	0 0 255	0 0 255	0 0 255	0 0 255	0 0 255	0 0 255	0 0 255	0 0 255	0 0 255	0 0 255	0 0 255	0 0 255	0 0 255	0 0 255	0 0 255	0 0 255	0 0 255	0 0 255	0 0 255	0 0 255	0 0 255	0 0 255	0 0 255	0 0 255	0 0 255	0 0 255	0 0 255	0 0 255	0 0 255	0 0 255	0 0 255	0 0 255	0 0 255	0 0 255	0 0 255	0 0 255	0 0 255	0 0 255	0 0 255	0 0 255	0 0 255	0 0 255	0 0 255	0 0 255	0 0 255	0 0 255	0 0 255	0 0 255	0 0 255	0 0 255	0 0 255	0 0 255	0 0 255	0 0 255	0 0 255	0 0 255	0 0 255	0 0 255	0 0 255	0 0 255	0 0 255	0 0 255	0 0 255	0 0 255	0 0 255	0 0 255	0 0 255	0 0 255	0 0 255	0 0 255	0 0 255	0 0 255	0 0 255	0 0 255	0 0 255	0 0 255	0 0 255	0 0 255	0 0 255	0 0 255	0 0 255	0 0 255	0 0 255	0 0 255	0 0 255	0 0 255	0 0 255	0 0 255	0 0 255	0 0 255	0 0 255	0 0 255	0 0 255	0 0 255	0 0 255	0 0 255	0 0 255	0 0 255	0 0 255	0 0 255	0 0 255	0 0 255	0 0 255	0 0 255	0 0 255	0 0 255	0 0 255	0 0 255	0 0 255	0 0 255	0 0 255	0 0 255	0 0 255	0 0 255	0 0 255	0 0 255	0 0 255	0 0 255	0 0 255	0 0 255	0 0 255	0 0 255	0 0 255	0 0 255	0 0 255	0 0 255	0 0 255	0 0 255	0 0 255	0 0 255	0 0 255	0 0 255	0 0 255	0 0 255	0 0 255	0 0 255	0 0 255	0 0 255	0 0 255	0 0 255	0 0 255	0 0 255	0 0 255	0 0 255	0 0 255	0 0 255	0 0 255	0 0 255	0 0 255	0 0 255	0 0 255	0 0 255	0 0 255	0 0 255	0 0 255	0 0 255	0 0 255	0 0 255	0 0 255	0 0 255	0 0 255	0 0 255	0 0 255	0 0 255	0 0 255	0 0 255	0 0 255	0 0 255	0 0 255	0 0 255	0 0 255	0 0 255	0 0 255	0 0 255	0 0 255	0 0 255	0 0 255	0 0 255	0 0 255	0 0 255	0 0 255	0 0 255	0 0 255	0 0 255	0 0 255	0 0 255	0 0 255	0 0 255	0 0 255	0 0 255	0 0 255	0 0 255	0 0 255	0 0 255	0 0 255	0 0 255	0 0 255	0 0 255	0 0 255	0 0 255	0 0 255	0 0 255	0 0 255	0 0 255	0 0 255	0 0 255	0 0 255	0 0 255	0 0 255	0 0 255	0 0 255	0 0 255	0 0 255	0 0 255	0 0 255	0 0 255	
0 0 255	0 0 255	0 0 255	0 0 255	0 0 255	0 0 255	0 0 255	0 0 255	0 0 255	0 0 255	0 0 255	0 0 255	0 0 255	0 0 255	0 0 255	0 0 255	0 0 255	0 0 255	0 0 255	0 0 255	0 0 255	0 0 255	0 0 255	0 0 255	0 0 255	0 0 255	0 0 255	0 0 255	0 0 255	0 0 255	0 0 255	0 0 255	0 0 255	0 0 255	0 0 255	0 0 255	0 0 255	0 0 255	0 0 255	0 0 255	0 0 255	0 0 255	0 0 255	0 0 255	0 0 255	0 0 255	0 0 255	0 0 255	0 0 255	0 0 255	0 0 255	0 0 255	0 0 255	0 0 255	0 0 255	0 0 255	0 0 255	0 0 255	0 0 255	0 0 255	0 0 255	0 0 255	0 0 255	0 0 255	0 0 255	0 0 255	0 0 255	0 0 255	0 0 255	0 0 255	0 0 255	0 0 255	0 0 255	0 0 255	0 0 255	0 0 255	0 0 255	0 0 255	0 0 255	0 0 255	0 0 255	0 0 255	0 0 255	0 0 255	0 0 255	0 0 255	0 0 255	0 0 255	0 0 255	0 0 255	0 0 255	0 0 255	0 0 255	0 0 255	0 0 255	0 0 255	0 0 255	0 0 255	0 0 255	0 0 255	0 0 255	0 0 255	0 0 255	0 0 255	0 0 255	0 0 255	0 0 255	0 0 255	0 0 255	0 0 255	0 0 255	0 0 255	0 0 255	0 0 255	0 0 255	0 0 255	0 0 255	0 0 255	0 0 255	0 0 255	0 0 255	0 0 255	0 0 255	0 0 255	0 0 255	0 0 255	0 0 255	0 0 255	0 0 255	0 0 255	0 0 255	0 0 255	0 0 255	0 0 255	0 0 255	0 0 255	0 0 255	0 0 255	0 0 255	0 0 255	0 0 255	0 0 255	0 0 255	0 0 255	0 0 255	0 0 255	0 0 255	0 0 255	0 0 255	0 0 255	0 0 255	0 0 255	0 0 255	0 0 255	0 0 255	0 0 255	0 0 255	0 0 255	0 0 255	0 0 255	0 0 255	0 0 255	0 0 255	0 0 255	0 0 255	0 0 255	0 0 255	0 0 255	0 0 255	0 0 255	0 0 255	0 0 255	0 0 255	0 0 255	0 0 255	0 0 255	0 0 255	0 0 255	0 0 255	0 0 255	0 0 255	0 0 255	0 0 255	0 0 255	0 0 255	0 0 255	0 0 255	0 0 255	0 0 255	0 0 255	0 0 255	0 0 255	0 0 255	0 0 255	0 0 255	0 0 255	0 0 255	0 0 255	0 0 255	0 0 255	0 0 255	0 0 255	0 0 255	0 0 255	0 0 255	0 0 255	0 0 255	0 0 255	0 0 255	0 0 255	0 0 255	0 0 255	0 0 255	0 0 255	0 0 255	0 0 255	0 0 255	0 0 255	0 0 255	0 0 255	0 0 255	0 0 255	0 0 255	0 0 255	0 0 255	0 0 255	0 0 255	0 0 255	0 0 255	0 0 255	0 0 255	0 0 255	0 0 255	0 0 255	0 0 255	0 0 255	0 0 255	0 0 255	0 0 255	0 0 255	0 0 255	0 0 255	0 0 255	0 0 255	0 0 255	0 0 255	0 0 255	0 0 255	0 0 255	0 0 255	0 0 255	0 0 255	0 0 255	0 0 255	0 0 255	0 0 255	
0 0 255	0 0 255	0 0 255	0 0 255	0 0 255	0 0 255	0 0 255	0 0 255	0 0 255	0 0 255	0 0 255	0 0 255	0 0 255	0 0 255	0 0 255	0 0 255	0 0 255	0 0 255	0 0 255	0 0 255	0 0 255	0 0 255	0 0 255	0 0 255	0 0 255	0 0 255	0 0 255	0 0 255	0 0 255	0 0 255	0 0 255	0 0 255	0 0 255	0 0 255	0 0 255	0 0 255	0 0 255	0 0 255	0 0 255	0 0 255	0 0 255	0 0 255	0 0 255	0 0 255	0 0 255	0 0 255	0 0 255	0 0 255	0 0 255	0 0 255	0 0 255	0 0 255	0 0 255	0 0 255	0 0 255	0 0 255	0 0 255	0 0 255	0 0 255	0 0 255	0 0 255	0 0 255	0 0 255	0 0 255	0 0 255	0 0 255	0 0 255	0 0 255	0 0 255	0 0 255	0 0 255	0 0 255	0 0 255	0 0 255	0 0 255	0 0 255	0 0 255	0 0 255	0 0 255	0 0 255	0 0 255	0 0 255	0 0 255	0 0 255	0 0 255	0 0 255	0 0 255	0 0 255	0 0 255	0 0 255	0 0 255	0 0 255	0 0 255	0 0 255	0 0 255	0 0 255	0 0 255	0 0 255	0 0 255	0 0 255	0 0 255	0 0 255	0 0 255	0 0 255	0 0 255	0 0 255	0 0 255	0 0 255	0 0 255	0 0 255	0 0 255	0 0 255	0 0 255	0 0 255	0 0 255	0 0 255	0 0 255	0 0 255	0 0 255	0 0 255	0 0 255	0 0 255	0 0 255	0 0 255	0 0 255	0 0 255	0 0 255	0 0 255	0 0 255	0 0 255	0 0 255	0 0 255	0 0 255	0 0 255	0 0 255	0 0 255	0 0 255	0 0 255	0 0 255	0 0 255	0 0 255	0 0 255	0 0 255	0 0 255	0 0 255	0 0 255	0 0 255	0 0 255	0 0 255	0 0 255	0 0 255	0 0 255	0 0 255	0 0 255	0 0 255	0 0 255	0 0 255	0 0 255	0 0 255	0 0 255	0 0 255	0 0 255	0 0 255	0 0 255	0 0 255	0 0 255	0 0 255	0 0 255	0 0 255	0 0 255	0 0 255	0 0 255	0 0 255	0 0 255	0 0 255	0 0 255	0 0 255	0 0 255	0 0 255	0 0 255	0 0 255	0 0 255	0 0 255	0 0 255	0 0 255	0 0 255	0 0 255	0 0 255	0 0 255	0 0 255	0 0 255	0 0 255	0 0 255	0 0 255	0 0 255	0 0 255	0 0 255	0 0 255	0 0 255	0 0 255	0 0 255	0 0 255	0 0 255	0 0 255	0 0 255	0 0 255	0 0 255	0 0 255	0 0 255	0 0 255	0 0 255	0 0 255	0 0 255	0 0 255	0 0 255	0 0 255	0 0 255	0 0 255	0 0 255	0 0 255	0 0 255	0 0 255	0 0 255	0 0 255	0 0 255	0 0 255	0 0 255	0 0 255	0 0 255	0 0 255	0 0 255	0 0 255	0 0 255	0 0 255	0 0 255	0 0 255	0 0 255	0 0 255	0 0 255	0 0 255	0 0 255	0 0 255	0 0 255	0 0 255	0 0 255	0 0 255	0 0 255	0 0 255	0 0 255	0 0 255	0 0 255	0 0 255	0 0 255	0 0 255	0 0 255	0 0 255	
0 0 255	0 0 255	0 0 255	0 0 255	0 0 255	0 0 255	0 0 255	0 0 255	0 0 255	0 0 255	0 0 255	0 0 255	0 0 255	0 0 255	0 0 255	0 0 255	0 0 255	0 0 255	0 0 255	0 0 255	0 0 255	0 0 255	0 0 255	0 0 255	0 0 255	0 0 255	0 0 255	0 0 255	0 0 255	0 0 255	0 0 255	0 0 255	0 0 255	0 0 255	0 0 255	0 0 255	0 0 255	0 0 255	0 0 255	0 0 255	0 0 255	0 0 255	0 0 255	0 0 255	0 0 255	0 0 255	0 0 255	0 0 255	0 0 255	0 0 255	0 0 255	0 0 255	0 0 255	0 0 255	0 0 255	0 0 255	0 0 255	0 0 255	0 0 255	0 0 255	0 0 255	0 0 255	0 0 255	0 0 255	0 0 255	0 0 255	0 0 255	0 0 255	0 0 255	0 0 255	0 0 255	0 0 255	0 0 255	0 0 255	0 0 255	0 0 255	0 0 255	0 0 255	0 0 255	0 0 255	0 0 255	0 0 255	0 0 255	0 0 255	0 0 255	0 0 255	0 0 255	0 0 255	0 0 255	0 0 255	0 0 255	0 0 255	0 0 255	0 0 255	0 0 255	0 0 255	0 0 255	0 0 255	0 0 255	0 0 255	0 0 255	0 0 255	0 0 255	0 0 255	0 0 255	0 0 255	0 0 255	0 0 255	0 0 255	0 0 255	0 0 255	0 0 255	0 0 255	0 0 255	0 0 255	0 0 255	0 0 255	0 0 255	0 0 255	0 0 255	0 0 255	0 0 255	0 0 255	0 0 255	0 0 255	0 0 255	0 0 255	0 0 255	0 0 255	0 0 255	0 0 255	0 0 255	0 0 255	0 0 255	0 0 255	0 0 255	0 0 255	0 0 255	0 0 255	0 0 255	0 0 255	0 0 255	0 0 255	0 0 255	0 0 255	0 0 255	0 0 255	0 0 255	0 0 255	0 0 255	0 0 255	0 0 255	0 0 255	0 0 255	0 0 255	0 0 255	0 0 255	0 0 255	0 0 255	0 0 255	0 0 255	0 0 255	0 0 255	0 0 255	0 0 255	0 0 255	0 0 255	0 0 255	0 0 255	0 0 255	0 0 255	0 0 255	0 0 255	0 0 255	0 0 255	0 0 255	0 0 255	0 0 255	0 0 255	0 0 255	0 0 255	0 0 255	0 0 255	0 0 255	0 0 255	0 0 255	0 0 255	0 0 255	0 0 255	0 0 255	0 0 255	0 0 255	0 0 255	0 0 255	0 0 255	0 0 255	0 0 255	0 0 255	0 0 255	0 0 255	0 0 255	0 0 255	0 0 255	0 0 255	0 0 255	0 0 255	0 0 255	0 0 255	0 0 255	0 0 255	0 0 255	0 0 255	0 0 255	0 0 255	0 0 255	0 0 255	0 0 255	0 0 255	0 0 255	0 0 255	0 0 255	0 0 255	0 0 255	0 0 255	0 0 255	0 0 255	0 0 255	0 0 255	0 0 255	0 0 255	0 0 255	0 0 255	0 0 255	0 0 255	0 0 255	0 0 255	0 0 255	0 0 255	0 0 255	0 0 255	0 0 255	0 0 255	0 0 255	0 0 255	0 0 255	0 0 255	0 0 255	0 0 255	0 0 255	0 0 255	0 0 255	0 0 255	0 0 255	0 0 255	0 0 255	0 0 255	
0 0 255	0 0 255	0 0 255	0 0 255	0 0 255	0 0 255	0 0 255	0 0 255	0 0 255	0 0 255	0 0 255	0 0 255	0 0 255	0 0 255	0 0 255	0 0 255	0 0 255	0 0 255	0 0 255	0 0 255	0 0 255	0 0 255	0 0 255	0 0 255	0 0 255	0 0 255	0 0 255	0 0 255	0 0 255	0 0 255	0 0 255	0 0 255	0 0 255	0 0 255	0 0 255	0 0 255	0 0 255	0 0 255	0 0 255	0 0 255	0 0 255	0 0 255	0 0 255	0 0 255	0 0 255	0 0 255	0 0 255	0 0 255	0 0 255	0 0 255	0 0 255	0 0 255	0 0 255	0 0 255	0 0 255	0 0 255	0 0 255	0 0 255	0 0 255	0 0 255	0 0 255	0 0 255	0 0 255	0 0 255	0 0 255	0 0 255	0 0 255	0 0 255	0 0 255	0 0 255	0 0 255	0 0 255	0 0 255	0 0 255	0 0 255	0 0 255	0 0 255	0 0 255	0 0 255	0 0 255	0 0 255	0 0 255	0 0 255	0 0 255	0 0 255	0 0 255	0 0 255	0 0 255	0 0 255	0 0 255	0 0 255	0 0 255	0 0 255	0 0 255	0 0 255	0 0 255	0 0 255	0 0 255	0 0 255	0 0 255	0 0 255	0 0 255	0 0 255	0 0 255	0 0 255	0 0 255	0 0 255	0 0 255	0 0 255	0 0 255	0 0 255	0 0 255	0 0 255	0 0 255	0 0 255	0 0 255	0 0 255	0 0 255	0 0 255	0 0 255	0 0 255	0 0 255	0 0 255	0 0 255	0 0 255	0 0 255	0 0 255	0 0 255	0 0 255	0 0 255	0 0 255	0 0 255	0 0 255	0 0 255	0 0 255	0 0 255	0 0 255	0 0 255	0 0 255	0 0 255	0 0 255	0 0 255	0 0 255	0 0 255	0 0 255	0 0 255	0 0 255	0 0 255	0 0 255	0 0 255	0 0 255	0 0 255	0 0 255	0 0 255	0 0 255	0 0 255	0 0 255	0 0 255	0 0 255	0 0 255	0 0 255	0 0 255	0 0 255	0 0 255	0 0 255	0 0 255	0 0 255	0 0 255	0 0 255	0 0 255	0 0 255	0 0 255	0 0 255	0 0 255	0 0 255	0 0 255	0 0 255	0 0 255	0 0 255	0 0 255	0 0 255	0 0 255	0 0 255	0 0 255	0 0 255	0 0 255	0 0 255	0 0 255	0 0 255	0 0 255	0 0 255	0 0 255	0 0 255	0 0 255	0 0 255	0 0 255	0 0 255	0 0 255	0 0 255	0 0 255	0 0 255	0 0 255	0 0 255	0 0 255	0 0 255	0 0 255	0 0 255	0 0 255	0 0 255	0 0 255	0 0 255	0 0 255	0 0 255	0 0 255	0 0 255	0 0 255	0 0 255	0 0 255	0 0 255	0 0 255	0 0 255	0 0 255	0 0 255	0 0 255	0 0 255	0 0 255	0 0 255	0 0 255	0 0 255	0 0 255	0 0 255	0 0 255	0 0 255	0 0 255	0 0 255	0 0 255	0 0 255	0 0 255	0 0 255	0 0 255	0 0 255	0 0 255	0 0 255	0 0 255	0 0 255	0 0 255	0 0 255	0 0 255	0 0 255	0 0 255	0 0 255	0 0 255	0 0 255	0 0 255	0 0 255	0 0 255	
0 0 255	0 0 255	0 0 255	0 0 255	0 0 255	0 0 255	0 0 255	0 0 255	0 0 255	0 0 255	0 0 255	0 0 255	0 0 255	0 0 255	0 0 255	0 0 255	0 0 255	0 0 255	0 0 255	0 0 255	0 0 255	0 0 255	0 0 255	0 0 255	0 0 255	0 0 255	0 0 255	0 0 255	0 0 255	0 0 255	0 0 255	0 0 255	0 0 255	0 0 255	0 0 255	0 0 255	0 0 255	0 0 255	0 0 255	0 0 255	0 0 255	0 0 255	0 0 255	0 0 255	0 0 255	0 0 255	0 0 255	0 0 255	0 0 255	0 0 255	0 0 255	0 0 255	0 0 255	0 0 255	0 0 255	0 0 255	0 0 255	0 0 255	0 0 255	0 0 255	0 0 255	0 0 255	0 0 255	0 0 255	0 0 255	0 0 255	0 0 255	0 0 255	0 0 255	0 0 255	0 0 255	0 0 255	0 0 255	0 0 255	0 0 255	0 0 255	0 0 255	0 0 255	0 0 255	0 0 255	0 0 255	0 0 255	0 0 255	0 0 255	0 0 255	0 0 255	0 0 255	0 0 255	0 0 255	0 0 255	0 0 255	0 0 255	0 0 255	0 0 255	0 0 255	0 0 255	0 0 255	0 0 255	0 0 255	0 0 255	0 0 255	0 0 255	0 0 255	0 0 255	0 0 255	0 0 255	0 0 255	0 0 255	0 0 255	0 0 255	0 0 255	0 0 255	0 0 255	0 0 255	0 0 255	0 0 255	0 0 255	0 0 255	0 0 255	0 0 255	0 0 255	0 0 255	0 0 255	0 0 255	0 0 255	0 0 255	0 0 255	0 0 255	0 0 255	0 0 255	0 0 255	0 0 255	0 0 255	0 0 255	0 0 255	0 0 255	0 0 255	0 0 255	0 0 255	0 0 255	0 0 255	0 0 255	0 0 255	0 0 255	0 0 255	0 0 255	0 0 255	0 0 255	0 0 255	0 0 255	0 0 255	0 0 255	0 0 255	0 0 255	0 0 255	0 0 255	0 0 255	0 0 255	0 0 255	0 0 255	0 0 255	0 0 255	0 0 255	0 0 255	0 0 255	0 0 255	0 0 255	0 0 255	0 0 255	0 0 255	0 0 255	0 0 255	0 0 255	0 0 255	0 0 255	0 0 255	0 0 255	0 0 255	0 0 255	0 0 255	0 0 255	0 0 255	0 0 255	0 0 255	0 0 255	0 0 255	0 0 255	0 0 255	0 0 255	0 0 255	0 0 255	0 0 255	0 0 255	0 0 255	0 0 255	0 0 255	0 0 255	0 0 255	0 0 255	0 0 255	0 0 255	0 0 255	0 0 255	0 0 255	0 0 255	0 0 255	0 0 255	0 0 255	0 0 255	0 0 255	0 0 255	0 0 255	0 0 255	0 0 255	0 0 255	0 0 255	0 0 255	0 0 255	0 0 255	0 0 255	0 0 255	0 0 255	0 0 255	0 0 255	0 0 255	0 0 255	0 0 255	0 0 255	0 0 255	0 0 255	0 0 255	0 0 255	0 0 255	0 0 255	0 0 255	0 0 255	0 0 255	0 0 255	0 0 255	0 0 255	0 0 255	0 0 255	0 0 255	0 0 255	0 0 255	0 0 255	0 0 255	0 0 255	0 0 255	0 0 255	0 0 255	0 0 255	0 0 255	0 0 255	0 0 255	0 0 255	
0 0 255	0 0 255	0 0 255	0 0 255	0 0 255	0 0 255	0 0 255	0 0 255	0 0 255	0 0 255	0 0 255	0 0 255	0 0 255	0 0 255	0 0 255	0 0 255	0 0 255	0 0 255	0 0 255	0 0 255	0 0 255	0 0 255	0 0 255	0 0 255	0 0 255	0 0 255	0 0 255	0 0 255	0 0 255	0 0 255	0 0 255	0 0 255	0 0 255	0 0 255	0 0 255	0 0 255	0 0 255	0 0 255	0 0 255	0 0 255	0 0 255	0 0 255	0 0 255	0 0 255	0 0 255	0 0 255	0 0 255	0 0 255	0 0 255	0 0 255	0 0 255	0 0 255	0 0 255	0 0 255	0 0 255	0 0 255	0 0 255	0 0 255	0 0 255	0 0 255	0 0 255	0 0 255	0 0 255	0 0 255	0 0 255	0 0 255	0 0 255	0 0 255	0 0 255	0 0 255	0 0 255	0 0 255	0 0 255	0 0 255	0 0 255	0 0 255	0 0 255	0 0 255	0 0 255	0 0 255	0 0 255	0 0 255	0 0 255	0 0 255	0 0 255	0 0 255	0 0 255	0 0 255	0 0 255	0 0 255	0 0 255	0 0 255	0 0 255	0 0 255	0 0 255	0 0 255	0 0 255	0 0 255	0 0 255	0 0 255	0 0 255	0 0 255	0 0 255	0 0 255	0 0 255	0 0 255	0 0 255	0 0 255	0 0 255	0 0 255	0 0 255	0 0 255	0 0 255	0 0 255	0 0 255	0 0 255	0 0 255	0 0 255	0 0 255	0 0 255	0 0 255	0 0 255	0 0 255	0 0 255	0 0 255	0 0 255	0 0 255	0 0 255	0 0 255	0 0 255	0 0 255	0 0 255	0 0 255	0 0 255	0 0 255	0 0 255	0 0 255	0 0 255	0 0 255	0 0 255	0 0 255	0 0 255	0 0 255	0 0 255	0 0 255	0 0 255	0 0 255	0 0 255	0 0 255	0 0 255	0 0 255	0 0 255	0 0 255	0 0 255	0 0 255	0 0 255	0 0 255	0 0 255	0 0 255	0 0 255	0 0 255	0 0 255	0 0 255	0 0 255	0 0 255	0 0 255	0 0 255	0 0 255	0 0 255	0 0 255	0 0 255	0 0 255	0 0 255	0 0 255	0 0 255	0 0 255	0 0 255	0 0 255	0 0 255	0 0 255	0 0 255	0 0 255	0 0 255	0 0 255	0 0 255	0 0 255	0 0 255	0 0 255	0 0 255	0 0 255	0 0 255	0 0 255	0 0 255	0 0 255	0 0 255	0 0 255	0 0 255	0 0 255	0 0 255	0 0 255	0 0 255	0 0 255	0 0 255	0 0 255	0 0 255	0 0 255	0 0 255	0 0 255	0 0 255	0 0 255	0 0 255	0 0 255	0 0 255	0 0 255	0 0 255	0 0 255	0 0 255	0 0 255	0 0 255	0 0 255	0 0 255	0 0 255	0 0 255	0 0 255	0 0 255	0 0 255	0 0 255	0 0 255	0 0 255	0 0 255	0 0 255	0 0 255	0 0 255	0 0 255	0 0 255	0 0 255	0 0 255	0 0 255	0 0 255	0 0 255	0 0 255	0 0 255	0 0 255	0 0 255	0 0 255	0 0 255	0 0 255	0 0 255	0 0 255	0 0 255	0 0 255	0 0 255	0 0 255	0 0 255	0 0 255	0 0 255	
0 0 255	0 0 255	0 0 255	0 0 255	0 0 255	0 0 255	0 0 255	0 0 255	0 0 255	0 0 255	0 0 255	0 0 255	0 0 255	0 0 255	0 0 255	0 0 255	0 0 255	0 0 255	0 0 255	0 0 255	0 0 255	0 0 255	0 0 255	0 0 255	0 0 255	0 0 255	0 0 255	0 0 255	0 0 255	0 0 255	0 0 255	0 0 255	0 0 255	0 0 255	0 0 255	0 0 255	0 0 255	0 0 255	0 0 255	0 0 255	0 0 255	0 0 255	0 0 255	0 0 255	0 0 255	0 0 255	0 0 255	0 0 255	0 0 255	0 0 255	0 0 255	0 0 255	0 0 255	0 0 255	0 0 255	0 0 255	0 0 255	0 0 255	0 0 255	0 0 255	0 0 255	0 0 255	0 0 255	0 0 255	0 0 255	0 0 255	0 0 255	0 0 255	0 0 255	0 0 255	0 0 255	0 0 255	0 0 255	0 0 255	0 0 255	0 0 255	0 0 255	0 0 255	0 0 255	0 0 255	0 0 255	0 0 255	0 0 255	0 0 255	0 0 255	0 0 255	0 0 255	0 0 255	0 0 255	0 0 255	0 0 255	0 0 255	0 0 255	0 0 255	0 0 255	0 0 255	0 0 255	0 0 255	0 0 255	0 0 255	0 0 255	0 0 255	0 0 255	0 0 255	0 0 255	0 0 255	0 0 255	0 0 255	0 0 255	0 0 255	0 0 255	0 0 255	0 0 255	0 0 255	0 0 255	0 0 255	0 0 255	0 0 255	0 0 255	0 0 255	0 0 255	0 0 255	0 0 255	0 0 255	0 0 255	0 0 255	0 0 255	0 0 255	0 0 255	0 0 255	0 0 255	0 0 255	0 0 255	0 0 255	0 0 255	0 0 255	0 0 255	0 0 255	0 0 255	0 0 255	0 0 255	0 0 255	0 0 255	0 0 255	0 0 255	0 0 255	0 0 255	0 0 255	0 0 255	0 0 255	0 0 255	0 0 255	0 0 255	0 0 255	0 0 255	0 0 255	0 0 255	0 0 255	0 0 255	0 0 255	0 0 255	0 0 255	0 0 255	0 0 255	0 0 255	0 0 255	0 0 255	0 0 255	0 0 255	0 0 255	0 0 255	0 0 255	0 0 255	0 0 255	0 0 255	0 0 255	0 0 255	0 0 255	0 0 255	0 0 255	0 0 255	0 0 255	0 0 255	0 0 255	0 0 255	0 0 255	0 0 255	0 0 255	0 0 255	0 0 255	0 0 255	0 0 255	0 0 255	0 0 255	0 0 255	0 0 255	0 0 255	0 0 255	0 0 255	0 0 255	0 0 255	0 0 255	0 0 255	0 0 255	0 0 255	0 0 255	0 0 255	0 0 255	0 0 255	0 0 255	0 0 255	0 0 255	0 0 255	0 0 255	0 0 255	0 0 255	0 0 255	0 0 255	0 0 255	0 0 255	0 0 255	0 0 255	0 0 255	0 0 255	0 0 255	0 0 255	0 0 255	0 0 255	0 0 255	0 0 255	0 0 255	0 0 255	0 0 255	0 0 255	0 0 255	0 0 255	0 0 255	0 0 255	0 0 255	0 0 255	0 0 255	0 0 255	0 0 255	0 0 255	0 0 255	0 0 255	0 0 255	0 0 255	0 0 255	0 0 255	0 0 255	0 0 255	0 0 255	0 0 255	0 0 255	0 0 255	
0 0 255	0 0 255	0 0 255	0 0 255	0 0 255	0 0 255	0 0 255	0 0 255	0 0 255	0 0 255	0 0 255	0 0 255	0 0 255	0 0 255	0 0 255	0 0 255	0 0 255	0 0 255	0 0 255	0 0 255	0 0 255	0 0 255	0 0 255	0 0 255	0 0 255	0 0 255	0 0 255	0 0 255	0 0 255	0 0 255	0 0 255	0 0 255	0 0 255	0 0 255	0 0 255	0 0 255	0 0 255	0 0 255	0 0 255	0 0 255	0 0 255	0 0 255	0 0 255	0 0 255	0 0 255	0 0 255	0 0 255	0 0 255	0 0 255	0 0 255	0 0 255	0 0 255	0 0 255	0 0 255	0 0 255	0 0 255	0 0 255	0 0 255	0 0 255	0 0 255	0 0 255	0 0 255	0 0 255	0 0 255	0 0 255	0 0 255	0 0 255	0 0 255	0 0 255	0 0 255	0 0 255	0 0 255	0 0 255	0 0 255	0 0 255	0 0 255	0 0 255	0 0 255	0 0 255	0 0 255	0 0 255	0 0 255	0 0 255	0 0 255	0 0 255	0 0 255	0 0 255	0 0 255	0 0 255	0 0 255	0 0 255	0 0 255	0 0 255	0 0 255	0 0 255	0 0 255	0 0 255	0 0 255	0 0 255	0 0 255	0 0 255	0 0 255	0 0 255	0 0 255	0 0 255	0 0 255	0 0 255	0 0 255	0 0 255	0 0 255	0 0 255	0 0 255	0 0 255	0 0 255	0 0 255	0 0 255	0 0 255	0 0 255	0 0 255	0 0 255	0 0 255	0 0 255	0 0 255	0 0 255	0 0 255	0 0 255	0 0 255	0 0 255	0 0 255	0 0 255	0 0 255	0 0 255	0 0 255	0 0 255	0 0 255	0 0 255	0 0 255	0 0 255	0 0 255	0 0 255	0 0 255	0 0 255	0 0 255	0 0 255	0 0 255	0 0 255	0 0 255	0 0 255	0 0 255	0 0 255	0 0 255	0 0 255	0 0 255	0 0 255	0 0 255	0 0 255	0 0 255	0 0 255	0 0 255	0 0 255	0 0 255	0 0 255	0 0 255	0 0 255	0 0 255	0 0 255	0 0 255	0 0 255	0 0 255	0 0 255	0 0 255	0 0 255	0 0 255	0 0 255	0 0 255	0 0 255	0 0 255	0 0 255	0 0 255	0 0 255	0 0 255	0 0 255	0 0 255	0 0 255	0 0 255	0 0 255	0 0 255	0 0 255	0 0 255	0 0 255	0 0 255	0 0 255	0 0 255	0 0 255	0 0 255	0 0 255	0 0 255	0 0 255	0 0 255	0 0 255	0 0 255	0 0 255	0 0 255	0 0 255	0 0 255	0 0 255	0 0 255	0 0 255	0 0 255	0 0 255	0 0 255	0 0 255	0 0 255	0 0 255	0 0 255	0 0 255	0 0 255	0 0 255	0 0 255	0 0 255	0 0 255	0 0 255	0 0 255	0 0 255	0 0 255	0 0 255	0 0 255	0 0 255	0 0 255	0 0 255	0 0 255	0 0 255	0 0 255	0 0 255	0 0 255	0 0 255	0 0 255	0 0 255	0 0 255	0 0 255	0 0 255	0 0 255	0 0 255	0 0 255	0 0 255	0 0 255	0 0 255	0 0 255	0 0 255	0 0 255	0 0 255	0 0 255	0 0 255	0 0 255	0 0 255	0 0 255	
0 0 255	0 0 255	0 0 255	0 0 255	0 0 255	0 0 255	0 0 255	0 0 255	0 0 255	0 0 255	0 0 255	0 0 255	0 0 255	0 0 255	0 0 255	0 0 255	0 0 255	0 0 255	0 0 255	0 0 255	0 0 255	0 0 255	0 0 255	0 0 255	0 0 255	0 0 255	0 0 255	0 0 255	0 0 255	0 0 255	0 0 255	0 0 255	0 0 255	0 0 255	0 0 255	0 0 255	0 0 255	0 0 255	0 0 255	0 0 255	0 0 255	0 0 255	0 0 255	0 0 255	0 0 255	0 0 255	0 0 255	0 0 255	0 0 255	0 0 255	0 0 255	0 0 255	0 0 255	0 0 255	0 0 255	0 0 255	0 0 255	0 0 255	0 0 255	0 0 255	0 0 255	0 0 255	0 0 255	0 0 255	0 0 255	0 0 255	0 0 255	0 0 255	0 0 255	0 0 255	0 0 255	0 0 255	0 0 255	0 0 255	0 0 255	0 0 255	0 0 255	0 0 255	0 0 255	0 0 255	0 0 255	0 0 255	0 0 255	0 0 255	0 0 255	0 0 255	0 0 255	0 0 255	0 0 255	0 0 255	0 0 255	0 0 255	0 0 255	0 0 255	0 0 255	0 0 255	0 0 255	0 0 255	0 0 255	0 0 255	0 0 255	0 0 255	0 0 255	0 0 255	0 0 255	0 0 255	0 0 255	0 0 255	0 0 255	0 0 255	0 0 255	0 0 255	0 0 255	0 0 255	0 0 255	0 0 255	0 0 255	0 0 255	0 0 255	0 0 255	0 0 255	0 0 255	0 0 255	0 0 255	0 0 255	0 0 255	0 0 255	0 0 255	0 0 255	0 0 255	0 0 255	0 0 255	0 0 255	0 0 255	0 0 255	0 0 255	0 0 255	0 0 255	0 0 255	0 0 255	0 0 255	0 0 255	0 0 255	0 0 255	0 0 255	0 0 255	0 0 255	0 0 255	0 0 255	0 0 255	0 0 255	0 0 255	0 0 255	0 0 255	0 0 255	0 0 255	0 0 255	0 0 255	0 0 255	0 0 255	0 0 255	0 0 255	0 0 255	0 0 255	0 0 255	0 0 255	0 0 255	0 0 255	0 0 255	0 0 255	0 0 255	0 0 255	0 0 255	0 0 255	0 0 255	0 0 255	0 0 255	0 0 255	0 0 255	0 0 255	0 0 255	0 0 255	0 0 255	0 0 255	0 0 255	0 0 255	0 0 255	0 0 255	0 0 255	0 0 255	0 0 255	0 0 255	0 0 255	0 0 255	0 0 255	0 0 255	0 0 255	0 0 255	0 0 255	0 0 255	0 0 255	0 0 255	0 0 255	0 0 255	0 0 255	0 0 255	0 0 255	0 0 255	0 0 255	0 0 255	0 0 255	0 0 255	0 0 255	0 0 255	0 0 255	0 0 255	0 0 255	0 0 255	0 0 255	0 0 255	0 0 255	0 0 255	0 0 255	0 0 255	0 0 255	0 0 255	0 0 255	0 0 255	0 0 255	0 0 255	0 0 255	0 0 255	0 0 255	0 0 255	0 0 255	0 0 255	0 0 255	0 0 255	0 0 255	0 0 255	0 0 255	0 0 255	0 0 255	0 0 255	0 0 255	0 0 255	0 0 255	0 0 255	0 0 255	0 0 255	0 0 255	0 0 255	0 0 255	0 0 255	0 0 255	0 0 255	
0 0 255	0 0 255	0 0 255	0 0 255	0 0 255	0 0 255	0 0 255	0 0 255	0 0 255	0 0 255	0 0 255	0 0 255	0 0 255	0 0 255	0 0 255	0 0 255	0 0 255	0 0 255	0 0 255	0 0 255	0 0 255	0 0 255	0 0 255	0 0 255	0 0 255	0 0 255	0 0 255	0 0 255	0 0 255	0 0 255	0 0 255	0 0 255	0 0 255	0 0 255	0 0 255	0 0 255	0 0 255	0 0 255	0 0 255	0 0 255	0 0 255	0 0 255	0 0 255	0 0 255	0 0 255	0 0 255	0 0 255	0 0 255	0 0 255	0 0 255	0 0 255	0 0 255	0 0 255	0 0 255	0 0 255	0 0 255	0 0 255	0 0 255	0 0 255	0 0 255	0 0 255	0 0 255	0 0 255	0 0 255	0 0 255	0 0 255	0 0 255	0 0 255	0 0 255	0 0 255	0 0 255	0 0 255	0 0 255	0 0 255	0 0 255	0 0 255	0 0 255	0 0 255	0 0 255	0 0 255	0 0 255	0 0 255	0 0 255	0 0 255	0 0 255	0 0 255	0 0 255	0 0 255	0 0 255	0 0 255	0 0 255	0 0 255	0 0 255	0 0 255	0 0 255	0 0 255	0 0 255	0 0 255	0 0 255	0 0 255	0 0 255	0 0 255	0 0 255	0 0 255	0 0 255	0 0 255	0 0 255	0 0 255	0 0 255	0 0 255	0 0 255	0 0 255	0 0 255	0 0 255	0 0 255	0 0 255	0 0 255	0 0 255	0 0 255	0 0 255	0 0 255	0 0 255	0 0 255	0 0 255	0 0 255	0 0 255	0 0 255	0 0 255	0 0 255	0 0 255	0 0 255	0 0 255	0 0 255	0 0 255	0 0 255	0 0 255	0 0 255	0 0 255	0 0 255	0 0 255	0 0 255	0 0 255	0 0 255	0 0 255	0 0 255	0 0 255	0 0 255	0 0 255	0 0 255	0 0 255	0 0 255	0 0 255	0 0 255	0 0 255	0 0 255	0 0 255	0 0 255	0 0 255	0 0 255	0 0 255	0 0 255	0 0 255	0 0 255	0 0 255	0 0 255	0 0 255	0 0 255	0 0 255	0 0 255	0 0 255	0 0 255	0 0 255	0 0 255	0 0 255	0 0 255	0 0 255	0 0 255	0 0 255	0 0 255	0 0 255	0 0 255	0 0 255	0 0 255	0 0 255	0 0 255	0 0 255	0 0 255	0 0 255	0 0 255	0 0 255	0 0 255	0 0 255	0 0 255	0 0 255	0 0 255	0 0 255	0 0 255	0 0 255	0 0 255	0 0 255	0 0 255	0 0 255	0 0 255	0 0 255	0 0 255	0 0 255	0 0 255	0 0 255	0 0 255	0 0 255	0 0 255	0 0 255	0 0 255	0 0 255	0 0 255	0 0 255	0 0 255	0 0 255	0 0 255	0 0 255	0 0 255	0 0 255	0 0 255	0 0 255	0 0 255	0 0 255	0 0 255	0 0 255	0 0 255	0 0 255	0 0 255	0 0 255	0 0 255	0 0 255	0 0 255	0 0 255	0 0 255	0 0 255	0 0 255	0 0 255	0 0 255	0 0 255	0 0 255	0 0 255	0 0 255	0 0 255	0 0 255	0 0 255	0 0 255	0 0 255	0 0 255	0 0 255	0 0 255	0 0 255	0 0 255	0 0 255	
0 0 255	0 0 255	0 0 255	0 0 255	0 0 255	0 0 255	0 0 255	0 0 255	0 0 255	0 0 255	0 0 255	0 0 255	0 0 255	0 0 255	0 0 255	0 0 255	0 0 255	0 0 255	0 0 255	0 0 255	0 0 255	0 0 255	0 0 255	0 0 255	0 0 255	0 0 255	0 0 255	0 0 255	0 0 255	0 0 255	0 0 255	0 0 255	0 0 255	0 0 255	0 0 255	0 0 255	0 0 255	0 0 255	0 0 255	0 0 255	0 0 255	0 0 255	0 0 255	0 0 255	0 0 255	0 0 255	0 0 255	0 0 255	0 0 255	0 0 255	0 0 255	0 0 255	0 0 255	0 0 255	0 0 255	0 0 255	0 0 255	0 0 255	0 0 255	0 0 255	0 0 255	0 0 255	0 0 255	0 0 255	0 0 255	0 0 255	0 0 255	0 0 255	0 0 255	0 0 255	0 0 255	0 0 255	0 0 255	0 0 255	0 0 255	0 0 255	0 0 255	0 0 255	0 0 255	0 0 255	0 0 255	0 0 255	0 0 255	0 0 255	0 0 255	0 0 255	0 0 255	0 0 255	0 0 255	0 0 255	0 0 255	0 0 255	0 0 255	0 0 255	0 0 255	0 0 255	0 0 255	0 0 255	0 0 255	0 0 255	0 0 255	0 0 255	0 0 255	0 0 255	0 0 255	0 0 255	0 0 255	0 0 255	0 0 255	0 0 255	0 0 255	0 0 255	0 0 255	0 0 255	0 0 255	0 0 255	0 0 255	0 0 255	0 0 255	0 0 255	0 0 255	0 0 255	0 0 255	0 0 255	0 0 255	0 0 255	0 0 255	0 0 255	0 0 255	0 0 255	0 0 255	0 0 255	0 0 255	0 0 255	0 0 255	0 0 255	0 0 255	0 0 255	0 0 255	0 0 255	0 0 255	0 0 255	0 0 255	0 0 255	0 0 255	0 0 255	0 0 255	0 0 255	0 0 255	0 0 255	0 0 255	0 0 255	0 0 255	0 0 255	0 0 255	0 0 255	0 0 255	0 0 255	0 0 255	0 0 255	0 0 255	0 0 255	0 0 255	0 0 255	0 0 255	0 0 255	0 0 255	0 0 255	0 0 255	0 0 255	0 0 255	0 0 255	0 0 255	0 0 255	0 0 255	0 0 255	0 0 255	0 0 255	0 0 255	0 0 255	0 0 255	0 0 255	0 0 255	0 0 255	0 0 255	0 0 255	0 0 255	0 0 255	0 0 255	0 0 255	0 0 255	0 0 255	0 0 255	0 0 255	0 0 255	0 0 255	0 0 255	0 0 255	0 0 255	0 0 255	0 0 255	0 0 255	0 0 255	0 0 255	0 0 255	0 0 255	0 0 255	0 0 255	0 0 255	0 0 255	0 0 255	0 0 255	0 0 255	0 0 255	0 0 255	0 0 255	0 0 255	0 0 255	0 0 255	0 0 255	0 0 255	0 0 255	0 0 255	0 0 255	0 0 255	0 0 255	0 0 255	0 0 255	0 0 255	0 0 255	0 0 255	0 0 255	0 0 255	0 0 255	0 0 255	0 0 255	0 0 255	0 0 255	0 0 255	0 0 255	0 0 255	0 0 255	0 0 255	0 0 255	0 0 255	0 0 255	0 0 255	0 0 255	0 0 255	0 0 255	0 0 255	0 0 255	0 0 255	0 0 255	0 0 255	0 0 255	
0 0 255	0 0 255	0 0 255	0 0 255	0 0 255	0 0 255	0 0 255	0 0 255	0 0 255	0 0 255	0 0 255	0 0 255	0 0 255	0 0 255	0 0 255	0 0 255	0 0 255	0 0 255	0 0 255	0 0 255	0 0 255	0 0 255	0 0 255	0 0 255	0 0 255	0 0 255	0 0 255	0 0 255	0 0 255	0 0 255	0 0 255	0 0 255	0 0 255	0 0 255	0 0 255	0 0 255	0 0 255	0 0 255	0 0 255	0 0 255	0 0 255	0 0 255	0 0 255	0 0 255	0 0 255	0 0 255	0 0 255	0 0 255	0 0 255	0 0 255	0 0 255	0 0 255	0 0 255	0 0 255	0 0 255	0 0 255	0 0 255	0 0 255	0 0 255	0 0 255	0 0 255	0 0 255	0 0 255	0 0 255	0 0 255	0 0 255	0 0 255	0 0 255	0 0 255	0 0 255	0 0 255	0 0 255	0 0 255	0 0 255	0 0 255	0 0 255	0 0 255	0 0 255	0 0 255	0 0 255	0 0 255	0 0 255	0 0 255	0 0 255	0 0 255	0 0 255	0 0 255	0 0 255	0 0 255	0 0 255	0 0 255	0 0 255	0 0 255	0 0 255	0 0 255	0 0 255	0 0 255	0 0 255	0 0 255	0 0 255	0 0 255	0 0 255	0 0 255	0 0 255	0 0 255	0 0 255	0 0 255	0 0 255	0 0 255	0 0 255	0 0 255	0 0 255	0 0 255	0 0 255	0 0 255	0 0 255	0 0 255	0 0 255	0 0 255	0 0 255	0 0 255	0 0 255	0 0 255	0 0 255	0 0 255	0 0 255	0 0 255	0 0 255	0 0 255	0 0 255	0 0 255	0 0 255	0 0 255	0 0 255	0 0 255	0 0 255	0 0 255	0 0 255	0 0 255	0 0 255	0 0 255	0 0 255	0 0 255	0 0 255	0 0 255	0 0 255	0 0 255	0 0 255	0 0 255	0 0 255	0 0 255	0 0 255	0 0 255	0 0 255	0 0 255	0 0 255	0 0 255	0 0 255	0 0 255	0 0 255	0 0 255	0 0 255	0 0 255	0 0 255	0 0 255	0 0 255	0 0 255	0 0 255	0 0 255	0 0 255	0 0 255	0 0 255	0 0 255	0 0 255	0 0 255	0 0 255	0 0 255	0 0 255	0 0 255	0 0 255	0 0 255	0 0 255	0 0 255	0 0 255	0 0 255	0 0 255	0 0 255	0 0 255	0 0 255	0 0 255	0 0 255	0 0 255	0 0 255	0 0 255	0 0 255	0 0 255	0 0 255	0 0 255	0 0 255	0 0 255	0 0 255	0 0 255	0 0 255	0 0 255	0 0 255	0 0 255	0 0 255	0 0 255	0 0 255	0 0 255	0 0 255	0 0 255	0 0 255	0 0 255	0 0 255	0 0 255	0 0 255	0 0 255	0 0 255	0 0 255	0 0 255	0 0 255	0 0 255	0 0 255	0 0 255	0 0 255	0 0 255	0 0 255	0 0 255	0 0 255	0 0 255	0 0 255	0 0 255	0 0 255	0 0 255	0 0 255	0 0 255	0 0 255	0 0 255	0 0 255	0 0 255	0 0 255	0 0 255	0 0 255	0 0 255	0 0 255	0 0 255	0 0 255	0 0 255	0 0 255	0 0 255	0 0 255	0 0 255	0 0 255	0 0 255	0 0 255	
0 0 255	0 0 255	0 0 255	0 0 255	0 0 255	0 0 255	0 0 255	0 0 255	0 0 255	0 0 255	0 0 255	0 0 255	0 0 255	0 0 255	0 0 255	0 0 255	0 0 255	0 0 255	0 0 255	0 0 255	0 0 255	0 0 255	0 0 255	0 0 255	0 0 255	0 0 255	0 0 255	0 0 255	0 0 255	0 0 255	0 0 255	0 0 255	0 0 255	0 0 255	0 0 255	0 0 255	0 0 255	0 0 255	0 0 255	0 0 255	0 0 255	0 0 255	0 0 255	0 0 255	0 0 255	0 0 255	0 0 255	0 0 255	0 0 255	0 0 255	0 0 255	0 0 255	0 0 255	0 0 255	0 0 255	0 0 255	0 0 255	0 0 255	0 0 255	0 0 255	0 0 255	0 0 255	0 0 255	0 0 255	0 0 255	0 0 255	0 0 255	0 0 255	0 0 255	0 0 255	0 0 255	0 0 255	0 0 255	0 0 255	0 0 255	0 0 255	0 0 255	0 0 255	0 0 255	0 0 255	0 0 255	0 0 255	0 0 255	0 0 255	0 0 255	0 0 255	0 0 255	0 0 255	0 0 255	0 0 255	0 0 255	0 0 255	0 0 255	0 0 255	0 0 255	0 0 255	0 0 255	0 0 255	0 0 255	0 0 255	0 0 255	0 0 255	0 0 255	0 0 255	0 0 255	0 0 255	0 0 255	0 0 255	0 0 255	0 0 255	0 0 255	0 0 255	0 0 255	0 0 255	0 0 255	0 0 255	0 0 255	0 0 255	0 0 255	0 0 255	0 0 255	0 0 255	0 0 255	0 0 255	0 0 255	0 0 255	0 0 255	0 0 255	0 0 255	0 0 255	0 0 255	0 0 255	0 0 255	0 0 255	0 0 255	0 0 255	0 0 255	0 0 255	0 0 255	0 0 255	0 0 255	0 0 255	0 0 255	0 0 255	0 0 255	0 0 255	0 0 255	0 0 255	0 0 255	0 0 255	0 0 255	0 0 255	0 0 255	0 0 255	0 0 255	0 0 255	0 0 255	0 0 255	0 0 255	0 0 255	0 0 255	0 0 255	0 0 255	0 0 255	0 0 255	0 0 255	0 0 255	0 0 255	0 0 255	0 0 255	0 0 255	0 0 255	0 0 255	0 0 255	0 0 255	0 0 255	0 0 255	0 0 255	0 0 255	0 0 255	0 0 255	0 0 255	0 0 255	0 0 255	0 0 255	0 0 255	0 0 255	0 0 255	0 0 255	0 0 255	0 0 255	0 0 255	0 0 255	0 0 255	0 0 255	0 0 255	0 0 255	0 0 255	0 0 255	0 0 255	0 0 255	0 0 255	0 0 255	0 0 255	0 0 255	0 0 255	0 0 255	0 0 255	0 0 255	0 0 255	0 0 255	0 0 255	0 0 255	0 0 255	0 0 255	0 0 255	0 0 255	0 0 255	0 0 255	0 0 255	0 0 255	0 0 255	0 0 255	0 0 255	0 0 255	0 0 255	0 0 255	0 0 255	0 0 255	0 0 255	0 0 255	0 0 255	0 0 255	0 0 255	0 0 255	0 0 255	0 0 255	0 0 255	0 0 255	0 0 255	0 0 255	0 0 255	0 0 255	0 0 255	0 0 255	0 0 255	0 0 255	0 0 255	0 0 255	0 0 255	0 0 255	0 0 255	0 0 255	0 0 255	0 0 255	0 0 255	
0 0 255	0 0 255	0 0 255	0 0 255	0 0 255	0 0 255	0 0 255	0 0 255	0 0 255	0 0 255	0 0 255	0 0 255	0 0 255	0 0 255	0 0 255	0 0 255	0 0 255	0 0 255	0 0 255	0 0 255	0 0 255	0 0 255	0 0 255	0 0 255	0 0 255	0 0 255	0 0 255	0 0 255	0 0 255	0 0 255	0 0 255	0 0 255	0 0 255	0 0 255	0 0 255	0 0 255	0 0 255	0 0 255	0 0 255	0 0 255	0 0 255	0 0 255	0 0 255	0 0 255	0 0 255	0 0 255	0 0 255	0 0 255	0 0 255	0 0 255	0 0 255	0 0 255	0 0 255	0 0 255	0 0 255	0 0 255	0 0 255	0 0 255	0 0 255	0 0 255	0 0 255	0 0 255	0 0 255	0 0 255	0 0 255	0 0 255	0 0 255	0 0 255	0 0 255	0 0 255	0 0 255	0 0 255	0 0 255	0 0 255	0 0 255	0 0 255	0 0 255	0 0 255	0 0 255	0 0 255	0 0 255	0 0 255	0 0 255	0 0 255	0 0 255	0 0 255	0 0 255	0 0 255	0 0 255	0 0 255	0 0 255	0 0 255	0 0 255	0 0 255	0 0 255	0 0 255	0 0 255	0 0 255	0 0 255	0 0 255	0 0 255	0 0 255	0 0 255	0 0 255	0 0 255	0 0 255	0 0 255	0 0 255	0 0 255	0 0 255	0 0 255	0 0 255	0 0 255	0 0 255	0 0 255	0 0 255	0 0 255	0 0 255	0 0 255	0 0 255	0 0 255	0 0 255	0 0 255	0 0 255	0 0 255	0 0 255	0 0 255	0 0 255	0 0 255	0 0 255	0 0 255	0 0 255	0 0 255	0 0 255	0 0 255	0 0 255	0 0 255	0 0 255	0 0 255	0 0 255	0 0 255	0 0 255	0 0 255	0 0 255	0 0 255	0 0 255	0 0 255	0 0 255	0 0 255	0 0 255	0 0 255	0 0 255	0 0 255	0 0 255	0 0 255	0 0 255	0 0 255	0 0 255	0 0 255	0 0 255	0 0 255	0 0 255	0 0 255	0 0 255	0 0 255	0 0 255	0 0 255	0 0 255	0 0 255	0 0 255	0 0 255	0 0 255	0 0 255	0 0 255	0 0 255	0 0 255	0 0 255	0 0 255	0 0 255	0 0 255	0 0 255	0 0 255	0 0 255	0 0 255	0 0 255	0 0 255	0 0 255	0 0 255	0 0 255	0 0 255	0 0 255	0 0 255	0 0 255	0 0 255	0 0 255	0 0 255	0 0 255	0 0 255	0 0 255	0 0 255	0 0 255	0 0 255	0 0 255	0 0 255	0 0 255	0 0 255	0 0 255	0 0 255	0 0 255	0 0 255	0 0 255	0 0 255	0 0 255	0 0 255	0 0 255	0 0 255	0 0 255	0 0 255	0 0 255	0 0 255	0 0 255	0 0 255	0 0 255	0 0 255	0 0 255	0 0 255	0 0 255	0 0 255	0 0 255	0 0 255	0 0 255	0 0 255	0 0 255	0 0 255	0 0 255	0 0 255	0 0 255	0 0 255	0 0 255	0 0 255	0 0 255	0 0 255	0 0 255	0 0 255	0 0 255	0 0 255	0 0 255	0 0 255	0 0 255	0 0 255	0 0 255	0 0 255	0 0 255	0 0 255	0 0 255	0 0 255	
0 0 255	0 0 255	0 0 255	0 0 255	0 0 255	0 0 255	0 0 255	0 0 255	0 0 255	0 0 255	0 0 255	0 0 255	0 0 255	0 0 255	0 0 255	0 0 255	0 0 255	0 0 255	0 0 255	0 0 255	0 0 255	0 0 255	0 0 255	0 0 255	0 0 255	0 0 255	0 0 255	0 0 255	0 0 255	0 0 255	0 0 255	0 0 255	0 0 255	0 0 255	0 0 255	0 0 255	0 0 255	0 0 255	0 0 255	0 0 255	0 0 255	0 0 255	0 0 255	0 0 255	0 0 255	0 0 255	0 0 255	0 0 255	0 0 255	0 0 255	0 0 255	0 0 255	0 0 255	0 0 255	0 0 255	0 0 255	0 0 255	0 0 255	0 0 255	0 0 255	0 0 255	0 0 255	0 0 255	0 0 255	0 0 255	0 0 255	0 0 255	0 0 255	0 0 255	0 0 255	0 0 255	0 0 255	0 0 255	0 0 255	0 0 255	0 0 255	0 0 255	0 0 255	0 0 255	0 0 255	0 0 255	0 0 255	0 0 255	0 0 255	0 0 255	0 0 255	0 0 255	0 0 255	0 0 255	0 0 255	0 0 255	0 0 255	0 0 255	0 0 255	0 0 255	0 0 255	0 0 255	0 0 255	0 0 255	0 0 255	0 0 255	0 0 255	0 0 255	0 0 255	0 0 255	0 0 255	0 0 255	0 0 255	0 0 255	0 0 255	0 0 255	0 0 255	0 0 255	0 0 255	0 0 255	0 0 255	0 0 255	0 0 255	0 0 255	0 0 255	0 0 255	0 0 255	0 0 255	0 0 255	0 0 255	0 0 255	0 0 255	0 0 255	0 0 255	0 0 255	0 0 255	0 0 255	0 0 255	0 0 255	0 0 255	0 0 255	0 0 255	0 0 255	0 0 255	0 0 255	0 0 255	0 0 255	0 0 255	0 0 255	0 0 255	0 0 255	0 0 255	0 0 255	0 0 255	0 0 255	0 0 255	0 0 255	0 0 255	0 0 255	0 0 255	0 0 255	0 0 255	0 0 255	0 0 255	0 0 255	0 0 255	0 0 255	0 0 255	0 0 255	0 0 255	0 0 255	0 0 255	0 0 255	0 0 255	0 0 255	0 0 255	0 0 255	0 0 255	0 0 255	0 0 255	0 0 255	0 0 255	0 0 255	0 0 255	0 0 255	0 0 255	0 0 255	0 0 255	0 0 255	0 0 255	0 0 255	0 0 255	0 0 255	0 0 255	0 0 255	0 0 255	0 0 255	0 0 255	0 0 255	0 0 255	0 0 255	0 0 255	0 0 255	0 0 255	0 0 255	0 0 255	0 0 255	0 0 255	0 0 255	0 0 255	0 0 255	0 0 255	0 0 255	0 0 255	0 0 255	0 0 255	0 0 255	0 0 255	0 0 255	0 0 255	0 0 255	0 0 255	0 0 255	0 0 255	0 0 255	0 0 255	0 0 255	0 0 255	0 0 255	0 0 255	0 0 255	0 0 255	0 0 255	0 0 255	0 0 255	0 0 255	0 0 255	0 0 255	0 0 255	0 0 255	0 0 255	0 0 255	0 0 255	0 0 255	0 0 255	0 0 255	0 0 255	0 0 255	0 0 255	0 0 255	0 0 255	0 0 255	0 0 255	0 0 255	0 0 255	0 0 255	0 0 255	0 0 255	0 0 255	0 0 255	0 0 255	
0 0 255	0 0 255	0 0 255	0 0 255	0 0 255	0 0 255	0 0 255	0 0 255	0 0 255	0 0 255	0 0 255	0 0 255	0 0 255	0 0 255	0 0 255	0 0 255	0 0 255	0 0 255	0 0 255	0 0 255	0 0 255	0 0 255	0 0 255	0 0 255	0 0 255	0 0 255	0 0 255	0 0 255	0 0 255	0 0 255	0 0 255	0 0 255	0 0 255	0 0 255	0 0 255	0 0 255	0 0 255	0 0 255	0 0 255	0 0 255	0 0 255	0 0 255	0 0 255	0 0 255	0 0 255	0 0 255	0 0 255	0 0 255	0 0 255	0 0 255	0 0 255	0 0 255	0 0 255	0 0 255	0 0 255	0 0 255	0 0 255	0 0 255	0 0 255	0 0 255	0 0 255	0 0 255	0 0 255	0 0 255	0 0 255	0 0 255	0 0 255	0 0 255	0 0 255	0 0 255	0 0 255	0 0 255	0 0 255	0 0 255	0 0 255	0 0 255	0 0 255	0 0 255	0 0 255	0 0 255	0 0 255	0 0 255	0 0 255	0 0 255	0 0 255	0 0 255	0 0 255	0 0 255	0 0 255	0 0 255	0 0 255	0 0 255	0 0 255	0 0 255	0 0 255	0 0 255	0 0 255	0 0 255	0 0 255	0 0 255	0 0 255	0 0 255	0 0 255	0 0 255	0 0 255	0 0 255	0 0 255	0 0 255	0 0 255	0 0 255	0 0 255	0 0 255	0 0 255	0 0 255	0 0 255	0 0 255	0 0 255	0 0 255	0 0 255	0 0 255	0 0 255	0 0 255	0 0 255	0 0 255	0 0 255	0 0 255	0 0 255	0 0 255	0 0 255	0 0 255	0 0 255	0 0 255	0 0 255	0 0 255	0 0 255	0 0 255	0 0 255	0 0 255	0 0 255	0 0 255	0 0 255	0 0 255	0 0 255	0 0 255	0 0 255	0 0 255	0 0 255	0 0 255	0 0 255	0 0 255	0 0 255	0 0 255	0 0 255	0 0 255	0 0 255	0 0 255	0 0 255	0 0 255	0 0 255	0 0 255	0 0 255	0 0 255	0 0 255	0 0 255	0 0 255	0 0 255	0 0 255	0 0 255	0 0 255	0 0 255	0 0 255	0 0 255	0 0 255	0 0 255	0 0 255	0 0 255	0 0 255	0 0 255	0 0 255	0 0 255	0 0 255	0 0 255	0 0 255	0 0 255	0 0 255	0 0 255	0 0 255	0 0 255	0 0 255	0 0 255	0 0 255	0 0 255	0 0 255	0 0 255	0 0 255	0 0 255	0 0 255	0 0 255	0 0 255	0 0 255	0 0 255	0 0 255	0 0 255	0 0 255	0 0 255	0 0 255	0 0 255	0 0 255	0 0 255	0 0 255	0 0 255	0 0 255	0 0 255	0 0 255	0 0 255	0 0 255	0 0 255	0 0 255	0 0 255	0 0 255	0 0 255	0 0 255	0 0 255	0 0 255	0 0 255	0 0 255	0 0 255	0 0 255	0 0 255	0 0 255	0 0 255	0 0 255	0 0 255	0 0 255	0 0 255	0 0 255	0 0 255	0 0 255	0 0 255	0 0 255	0 0 255	0 0 255	0 0 255	0 0 255	0 0 255	0 0 255	0 0 255	0 0 255	0 0 255	0 0 255	0 0 255	0 0 255	0 0 255	0 0 255	0 0 255	0 0 255	
0 0 255	0 0 255	0 0 255	0 0 255	0 0 255	0 0 255	0 0 255	0 0 255	0 0 255	0 0 255	0 0 255	0 0 255	0 0 255	0 0 255	0 0 255	0 0 255	0 0 255	0 0 255	0 0 255	0 0 255	0 0 255	0 0 255	0 0 255	0 0 255	0 0 255	0 0 255	0 0 255	0 0 255	0 0 255	0 0 255	0 0 255	0 0 255	0 0 255	0 0 255	0 0 255	0 0 255	0 0 255	0 0 255	0 0 255	0 0 255	0 0 255	0 0 255	0 0 255	0 0 255	0 0 255	0 0 255	0 0 255	0 0 255	0 0 255	0 0 255	0 0 255	0 0 255	0 0 255	0 0 255	0 0 255	0 0 255	0 0 255	0 0 255	0 0 255	0 0 255	0 0 255	0 0 255	0 0 255	0 0 255	0 0 255	0 0 255	0 0 255	0 0 255	0 0 255	0 0 255	0 0 255	0 0 255	0 0 255	0 0 255	0 0 255	0 0 255	0 0 255	0 0 255	0 0 255	0 0 255	0 0 255	0 0 255	0 0 255	0 0 255	0 0 255	0 0 255	0 0 255	0 0 255	0 0 255	0 0 255	0 0 255	0 0 255	0 0 255	0 0 255	0 0 255	0 0 255	0 0 255	0 0 255	0 0 255	0 0 255	0 0 255	0 0 255	0 0 255	0 0 255	0 0 255	0 0 255	0 0 255	0 0 255	0 0 255	0 0 255	0 0 255	0 0 255	0 0 255	0 0 255	0 0 255	0 0 255	0 0 255	0 0 255	0 0 255	0 0 255	0 0 255	0 0 255	0 0 255	0 0 255	0 0 255	0 0 255	0 0 255	0 0 255	0 0 255	0 0 255	0 0 255	0 0 255	0 0 255	0 0 255	0 0 255	0 0 255	0 0 255	0 0 255	0 0 255	0 0 255	0 0 255	0 0 255	0 0 255	0 0 255	0 0 255	0 0 255	0 0 255	0 0 255	0 0 255	0 0 255	0 0 255	0 0 255	0 0 255	0 0 255	0 0 255	0 0 255	0 0 255	0 0 255	0 0 255	0 0 255	0 0 255	0 0 255	0 0 255	0 0 255	0 0 255	0 0 255	0 0 255	0 0 255	0 0 255	0 0 255	0 0 255	0 0 255	0 0 255	0 0 255	0 0 255	0 0 255	0 0 255	0 0 255	0 0 255	0 0 255	0 0 255	0 0 255	0 0 255	0 0 255	0 0 255	0 0 255	0 0 255	0 0 255	0 0 255	0 0 255	0 0 255	0 0 255	0 0 255	0 0 255	0 0 255	0 0 255	0 0 255	0 0 255	0 0 255	0 0 255	0 0 255	0 0 255	0 0 255	0 0 255	0 0 255	0 0 255	0 0 255	0 0 255	0 0 255	0 0 255	0 0 255	0 0 255	0 0 255	0 0 255	0 0 255	0 0 255	0 0 255	0 0 255	0 0 255	0 0 255	0 0 255	0 0 255	0 0 255	0 0 255	0 0 255	0 0 255	0 0 255	0 0 255	0 0 255	0 0 255	0 0 255	0 0 255	0 0 255	0 0 255	0 0 255	0 0 255	0 0 255	0 0 255	0 0 255	0 0 255	0 0 255	0 0 255	0 0 255	0 0 255	0 0 255	0 0 255	0 0 255	0 0 255	0 0 255	0 0 255	0 0 255	0 0 255	0 0 255	0 0 255	0 0 255	0 0 255	
0 0 255	0 0 255	0 0 255	0 0 255	0 0 255	0 0 255	0 0 255	0 0 255	0 0 255	0 0 255	0 0 255	0 0 255	0 0 255	0 0 255	0 0 255	0 0 255	0 0 255	0 0 255	0 0 255	0 0 255	0 0 255	0 0 255	0 0 255	0 0 255	0 0 255	0 0 255	0 0 255	0 0 255	0 0 255	0 0 255	0 0 255	0 0 255	0 0 255	0 0 255	0 0 255	0 0 255	0 0 255	0 0 255	0 0 255	0 0 255	0 0 255	0 0 255	0 0 255	0 0 255	0 0 255	0 0 255	0 0 255	0 0 255	0 0 255	0 0 255	0 0 255	0 0 255	0 0 255	0 0 255	0 0 255	0 0 255	0 0 255	0 0 255	0 0 255	0 0 255	0 0 255	0 0 255	0 0 255	0 0 255	0 0 255	0 0 255	0 0 255	0 0 255	0 0 255	0 0 255	0 0 255	0 0 255	0 0 255	0 0 255	0 0 255	0 0 255	0 0 255	0 0 255	0 0 255	0 0 255	0 0 255	0 0 255	0 0 255	0 0 255	0 0 255	0 0 255	0 0 255	0 0 255	0 0 255	0 0 255	0 0 255	0 0 255	0 0 255	0 0 255	0 0 255	0 0 255	0 0 255	0 0 255	0 0 255	0 0 255	0 0 255	0 0 255	0 0 255	0 0 255	0 0 255	0 0 255	0 0 255	0 0 255	0 0 255	0 0 255	0 0 255	0 0 255	0 0 255	0 0 255	0 0 255	0 0 255	0 0 255	0 0 255	0 0 255	0 0 255	0 0 255	0 0 255	0 0 255	0 0 255	0 0 255	0 0 255	0 0 255	0 0 255	0 0 255	0 0 255	0 0 255	0 0 255	0 0 255	0 0 255	0 0 255	0 0 255	0 0 255	0 0 255	0 0 255	0 0 255	0 0 255	0 0 255	0 0 255	0 0 255	0 0 255	0 0 255	0 0 255	0 0 255	0 0 255	0 0 255	0 0 255	0 0 255	0 0 255	0 0 255	0 0 255	0 0 255	0 0 255	0 0 255	0 0 255	0 0 255	0 0 255	0 0 255	0 0 255	0 0 255	0 0 255	0 0 255	0 0 255	0 0 255	0 0 255	0 0 255	0 0 255	0 0 255	0 0 255	0 0 255	0 0 255	0 0 255	0 0 255	0 0 255	0 0 255	0 0 255	0 0 255	0 0 255	0 0 255	0 0 255	0 0 255	0 0 255	0 0 255	0 0 255	0 0 255	0 0 255	0 0 255	0 0 255	0 0 255	0 0 255	0 0 255	0 0 255	0 0 255	0 0 255	0 0 255	0 0 255	0 0 255	0 0 255	0 0 255	0 0 255	0 0 255	0 0 255	0 0 255	0 0 255	0 0 255	0 0 255	0 0 255	0 0 255	0 0 255	0 0 255	0 0 255	0 0 255	0 0 255	0 0 255	0 0 255	0 0 255	0 0 255	0 0 255	0 0 255	0 0 255	0 0 255	0 0 255	0 0 255	0 0 255	0 0 255	0 0 255	0 0 255	0 0 255	0 0 255	0 0 255	0 0 255	0 0 255	0 0 255	0 0 255	0 0 255	0 0 255	0 0 255	0 0 255	0 0 255	0 0 255	0 0 255	0 0 255	0 0 255	0 0 255	0 0 255	0 0 255	0 0 255	0 0 255	0 0 255	0 0 255	0 0 255	0 0 255	
0 0 255	0 0 255	0 0 255	0 0 255	0 0 255	0 0 255	0 0 255	0 0 255	0 0 255	0 0 255	0 0 255	0 0 255	0 0 255	0 0 255	0 0 255	0 0 255	0 0 255	0 0 255	0 0 255	0 0 255	0 0 255	0 0 255	0 0 255	0 0 255	0 0 255	0 0 255	0 0 255	0 0 255	0 0 255	0 0 255	0 0 255	0 0 255	0 0 255	0 0 255	0 0 255	0 0 255	0 0 255	0 0 255	0 0 255	0 0 255	0 0 255	0 0 255	0 0 255	0 0 255	0 0 255	0 0 255	0 0 255	0 0 255	0 0 255	0 0 255	0 0 255	0 0 255	0 0 255	0 0 255	0 0 255	0 0 255	0 0 255	0 0 255	0 0 255	0 0 255	0 0 255	0 0 255	0 0 255	0 0 255	0 0 255	0 0 255	0 0 255	0 0 255	0 0 255	0 0 255	0 0 255	0 0 255	0 0 255	0 0 255	0 0 255	0 0 255	0 0 255	0 0 255	0 0 255	0 0 255	0 0 255	0 0 255	0 0 255	0 0 255	0 0 255	0 0 255	0 0 255	0 0 255	0 0 255	0 0 255	0 0 255	0 0 255	0 0 255	0 0 255	0 0 255	0 0 255	0 0 255	0 0 255	0 0 255	0 0 255	0 0 255	0 0 255	0 0 255	0 0 255	0 0 255	0 0 255	0 0 255	0 0 255	0 0 255	0 0 255	0 0 255	0 0 255	0 0 255	0 0 255	0 0 255	0 0 255	0 0 255	0 0 255	0 0 255	0 0 255	0 0 255	0 0 255	0 0 255	0 0 255	0 0 255	0 0 255	0 0 255	0 0 255	0 0 255	0 0 255	0 0 255	0 0 255	0 0 255	0 0 255	0 0 255	0 0 255	0 0 255	0 0 255	0 0 255	0 0 255	0 0 255	0 0 255	0 0 255	0 0 255	0 0 255	0 0 255	0 0 255	0 0 255	0 0 255	0 0 255	0 0 255	0 0 255	0 0 255	0 0 255	0 0 255	0 0 255	0 0 255	0 0 255	0 0 255	0 0 255	0 0 255	0 0 255	0 0 255	0 0 255	0 0 255	0 0 255	0 0 255	0 0 255	0 0 255	0 0 255	0 0 255	0 0 255	0 0 255	0 0 255	0 0 255	0 0 255	0 0 255	0 0 255	0 0 255	0 0 255	0 0 255	0 0 255	0 0 255	0 0 255	0 0 255	0 0 255	0 0 255	0 0 255	0 0 255	0 0 255	0 0 255	0 0 255	0 0 255	0 0 255	0 0 255	0 0 255	0 0 255	0 0 255	0 0 255	0 0 255	0 0 255	0 0 255	0 0 255	0 0 255	0 0 255	0 0 255	0 0 255	0 0 255	0 0 255	0 0 255	0 0 255	0 0 255	0 0 255	0 0 255	0 0 255	0 0 255	0 0 255	0 0 255	0 0 255	0 0 255	0 0 255	0 0 255	0 0 255	0 0 255	0 0 255	0 0 255	0 0 255	0 0 255	0 0 255	0 0 255	0 0 255	0 0 255	0 0 255	0 0 255	0 0 255	0 0 255	0 0 255	0 0 255	0 0 255	0 0 255	0 0 255	0 0 255	0 0 255	0 0 255	0 0 255	0 0 255	0 0 255	0 0 255	0 0 255	0 0 255	0 0 255	0 0 255	0 0 255	0 0 255	0 0 255	0 0 255	
0 0 255	0 0 255	0 0 255	0 0 255	0 0 255	0 0 255	0 0 255	0 0 255	0 0 255	0 0 255	0 0 255	0 0 255	0 0 255	0 0 255	0 0 255	0 0 255	0 0 255	0 0 255	0 0 255	0 0 255	0 0 255	0 0 255	0 0 255	0 0 255	0 0 255	0 0 255	0 0 255	0 0 255	0 0 255	0 0 255	0 0 255	0 0 255	0 0 255	0 0 255	0 0 255	0 0 255	0 0 255	0 0 255	0 0 255	0 0 255	0 0 255	0 0 255	0 0 255	0 0 255	0 0 255	0 0 255	0 0 255	0 0 255	0 0 255	0 0 255	0 0 255	0 0 255	0 0 255	0 0 255	0 0 255	0 0 255	0 0 255	0 0 255	0 0 255	0 0 255	0 0 255	0 0 255	0 0 255	0 0 255	0 0 255	0 0 255	0 0 255	0 0 255	0 0 255	0 0 255	0 0 255	0 0 255	0 0 255	0 0 255	0 0 255	0 0 255	0 0 255	0 0 255	0 0 255	0 0 255	0 0 255	0 0 255	0 0 255	0 0 255	0 0 255	0 0 255	0 0 255	0 0 255	0 0 255	0 0 255	0 0 255	0 0 255	0 0 255	0 0 255	0 0 255	0 0 255	0 0 255	0 0 255	0 0 255	0 0 255	0 0 255	0 0 255	0 0 255	0 0 255	0 0 255	0 0 255	0 0 255	0 0 255	0 0 255	0 0 255	0 0 255	0 0 255	0 0 255	0 0 255	0 0 255	0 0 255	0 0 255	0 0 255	0 0 255	0 0 255	0 0 255	0 0 255	0 0 255	0 0 255	0 0 255	0 0 255	0 0 255	0 0 255	0 0 255	0 0 255	0 0 255	0 0 255	0 0 255	0 0 255	0 0 255	0 0 255	0 0 255	0 0 255	0 0 255	0 0 255	0 0 255	0 0 255	0 0 255	0 0 255	0 0 255	0 0 255	0 0 255	0 0 255	0 0 255	0 0 255	0 0 255	0 0 255	0 0 255	0 0 255	0 0 255	0 0 255	0 0 255	0 0 255	0 0 255	0 0 255	0 0 255	0 0 255	0 0 255	0 0 255	0 0 255	0 0 255	0 0 255	0 0 255	0 0 255	0 0 255	0 0 255	0 0 255	0 0 255	0 0 255	0 0 255	0 0 255	0 0 255	0 0 255	0 0 255	0 0 255	0 0 255	0 0 255	0 0 255	0 0 255	0 0 255	0 0 255	0 0 255	0 0 255	0 0 255	0 0 255	0 0 255	0 0 255	0 0 255	0 0 255	0 0 255	0 0 255	0 0 255	0 0 255	0 0 255	0 0 255	0 0 255	0 0 255	0 0 255	0 0 255	0 0 255	0 0 255	0 0 255	0 0 255	0 0 255	0 0 255	0 0 255	0 0 255	0 0 255	0 0 255	0 0 255	0 0 255	0 0 255	0 0 255	0 0 255	0 0 255	0 0 255	0 0 255	0 0 255	0 0 255	0 0 255	0 0 255	0 0 255	0 0 255	0 0 255	0 0 255	0 0 255	0 0 255	0 0 255	0 0 255	0 0 255	0 0 255	0 0 255	0 0 255	0 0 255	0 0 255	0 0 255	0 0 255	0 0 255	0 0 255	0 0 255	0 0 255	0 0 255	0 0 255	0 0 255	0 0 255	0 0 255	0 0 255	0 0 255	0 0 255	0 0 255	0 0 255	
0 0 255	0 0 255	0 0 255	0 0 255	0 0 255	0 0 255	0 0 255	0 0 255	0 0 255	0 0 255	0 0 255	0 0 255	0 0 255	0 0 255	0 0 255	0 0 255	0 0 255	0 0 255	0 0 255	0 0 255	0 0 255	0 0 255	0 0 255	0 0 255	0 0 255	0 0 255	0 0 255	0 0 255	0 0 255	0 0 255	0 0 255	0 0 255	0 0 255	0 0 255	0 0 255	0 0 255	0 0 255	0 0 255	0 0 255	0 0 255	0 0 255	0 0 255	0 0 255	0 0 255	0 0 255	0 0 255	0 0 255	0 0 255	0 0 255	0 0 255	0 0 255	0 0 255	0 0 255	0 0 255	0 0 255	0 0 255	0 0 255	0 0 255	0 0 255	0 0 255	0 0 255	0 0 255	0 0 255	0 0 255	0 0 255	0 0 255	0 0 255	0 0 255	0 0 255	0 0 255	0 0 255	0 0 255	0 0 255	0 0 255	0 0 255	0 0 255	0 0 255	0 0 255	0 0 255	0 0 255	0 0 255	0 0 255	0 0 255	0 0 255	0 0 255	0 0 255	0 0 255	0 0 255	0 0 255	0 0 255	0 0 255	0 0 255	0 0 255	0 0 255	0 0 255	0 0 255	0 0 255	0 0 255	0 0 255	0 0 255	0 0 255	0 0 255	0 0 255	0 0 255	0 0 255	0 0 255	0 0 255	0 0 255	0 0 255	0 0 255	0 0 255	0 0 255	0 0 255	0 0 255	0 0 255	0 0 255	0 0 255	0 0 255	0 0 255	0 0 255	0 0 255	0 0 255	0 0 255	0 0 255	0 0 255	0 0 255	0 0 255	0 0 255	0 0 255	0 0 255	0 0 255	0 0 255	0 0 255	0 0 255	0 0 255	0 0 255	0 0 255	0 0 255	0 0 255	0 0 255	0 0 255	0 0 255	0 0 255	0 0 255	0 0 255	0 0 255	0 0 255	0 0 255	0 0 255	0 0 255	0 0 255	0 0 255	0 0 255	0 0 255	0 0 255	0 0 255	0 0 255	0 0 255	0 0 255	0 0 255	0 0 255	0 0 255	0 0 255	0 0 255	0 0 255	0 0 255	0 0 255	0 0 255	0 0 255	0 0 255	0 0 255	0 0 255	0 0 255	0 0 255	0 0 255	0 0 255	0 0 255	0 0 255	0 0 255	0 0 255	0 0 255	0 0 255	0 0 255	0 0 255	0 0 255	0 0 255	0 0 255	0 0 255	0 0 255	0 0 255	0 0 255	0 0 255	0 0 255	0 0 255	0 0 255	0 0 255	0 0 255	0 0 255	0 0 255	0 0 255	0 0 255	0 0 255	0 0 255	0 0 255	0 0 255	0 0 255	0 0 255	0 0 255	0 0 255	0 0 255	0 0 255	0 0 255	0 0 255	0 0 255	0 0 255	0 0 255	0 0 255	0 0 255	0 0 255	0 0 255	0 0 255	0 0 255	0 0 255	0 0 255	0 0 255	0 0 255	0 0 255	0 0 255	0 0 255	0 0 255	0 0 255	0 0 255	0 0 255	0 0 255	0 0 255	0 0 255	0 0 255	0 0 255	0 0 255	0 0 255	0 0 255	0 0 255	0 0 255	0 0 255	0 0 255	0 0 255	0 0 255	0 0 255	0 0 255	0 0 255	0 0 255	0 0 255	0 0 255	0 0 255	0 0 255	0 0 255	
0 0 255	0 0 255	0 0 255	0 0 255	0 0 255	0 0 255	0 0 255	0 0 255	0 0 255	0 0 255	0 0 255	0 0 255	0 0 255	0 0 255	0 0 255	0 0 255	0 0 255	0 0 255	0 0 255	0 0 255	0 0 255	0 0 255	0 0 255	0 0 255	0 0 255	0 0 255	0 0 255	0 0 255	0 0 255	0 0 255	0 0 255	0 0 255	0 0 255	0 0 255	0 0 255	0 0 255	0 0 255	0 0 255	0 0 255	0 0 255	0 0 255	0 0 255	0 0 255	0 0 255	0 0 255	0 0 255	0 0 255	0 0 255	0 0 255	0 0 255	0 0 255	0 0 255	0 0 255	0 0 255	0 0 255	0 0 255	0 0 255	0 0 255	0 0 255	0 0 255	0 0 255	0 0 255	0 0 255	0 0 255	0 0 255	0 0 255	0 0 255	0 0 255	0 0 255	0 0 255	0 0 255	0 0 255	0 0 255	0 0 255	0 0 255	0 0 255	0 0 255	0 0 255	0 0 255	0 0 255	0 0 255	0 0 255	0 0 255	0 0 255	0 0 255	0 0 255	0 0 255	0 0 255	0 0 255	0 0 255	0 0 255	0 0 255	0 0 255	0 0 255	0 0 255	0 0 255	0 0 255	0 0 255	0 0 255	0 0 255	0 0 255	0 0 255	0 0 255	0 0 255	0 0 255	0 0 255	0 0 255	0 0 255	0 0 255	0 0 255	0 0 255	0 0 255	0 0 255	0 0 255	0 0 255	0 0 255	0 0 255	0 0 255	0 0 255	0 0 255	0 0 255	0 0 255	0 0 255	0 0 255	0 0 255	0 0 255	0 0 255	0 0 255	0 0 255	0 0 255	0 0 255	0 0 255	0 0 255	0 0 255	0 0 255	0 0 255	0 0 255	0 0 255	0 0 255	0 0 255	0 0 255	0 0 255	0 0 255	0 0 255	0 0 255	0 0 255	0 0 255	0 0 255	0 0 255	0 0 255	0 0 255	0 0 255	0 0 255	0 0 255	0 0 255	0 0 255	0 0 255	0 0 255	0 0 255	0 0 255	0 0 255	0 0 255	0 0 255	0 0 255	0 0 255	0 0 255	0 0 255	0 0 255	0 0 255	0 0 255	0 0 255	0 0 255	0 0 255	0 0 255	0 0 255	0 0 255	0 0 255	0 0 255	0 0 255	0 0 255	0 0 255	0 0 255	0 0 255	0 0 255	0 0 255	0 0 255	0 0 255	0 0 255	0 0 255	0 0 255	0 0 255	0 0 255	0 0 255	0 0 255	0 0 255	0 0 255	0 0 255	0 0 255	0 0 255	0 0 255	0 0 255	0 0 255	0 0 255	0 0 255	0 0 255	0 0 255	0 0 255	0 0 255	0 0 255	0 0 255	0 0 255	0 0 255	0 0 255	0 0 255	0 0 255	0 0 255	0 0 255	0 0 255	0 0 255	0 0 255	0 0 255	0 0 255	0 0 255	0 0 255	0 0 255	0 0 255	0 0 255	0 0 255	0 0 255	0 0 255	0 0 255	0 0 255	0 0 255	0 0 255	0 0 255	0 0 255	0 0 255	0 0 255	0 0 255	0 0 255	0 0 255	0 0 255	0 0 255	0 0 255	0 0 255	0 0 255	0 0 255	0 0 255	0 0 255	0 0 255	0 0 255	0 0 255	0 0 255	0 0 255	0 0 255	0 0 255	
0 0 255	0 0 255	0 0 255	0 0 255	0 0 255	0 0 255	0 0 255	0 0 255	0 0 255	0 0 255	0 0 255	0 0 255	0 0 255	0 0 255	0 0 255	0 0 255	0 0 255	0 0 255	0 0 255	0 0 255	0 0 255	0 0 255	0 0 255	0 0 255	0 0 255	0 0 255	0 0 255	0 0 255	0 0 255	0 0 255	0 0 255	0 0 255	0 0 255	0 0 255	0 0 255	0 0 255	0 0 255	0 0 255	0 0 255	0 0 255	0 0 255	0 0 255	0 0 255	0 0 255	0 0 255	0 0 255	0 0 255	0 0 255	0 0 255	0 0 255	0 0 255	0 0 255	0 0 255	0 0 255	0 0 255	0 0 255	0 0 255	0 0 255	0 0 255	0 0 255	0 0 255	0 0 255	0 0 255	0 0 255	0 0 255	0 0 255	0 0 255	0 0 255	0 0 255	0 0 255	0 0 255	0 0 255	0 0 255	0 0 255	0 0 255	0 0 255	0 0 255	0 0 255	0 0 255	0 0 255	0 0 255	0 0 255	0 0 255	0 0 255	0 0 255	0 0 255	0 0 255	0 0 255	0 0 255	0 0 255	0 0 255	0 0 255	0 0 255	0 0 255	0 0 255	0 0 255	0 0 255	0 0 255	0 0 255	0 0 255	0 0 255	0 0 255	0 0 255	0 0 255	0 0 255	0 0 255	0 0 255	0 0 255	0 0 255	0 0 255	0 0 255	0 0 255	0 0 255	0 0 255	0 0 255	0 0 255	0 0 255	0 0 255	0 0 255	0 0 255	0 0 255	0 0 255	0 0 255	0 0 255	0 0 255	0 0 255	0 0 255	0 0 255	0 0 255	0 0 255	0 0 255	0 0 255	0 0 255	0 0 255	0 0 255	0 0 255	0 0 255	0 0 255	0 0 255	0 0 255	0 0 255	0 0 255	0 0 255	0 0 255	0 0 255	0 0 255	0 0 255	0 0 255	0 0 255	0 0 255	0 0 255	0 0 255	0 0 255	0 0 255	0 0 255	0 0 255	0 0 255	0 0 255	0 0 255	0 0 255	0 0 255	0 0 255	0 0 255	0 0 255	0 0 255	0 0 255	0 0 255	0 0 255	0 0 255	0 0 255	0 0 255	0 0 255	0 0 255	0 0 255	0 0 255	0 0 255	0 0 255	0 0 255	0 0 255	0 0 255	0 0 255	0 0 255	0 0 255	0 0 255	0 0 255	0 0 255	0 0 255	0 0 255	0 0 255	0 0 255	0 0 255	0 0 255	0 0 255	0 0 255	0 0 255	0 0 255	0 0 255	0 0 255	0 0 255	0 0 255	0 0 255	0 0 255	0 0 255	0 0 255	0 0 255	0 0 255	0 0 255	0 0 255	0 0 255	0 0 255	0 0 255	0 0 255	0 0 255	0 0 255	0 0 255	0 0 255	0 0 255	0 0 255	0 0 255	0 0 255	0 0 255	0 0 255	0 0 255	0 0 255	0 0 255	0 0 255	0 0 255	0 0 255	0 0 255	0 0 255	0 0 255	0 0 255	0 0 255	0 0 255	0 0 255	0 0 255	0 0 255	0 0 255	0 0 255	0 0 255	0 0 255	0 0 255	0 0 255	0 0 255	0 0 255	0 0 255	0 0 255	0 0 255	0 0 255	0 0 255	0 0 255	0 0 255	0 0 255	0 0 255	0 0 255	0 0 255	
0 0 255	0 0 255	0 0 255	0 0 255	0 0 255	0 0 255	0 0 255	0 0 255	0 0 255	0 0 255	0 0 255	0 0 255	0 0 255	0 0 255	0 0 255	0 0 255	0 0 255	0 0 255	0 0 255	0 0 255	0 0 255	0 0 255	0 0 255	0 0 255	0 0 255	0 0 255	0 0 255	0 0 255	0 0 255	0 0 255	0 0 255	0 0 255	0 0 255	0 0 255	0 0 255	0 0 255	0 0 255	0 0 255	0 0 255	0 0 255	0 0 255	0 0 255	0 0 255	0 0 255	0 0 255	0 0 255	0 0 255	0 0 255	0 0 255	0 0 255	0 0 255	0 0 255	0 0 255	0 0 255	0 0 255	0 0 255	0 0 255	0 0 255	0 0 255	0 0 255	0 0 255	0 0 255	0 0 255	0 0 255	0 0 255	0 0 255	0 0 255	0 0 255	0 0 255	0 0 255	0 0 255	0 0 255	0 0 255	0 0 255	0 0 255	0 0 255	0 0 255	0 0 255	0 0 255	0 0 255	0 0 255	0 0 255	0 0 255	0 0 255	0 0 255	0 0 255	0 0 255	0 0 255	0 0 255	0 0 255	0 0 255	0 0 255	0 0 255	0 0 255	0 0 255	0 0 255	0 0 255	0 0 255	0 0 255	0 0 255	0 0 255	0 0 255	0 0 255	0 0 255	0 0 255	0 0 255	0 0 255	0 0 255	0 0 255	0 0 255	0 0 255	0 0 255	0 0 255	0 0 255	0 0 255	0 0 255	0 0 255	0 0 255	0 0 255	0 0 255	0 0 255	0 0 255	0 0 255	0 0 255	0 0 255	0 0 255	0 0 255	0 0 255	0 0 255	0 0 255	0 0 255	0 0 255	0 0 255	0 0 255	0 0 255	0 0 255	0 0 255	0 0 255	0 0 255	0 0 255	0 0 255	0 0 255	0 0 255	0 0 255	0 0 255	0 0 255	0 0 255	0 0 255	0 0 255	0 0 255	0 0 255	0 0 255	0 0 255	0 0 255	0 0 255	0 0 255	0 0 255	0 0 255	0 0 255	0 0 255	0 0 255	0 0 255	0 0 255	0 0 255	0 0 255	0 0 255	0 0 255	0 0 255	0 0 255	0 0 255	0 0 255	0 0 255	0 0 255	0 0 255	0 0 255	0 0 255	0 0 255	0 0 255	0 0 255	0 0 255	0 0 255	0 0 255	0 0 255	0 0 255	0 0 255	0 0 255	0 0 255	0 0 255	0 0 255	0 0 255	0 0 255	0 0 255	0 0 255	0 0 255	0 0 255	0 0 255	0 0 255	0 0 255	0 0 255	0 0 255	0 0 255	0 0 255	0 0 255	0 0 255	0 0 255	0 0 255	0 0 255	0 0 255	0 0 255	0 0 255	0 0 255	0 0 255	0 0 255	0 0 255	0 0 255	0 0 255	0 0 255	0 0 255	0 0 255	0 0 255	0 0 255	0 0 255	0 0 255	0 0 255	0 0 255	0 0 255	0 0 255	0 0 255	0 0 255	0 0 255	0 0 255	0 0 255	0 0 255	0 0 255	0 0 255	0 0 255	0 0 255	0 0 255	0 0 255	0 0 255	0 0 255	0 0 255	0 0 255	0 0 255	0 0 255	0 0 255	0 0 255	0 0 255	0 0 255	0 0 255	0 0 255	0 0 255	0 0 255	0 0 255	0 0 255	0 0 255	
0 0 255	0 0 255	0 0 255	0 0 255	0 0 255	0 0 255	0 0 255	0 0 255	0 0 255	0 0 255	0 0 255	0 0 255	0 0 255	0 0 255	0 0 255	0 0 255	0 0 255	0 0 255	0 0 255	0 0 255	0 0 255	0 0 255	0 0 255	0 0 255	0 0 255	0 0 255	0 0 255	0 0 255	0 0 255	0 0 255	0 0 255	0 0 255	0 0 255	0 0 255	0 0 255	0 0 255	0 0 255	0 0 255	0 0 255	0 0 255	0 0 255	0 0 255	0 0 255	0 0 255	0 0 255	0 0 255	0 0 255	0 0 255	0 0 255	0 0 255	0 0 255	0 0 255	0 0 255	0 0 255	0 0 255	0 0 255	0 0 255	0 0 255	0 0 255	0 0 255	0 0 255	0 0 255	0 0 255	0 0 255	0 0 255	0 0 255	0 0 255	0 0 255	0 0 255	0 0 255	0 0 255	0 0 255	0 0 255	0 0 255	0 0 255	0 0 255	0 0 255	0 0 255	0 0 255	0 0 255	0 0 255	0 0 255	0 0 255	0 0 255	0 0 255	0 0 255	0 0 255	0 0 255	0 0 255	0 0 255	0 0 255	0 0 255	0 0 255	0 0 255	0 0 255	0 0 255	0 0 255	0 0 255	0 0 255	0 0 255	0 0 255	0 0 255	0 0 255	0 0 255	0 0 255	0 0 255	0 0 255	0 0 255	0 0 255	0 0 255	0 0 255	0 0 255	0 0 255	0 0 255	0 0 255	0 0 255	0 0 255	0 0 255	0 0 255	0 0 255	0 0 255	0 0 255	0 0 255	0 0 255	0 0 255	0 0 255	0 0 255	0 0 255	0 0 255	0 0 255	0 0 255	0 0 255	0 0 255	0 0 255	0 0 255	0 0 255	0 0 255	0 0 255	0 0 255	0 0 255	0 0 255	0 0 255	0 0 255	0 0 255	0 0 255	0 0 255	0 0 255	0 0 255	0 0 255	0 0 255	0 0 255	0 0 255	0 0 255	0 0 255	0 0 255	0 0 255	0 0 255	0 0 255	0 0 255	0 0 255	0 0 255	0 0 255	0 0 255	0 0 255	0 0 255	0 0 255	0 0 255	0 0 255	0 0 255	0 0 255	0 0 255	0 0 255	0 0 255	0 0 255	0 0 255	0 0 255	0 0 255	0 0 255	0 0 255	0 0 255	0 0 255	0 0 255	0 0 255	0 0 255	0 0 255	0 0 255	0 0 255	0 0 255	0 0 255	0 0 255	0 0 255	0 0 255	0 0 255	0 0 255	0 0 255	0 0 255	0 0 255	0 0 255	0 0 255	0 0 255	0 0 255	0 0 255	0 0 255	0 0 255	0 0 255	0 0 255	0 0 255	0 0 255	0 0 255	0 0 255	0 0 255	0 0 255	0 0 255	0 0 255	0 0 255	0 0 255	0 0 255	0 0 255	0 0 255	0 0 255	0 0 255	0 0 255	0 0 255	0 0 255	0 0 255	0 0 255	0 0 255	0 0 255	0 0 255	0 0 255	0 0 255	0 0 255	0 0 255	0 0 255	0 0 255	0 0 255	0 0 255	0 0 255	0 0 255	0 0 255	0 0 255	0 0 255	0 0 255	0 0 255	0 0 255	0 0 255	0 0 255	0 0 255	0 0 255	0 0 255	0 0 255	0 0 255	0 0 255	0 0 255	0 0 255	0 0 255	
0 0 255	0 0 255	0 0 255	0 0 255	0 0 255	0 0 255	0 0 255	0 0 255	0 0 255	0 0 255	0 0 255	0 0 255	0 0 255	0 0 255	0 0 255	0 0 255	0 0 255	0 0 255	0 0 255	0 0 255	0 0 255	0 0 255	0 0 255	0 0 255	0 0 255	0 0 255	0 0 255	0 0 255	0 0 255	0 0 255	0 0 255	0 0 255	0 0 255	0 0 255	0 0 255	0 0 255	0 0 255	0 0 255	0 0 255	0 0 255	0 0 255	0 0 255	0 0 255	0 0 255	0 0 255	0 0 255	0 0 255	0 0 255	0 0 255	0 0 255	0 0 255	0 0 255	0 0 255	0 0 255	0 0 255	0 0 255	0 0 255	0 0 255	0 0 255	0 0 255	0 0 255	0 0 255	0 0 255	0 0 255	0 0 255	0 0 255	0 0 255	0 0 255	0 0 255	0 0 255	0 0 255	0 0 255	0 0 255	0 0 255	0 0 255	0 0 255	0 0 255	0 0 255	0 0 255	0 0 255	0 0 255	0 0 255	0 0 255	0 0 255	0 0 255	0 0 255	0 0 255	0 0 255	0 0 255	0 0 255	0 0 255	0 0 255	0 0 255	0 0 255	0 0 255	0 0 255	0 0 255	0 0 255	0 0 255	0 0 255	0 0 255	0 0 255	0 0 255	0 0 255	0 0 255	0 0 255	0 0 255	0 0 255	0 0 255	0 0 255	0 0 255	0 0 255	0 0 255	0 0 255	0 0 255	0 0 255	0 0 255	0 0 255	0 0 255	0 0 255	0 0 255	0 0 255	0 0 255	0 0 255	0 0 255	0 0 255	0 0 255	0 0 255	0 0 255	0 0 255	0 0 255	0 0 255	0 0 255	0 0 255	0 0 255	0 0 255	0 0 255	0 0 255	0 0 255	0 0 255	0 0 255	0 0 255	0 0 255	0 0 255	0 0 255	0 0 255	0 0 255	0 0 255	0 0 255	0 0 255	0 0 255	0 0 255	0 0 255	0 0 255	0 0 255	0 12 51	0 16 51	0 18 51	0 20 51	0 21 51	0 22 51	0 22 51	0 22 51	0 22 51	0 21 51	0 20 51	0 19 51	0 18 51	0 16 51	0 14 51	0 11 51	0 8 51	0 4 51	0 0 255	0 0 255	0 0 255	0 0 255	0 0 255	0 0 255	0 0 255	0 0 255	0 0 255	0 0 255	0 0 255	0 0 255	0 0 255	0 0 255	0 0 255	0 0 255	0 0 255	0 0 255	0 0 255	0 0 255	0 0 255	0 0 255	0 0 255	0 0 255	0 0 255	0 0 255	0 0 255	0 0 255	0 0 255	0 0 255	0 0 255	0 0 255	0 0 255	0 0 255	0 0 255	0 0 255	0 0 255	0 0 255	0 0 255	0 0 255	0 0 255	0 0 255	0 0 255	0 0 255	0 0 255	0 0 255	0 0 255	0 0 255	0 0 255	0 0 255	0 0 255	0 0 255	0 0 255	0 0 255	0 0 255	0 0 255	0 0 255	0 0 255	0 0 255	0 0 255	0 0 255	0 0 255	0 0 255	0 0 255	0 0 255	0 0 255	0 0 255	0 0 255	0 0 255	0 0 255	0 0 255	0 0 255	0 0 255	0 0 255	0 0 255	0 0 255	0 0 255	0 0 255	0 0 255	0 0 255	0 0 255	0 0 255	0 0 255	
0 0 255	0 0 255	0 0 255	0 0 255	0 0 255	0 0 255	0 0 255	0 0 255	0 0 255	0 0 255	0 0 255	0 0 255	0 0 255	0 0 255	0 0 255	0 0 255	0 0 255	0 0 255	0 0 255	0 0 255	0 0 255	0 0 255	0 0 255	0 0 255	0 0 255	0 0 255	0 0 255	0 0 255	0 0 255	0 0 255	0 0 255	0 0 255	0 0 255	0 0 255	0 0 255	0 0 255	0 0 255	0 0 255	0 0 255	0 0 255	0 0 255	0 0 255	0 0 255	0 0 255	0 0 255	0 0 255	0 0 255	0 0 255	0 0 255	0 0 255	0 0 255	0 0 255	0 0 255	0 0 255	0 0 255	0 0 255	0 0 255	0 0 255	0 0 255	0 0 255	0 0 255	0 0 255	0 0 255	0 0 255	0 0 255	0 0 255	0 0 255	0 0 255	0 0 255	0 0 255	0 0 255	0 0 255	0 0 255	0 0 255	0 0 255	0 0 255	0 0 255	0 0 255	0 0 255	0 0 255	0 0 255	0 0 255	0 0 255	0 0 255	0 0 255	0 0 255	0 0 255	0 0 255	0 0 255	0 0 255	0 0 255	0 0 255	0 0 255	0 0 255	0 0 255	0 0 255	0 0 255	0 0 255	0 0 255	0 0 255	0 0 255	0 0 255	0 0 255	0 0 255	0 0 255	0 0 255	0 0 255	0 0 255	0 0 255	0 0 255	0 0 255	0 0 255	0 0 255	0 0 255	0 0 255	0 0 255	0 0 255	0 0 255	0 0 255	0 0 255	0 0 255	0 0 255	0 0 255	0 0 255	0 0 255	0 0 255	0 0 255	0 0 255	0 0 255	0 0 255	0 0 255	0 0 255	0 0 255	0 0 255	0 0 255	0 0 255	0 0 255	0 0 255	0 0 255	0 0 255	0 0 255	0 0 255	0 0 255	0 0 255	0 0 255	0 0 255	0 0 255	0 0 255	0 0 255	0 0 255	0 0 255	0 14 51	0 20 51	0 23 51	0 26 51	0 28 51	0 29 51	0 30 51	0 31 51	0 31 51	0 32 51	0 32 51	0 31 51	0 31 51	0 30 51	0 29 51	0 28 51	0 27 51	0 26 51	0 24 51	0 22 51	0 20 51	0 18 51	0 15 51	0 12 51	0 8 51	0 2 51	0 0 255	0 0 255	0 0 255	0 0 255	0 0 255	0 0 255	0 0 255	0 0 255	0 0 255	0 0 255	0 0 255	0 0 255	0 0 255	0 0 255	0 0 255	0 0 255	0 0 255	0 0 255	0 0 255	0 0 255	0 0 255	0 0 255	0 0 255	0 0 255	0 0 255	0 0 255	0 0 255	0 0 255	0 0 255	0 0 255	0 0 255	0 0 255	0 0 255	0 0 255	0 0 255	0 0 255	0 0 255	0 0 255	0 0 255	0 0 255	0 0 255	0 0 255	0 0 255	0 0 255	0 0 255	0 0 255	0 0 255	0 0 255	0 0 255	0 0 255	0 0 255	0 0 255	0 0 255	0 0 255	0 0 255	0 0 255	0 0 255	0 0 255	0 0 255	0 0 255	0 0 255	0 0 255	0 0 255	0 0 255	0 0 255	0 0 255	0 0 255	0 0 255	0 0 255	0 0 255	0 0 255	0 0 255	0 0 255	0 0 255	0 0 255	0 0 255	0 0 255	0 0 255	0 0 255	
0 0 255	0 0 255	0 0 255	0 0 255	0 0 255	0 0 255	0 0 255	0 0 255	0 0 255	0 0 255	0 0 255	0 0 255	0 0 255	0 0 255	0 0 255	0 0 255	0 0 255	0 0 255	0 0 255	0 0 255	0 0 255	0 0 255	0 0 255	0 0 255	0 0 255	0 0 255	0 0 255	0 0 255	0 0 255	0 0 255	0 0 255	0 0 255	0 0 255	0 0 255	0 0 255	0 0 255	0 0 255	0 0 255	0 0 255	0 0 255	0 0 255	0 0 255	0 0 255	0 0 255	0 0 255	0 0 255	0 0 255	0 0 255	0 0 255	0 0 255	0 0 255	0 0 255	0 0 255	0 0 255	0 0 255	0 0 255	0 0 255	0 0 255	0 0 255	0 0 255	0 0 255	0 0 255	0 0 255	0 0 255	0 0 255	0 0 255	0 0 255	0 0 255	0 0 255	0 0 255	0 0 255	0 0 255	0 0 255	0 0 255	0 0 255	0 0 255	0 0 255	0 0 255	0 0 255	0 0 255	0 0 255	0 0 255	0 0 255	0 0 255	0 0 255	0 0 255	0 0 255	0 0 255	0 0 255	0 0 255	0 0 255	0 0 255	0 0 255	0 0 255	0 0 255	0 0 255	0 0 255	0 0 255	0 0 255	0 0 255	0 0 255	0 0 255	0 0 255	0 0 255	0 0 255	0 0 255	0 0 255	0 0 255	0 0 255	0 0 255	0 0 255	0 0 255	0 0 255	0 0 255	0 0 255	0 0 255	0 0 255	0 0 255	0 0 255	0 0 255	0 0 255	0 0 255	0 0 255	0 0 255	0 0 255	0 0 255	0 0 255	0 0 255	0 0 255	0 0 255	0 0 255	0 0 255	0 0 255	0 0 255	0 0 255	0 0 255	0 0 255	0 0 255	0 0 255	0 0 255	0 0 255	0 0 255	0 0 255	0 0 255	0 0 255	0 0 255	0 0 255	0 0 255	0 14 51	0 22 51	0 26 51	0 29 51	0 32 51	0 34 51	0 35 51	0 37 51	0 38 51	0 38 51	0 39 51	0 39 51	0 39 51	0 39 51	0 39 51	0 38 51	0 37 51	0 37 51	0 36 51	0 34 51	0 33 51	0 31 51	0 30 51	0 28 51	0 26 51	0 23 51	0 21 51	0 18 51	0 15 51	0 11 51	0 7 51	0 0 51	0 0 255	0 0 255	0 0 255	0 0 255	0 0 255	0 0 255	0 0 255	0 0 255	0 0 255	0 0 255	0 0 255	0 0 255	0 0 255	0 0 255	0 0 255	0 0 255	0 0 255	0 0 255	0 0 255	0 0 255	0 0 255	0 0 255	0 0 255	0 0 255	0 0 255	0 0 255	0 0 255	0 0 255	0 0 255	0 0 255	0 0 255	0 0 255	0 0 255	0 0 255	0 0 255	0 0 255	0 0 255	0 0 255	0 0 255	0 0 255	0 0 255	0 0 255	0 0 255	0 0 255	0 0 255	0 0 255	0 0 255	0 0 255	0 0 255	0 0 255	0 0 255	0 0 255	0 0 255	0 0 255	0 0 255	0 0 255	0 0 255	0 0 255	0 0 255	0 0 255	0 0 255	0 0 255	0 0 255	0 0 255	0 0 255	0 0 255	0 0 255	0 0 255	0 0 255	0 0 255	0 0 255	0 0 255	0 0 255	0 0 255	0 0 255	0 0 255	
0 0 255	0 0 255	0 0 255	0 0 255	0 0 255	0 0 255	0 0 255	0 0 255	0 0 255	0 0 255	0 0 255	0 0 255	0 0 255	0 0 255	0 0 255	0 0 255	0 0 255	0 0 255	0 0 255	0 0 255	0 0 255	0 0 255	0 0 255	0 0 255	0 0 255	0 0 255	0 0 255	0 0 255	0 0 255	0 0 255	0 0 255	0 0 255	0 0 255	0 0 255	0 0 255	0 0 255	0 0 255	0 0 255	0 0 255	0 0 255	0 0 255	0 0 255	0 0 255	0 0 255	0 0 255	0 0 255	0 0 255	0 0 255	0 0 255	0 0 255	0 0 255	0 0 255	0 0 255	0 0 255	0 0 255	0 0 255	0 0 255	0 0 255	0 0 255	0 0 255	0 0 255	0 0 255	0 0 255	0 0 255	0 0 255	0 0 255	0 0 255	0 0 255	0 0 255	0 0 255	0 0 255	0 0 255	0 0 255	0 0 255	0 0 255	0 0 255	0 0 255	0 0 255	0 0 255	0 0 255	0 0 255	0 0 255	0 0 255	0 0 255	0 0 255	0 0 255	0 0 255	0 0 255	0 0 255	0 0 255	0 0 255	0 0 255	0 0 255	0 0 255	0 0 255	0 0 255	0 0 255	0 0 255	0 0 255	0 0 255	0 0 255	0 0 255	0 0 255	0 0 255	0 0 255	0 0 255	0 0 255	0 0 255	0 0 255	0 0 255	0 0 255	0 0 255	0 0 255	0 0 255	0 0 255	0 0 255	0 0 255	0 0 255	0 0 255	0 0 255	0 0 255	0 0 255	0 0 255	0 0 255	0 0 255	0 0 255	0 0 255	0 0 255	0 0 255	0 0 255	0 0 255	0 0 255	0 0 255	0 0 255	0 0 255	0 0 255	0 0 255	0 0 255	0 0 255	0 0 255	0 0 255	0 0 255	0 0 255	0 0 255	0 0 255	0 0 255	0 19 51	0 25 51	0 30 51	0 33 51	0 36 51	0 38 51	0 40 51	0 42 51	0 43 51	0 44 51	0 44 51	0 45 51	0 45 51	0 45 51	0 45 51	0 45 51	0 45 51	0 44 51	0 43 51	0 42 51	0 41 51	0 40 51	0 39 51	0 37 51	0 36 51	0 34 51	0 32 51	0 30 51	0 28 51	0 25 51	0 23 51	0 20 51	0 16 51	0 12 51	0 8 51	0 2 51	0 10 51	0 0 255	0 0 255	0 0 255	0 0 255	0 0 255	0 0 255	0 0 255	0 0 255	0 0 255	0 0 255	0 0 255	0 0 255	0 0 255	0 0 255	0 0 255	0 0 255	0 0 255	0 0 255	0 0 255	0 0 255	0 0 255	0 0 255	0 0 255	0 0 255	0 0 255	0 0 255	0 0 255	0 0 255	0 0 255	0 0 255	0 0 255	0 0 255	0 0 255	0 0 255	0 0 255	0 0 255	0 0 255	0 0 255	0 0 255	0 0 255	0 0 255	0 0 255	0 0 255	0 0 255	0 0 255	0 0 255	0 0 255	0 0 255	0 0 255	0 0 255	0 0 255	0 0 255	0 0 255	0 0 255	0 0 255	0 0 255	0 0 255	0 0 255	0 0 255	0 0 255	0 0 255	0 0 255	0 0 255	0 0 255	0 0 255	0 0 255	0 0 255	0 0 255	0 0 255	0 0 255	0 0 255	0 0 255	0 0 255	
0 0 255	0 0 255	0 0 255	0 0 255	0 0 255	0 0 255	0 0 255	0 0 255	0 0 255	0 0 255	0 0 255	0 0 255	0 0 255	0 0 255	0 0 255	0 0 255	0 0 255	0 0 255	0 0 255	0 0 255	0 0 255	0 0 255	0 0 255	0 0 255	0 0 255	0 0 255	0 0 255	0 0 255	0 0 255	0 0 255	0 0 255	0 0 255	0 0 255	0 0 255	0 0 255	0 0 255	0 0 255	0 0 255	0 0 255	0 0 255	0 0 255	0 0 255	0 0 255	0 0 255	0 0 255	0 0 255	0 0 255	0 0 255	0 0 255	0 0 255	0 0 255	0 0 255	0 0 255	0 0 255	0 0 255	0 0 255	0 0 255	0 0 255	0 0 255	0 0 255	0 0 255	0 0 255	0 0 255	0 0 255	0 0 255	0 0 255	0 0 255	0 0 255	0 0 255	0 0 255	0 0 255	0 0 255	0 0 255	0 0 255	0 0 255	0 0 255	0 0 255	0 0 255	0 0 255	0 0 255	0 0 255	0 0 255	0 0 255	0 0 255	0 0 255	0 0 255	0 0 255	0 0 255	0 0 255	0 0 255	0 0 255	0 0 255	0 0 255	0 0 255	0 0 255	0 0 255	0 0 255	0 0 255	0 0 255	0 0 255	0 0 255	0 0 255	0 0 255	0 0 255	0 0 255	0 0 255	0 0 255	0 0 255	0 0 255	0 0 255	0 0 255	0 0 255	0 0 255	0 0 255	0 0 255	0 0 255	0 0 255	0 0 255	0 0 255	0 0 255	0 0 255	0 0 255	0 0 255	0 0 255	0 0 255	0 0 255	0 0 255	0 0 255	0 0 255	0 0 255	0 0 255	0 0 255	0 0 255	0 0 255	0 0 255	0 0 255	0 0 255	0 0 255	0 0 255	0 0 255	0 0 255	0 0 255	0 0 255	0 0 255	0 20 51	0 27 51	0 32 51	0 36 51	0 39 51	0 41 51	0 43 51	0 45 51	0 47 51	0 48 51	0 49 51	0 50 51	0 50 51	0 51 51	0 51 51	0 51 51	0 51 51	0 50 51	0 50 51	0 49 51	0 48 51	0 48 51	0 47 51	0 45 51	0 44 51	0 43 51	0 41 51	0 39 51	0 38 51	0 36 51	0 33 51	0 31 51	0 29 51	0 26 51	0 23 51	0 20 51	0 16 51	0 12 51	0 8 51	0 2 51	0 10 51	0 0 255	0 0 255	0 0 255	0 0 255	0 0 255	0 0 255	0 0 255	0 0 255	0 0 255	0 0 255	0 0 255	0 0 255	0 0 255	0 0 255	0 0 255	0 0 255	0 0 255	0 0 255	0 0 255	0 0 255	0 0 255	0 0 255	0 0 255	0 0 255	0 0 255	0 0 255	0 0 255	0 0 255	0 0 255	0 0 255	0 0 255	0 0 255	0 0 255	0 0 255	0 0 255	0 0 255	0 0 255	0 0 255	0 0 255	0 0 255	0 0 255	0 0 255	0 0 255	0 0 255	0 0 255	0 0 255	0 0 255	0 0 255	0 0 255	0 0 255	0 0 255	0 0 255	0 0 255	0 0 255	0 0 255	0 0 255	0 0 255	0 0 255	0 0 255	0 0 255	0 0 255	0 0 255	0 0 255	0 0 255	0 0 255	0 0 255	0 0 255	0 0 255	0 0 255	0 0 255	0 0 255	
0 0 255	0 0 255	0 0 255	0 0 255	0 0 255	0 0 255	0 0 255	0 0 255	0 0 255	0 0 255	0 0 255	0 0 255	0 0 255	0 0 255	0 0 255	0 0 255	0 0 255	0 0 255	0 0 255	0 0 255	0 0 255	0 0 255	0 0 255	0 0 255	0 0 255	0 0 255	0 0 255	0 0 255	0 0 255	0 0 255	0 0 255	0 0 255	0 0 255	0 0 255	0 0 255	0 0 255	0 0 255	0 0 255	0 0 255	0 0 255	0 0 255	0 0 255	0 0 255	0 0 255	0 0 255	0 0 255	0 0 255	0 0 255	0 0 255	0 0 255	0 0 255	0 0 255	0 0 255	0 0 255	0 0 255	0 0 255	0 0 255	0 0 255	0 0 255	0 0 255	0 0 255	0 0 255	0 0 255	0 0 255	0 0 255	0 0 255	0 0 255	0 0 255	0 0 255	0 0 255	0 0 255	0 0 255	0 0 255	0 0 255	0 0 255	0 0 255	0 0 255	0 0 255	0 0 255	0 0 255	0 0 255	0 0 255	0 0 255	0 0 255	0 0 255	0 0 255	0 0 255	0 0 255	0 0 255	0 0 255	0 0 255	0 0 255	0 0 255	0 0 255	0 0 255	0 0 255	0 0 255	0 0 255	0 0 255	0 0 255	0 0 255	0 0 255	0 0 255	0 0 255	0 0 255	0 0 255	0 0 255	0 0 255	0 0 255	0 0 255	0 0 255	0 0 255	0 0 255	0 0 255	0 0 255	0 0 255	0 0 255	0 0 255	0 0 255	0 0 255	0 0 255	0 0 255	0 0 255	0 0 255	0 0 255	0 0 255	0 0 255	0 0 255	0 0 255	0 0 255	0 0 255	0 0 255	0 0 255	0 0 255	0 0 255	0 0 255	0 0 255	0 0 255	0 0 255	0 0 255	0 0 255	0 0 255	0 19 51	0 27 51	0 33 51	0 37 51	0 40 51	0 43 51	0 46 51	0 48 51	0 50 51	0 51 51	0 52 51	0 54 51	0 54 51	0 55 51	0 55 51	0 56 51	0 56 51	0 56 51	0 55 51	0 55 51	0 55 51	0 54 51	0 53 51	0 52 51	0 51 51	0 50 51	0 49 51	0 47 51	0 46 51	0 44 51	0 42 51	0 40 51	0 38 51	0 36 51	0 34 51	0 31 51	0 29 51	0 26 51	0 23 51	0 19 51	0 16 51	0 11 51	0 7 51	0 0 51	0 10 51	0 0 255	0 0 255	0 0 255	0 0 255	0 0 255	0 0 255	0 0 255	0 0 255	0 0 255	0 0 255	0 0 255	0 0 255	0 0 255	0 0 255	0 0 255	0 0 255	0 0 255	0 0 255	0 0 255	0 0 255	0 0 255	0 0 255	0 0 255	0 0 255	0 0 255	0 0 255	0 0 255	0 0 255	0 0 255	0 0 255	0 0 255	0 0 255	0 0 255	0 0 255	0 0 255	0 0 255	0 0 255	0 0 255	0 0 255	0 0 255	0 0 255	0 0 255	0 0 255	0 0 255	0 0 255	0 0 255	0 0 255	0 0 255	0 0 255	0 0 255	0 0 255	0 0 255	0 0 255	0 0 255	0 0 255	0 0 255	0 0 255	0 0 255	0 0 255	0 0 255	0 0 255	0 0 255	0 0 255	0 0 255	0 0 255	0 0 255	0 0 255	0 0 255	0 0 255	
0 0 255	0 0 255	0 0 255	0 0 255	0 0 255	0 0 255	0 0 255	0 0 255	0 0 255	0 0 255	0 0 255	0 0 255	0 0 255	0 0 255	0 0 255	0 0 255	0 0 255	0 0 255	0 0 255	0 0 255	0 0 255	0 0 255	0 0 255	0 0 255	0 0 255	0 0 255	0 0 255	0 0 255	0 0 255	0 0 255	0 0 255	0 0 255	0 0 255	0 0 255	0 0 255	0 0 255	0 0 255	0 0 255	0 0 255	0 0 255	0 0 255	0 0 255	0 0 255	0 0 255	0 0 255	0 0 255	0 0 255	0 0 255	0 0 255	0 0 255	0 0 255	0 0 255	0 0 255	0 0 255	0 0 255	0 0 255	0 0 255	0 0 255	0 0 255	0 0 255	0 0 255	0 0 255	0 0 255	0 0 255	0 0 255	0 0 255	0 0 255	0 0 255	0 0 255	0 0 255	0 0 255	0 0 255	0 0 255	0 0 255	0 0 255	0 0 255	0 0 255	0 0 255	0 0 255	0 0 255	0 0 255	0 0 255	0 0 255	0 0 255	0 0 255	0 0 255	0 0 255	0 0 255	0 0 255	0 0 255	0 0 255	0 0 255	0 0 255	0 0 255	0 0 255	0 0 255	0 0 255	0 0 255	0 0 255	0 0 255	0 0 255	0 0 255	0 0 255	0 0 255	0 0 255	0 0 255	0 0 255	0 0 255	0 0 255	0 0 255	0 0 255	0 0 255	0 0 255	0 0 255	0 0 255	0 0 255	0 0 255	0 0 255	0 0 255	0 0 255	0 0 255	0 0 255	0 0 255	0 0 255	0 0 255	0 0 255	0 0 255	0 0 255	0 0 255	0 0 255	0 0 255	0 0 255	0 0 255	0 0 255	0 0 255	0 0 255	0 0 255	0 0 255	0 0 255	0 0 255	0 12 51	0 25 51	0 32 51	0 37 51	0 41 51	0 44 51	0 47 51	0 50 51	0 52 51	0 54 51	0 55 51	0 56 51	0 58 51	0 58 51	0 59 51	0 60 51	0 60 51	0 60 51	0 60 51	0 60 51	0 60 51	0 59 51	0 59 51	0 58 51	0 57 51	0 56 51	0 55 51	0 54 51	0 53 51	0 51 51	0 50 51	0 48 51	0 46 51	0 45 51	0 43 51	0 40 51	0 38 51	0 36 51	0 33 51	0 31 51	0 28 51	0 25 51	0 21 51	0 18 51	0 14 51	0 9 51	0 4 51	0 10 51	0 0 255	0 0 255	0 0 255	0 0 255	0 0 255	0 0 255	0 0 255	0 0 255	0 0 255	0 0 255	0 0 255	0 0 255	0 0 255	0 0 255	0 0 255	0 0 255	0 0 255	0 0 255	0 0 255	0 0 255	0 0 255	0 0 255	0 0 255	0 0 255	0 0 255	0 0 255	0 0 255	0 0 255	0 0 255	0 0 255	0 0 255	0 0 255	0 0 255	0 0 255	0 0 255	0 0 255	0 0 255	0 0 255	0 0 255	0 0 255	0 0 255	0 0 255	0 0 255	0 0 255	0 0 255	0 0 255	0 0 255	0 0 255	0 0 255	0 0 255	0 0 255	0 0 255	0 0 255	0 0 255	0 0 255	0 0 255	0 0 255	0 0 255	0 0 255	0 0 255	0 0 255	0 0 255	0 0 255	0 0 255	0 0 255	0 0 255	0 0 255	0 0 255	
0 0 255	0 0 255	0 0 255	0 0 255	0 0 255	0 0 255	0 0 255	0 0 255	0 0 255	0 0 255	0 0 255	0 0 255	0 0 255	0 0 255	0 0 255	0 0 255	0 0 255	0 0 255	0 0 255	0 0 255	0 0 255	0 0 255	0 0 255	0 0 255	0 0 255	0 0 255	0 0 255	0 0 255	0 0 255	0 0 255	0 0 255	0 0 255	0 0 255	0 0 255	0 0 255	0 0 255	0 0 255	0 0 255	0 0 255	0 0 255	0 0 255	0 0 255	0 0 255	0 0 255	0 0 255	0 0 255	0 0 255	0 0 255	0 0 255	0 0 255	0 0 255	0 0 255	0 0 255	0 0 255	0 0 255	0 0 255	0 0 255	0 0 255	0 0 255	0 0 255	0 0 255	0 0 255	0 0 255	0 0 255	0 0 255	0 0 255	0 0 255	0 0 255	0 0 255	0 0 255	0 0 255	0 0 255	0 0 255	0 0 255	0 0 255	0 0 255	0 0 255	0 0 255	0 0 255	0 0 255	0 0 255	0 0 255	0 0 255	0 0 255	0 0 255	0 0 255	0 0 255	0 0 255	0 0 255	0 0 255	0 0 255	0 0 255	0 0 255	0 0 255	0 0 255	0 0 255	0 0 255	0 0 255	0 0 255	0 0 255	0 0 255	0 0 255	0 0 255	0 0 255	0 0 255	0 0 255	0 0 255	0 0 255	0 0 255	0 0 255	0 0 255	0 0 255	0 0 255	0 0 255	0 0 255	0 0 255	0 0 255	0 0 255	0 0 255	0 0 255	0 0 255	0 0 255	0 0 255	0 0 255	0 0 255	0 0 255	0 0 255	0 0 255	0 0 255	0 0 255	0 0 255	0 0 255	0 0 255	0 0 255	0 0 255	0 0 255	0 0 255	0 0 255	0 0 255	0 21 51	0 30 51	0 36 51	0 40 51	0 44 51	0 48 51	0 50 51	0 53 51	0 55 51	0 57 51	0 59 51	0 60 51	0 61 51	0 62 51	0 63 51	0 63 51	0 64 51	0 64 51	0 64 51	0 64 51	0 64 51	0 64 51	0 63 51	0 63 51	0 62 51	0 61 51	0 60 51	0 59 51	0 58 51	0 57 51	0 55 51	0 54 51	0 52 51	0 50 51	0 48 51	0 46 51	0 44 51	0 42 51	0 40 51	0 37 51	0 35 51	0 32 51	0 29 51	0 26 51	0 23 51	0 19 51	0 16 51	0 11 51	0 6 51	0 0 51	0 10 51	0 0 255	0 0 255	0 0 255	0 0 255	0 0 255	0 0 255	0 0 255	0 0 255	0 0 255	0 0 255	0 0 255	0 0 255	0 0 255	0 0 255	0 0 255	0 0 255	0 0 255	0 0 255	0 0 255	0 0 255	0 0 255	0 0 255	0 0 255	0 0 255	0 0 255	0 0 255	0 0 255	0 0 255	0 0 255	0 0 255	0 0 255	0 0 255	0 0 255	0 0 255	0 0 255	0 0 255	0 0 255	0 0 255	0 0 255	0 0 255	0 0 255	0 0 255	0 0 255	0 0 255	0 0 255	0 0 255	0 0 255	0 0 255	0 0 255	0 0 255	0 0 255	0 0 255	0 0 255	0 0 255	0 0 255	0 0 255	0 0 255	0 0 255	0 0 255	0 0 255	0 0 255	0 0 255	0 0 255	0 0 255	0 0 255	0 0 255	
0 0 255	0 0 255	0 0 255	0 0 255	0 0 255	0 0 255	0 0 255	0 0 255	0 0 255	0 0 255	0 0 255	0 0 255	0 0 255	0 0 255	0 0 255	0 0 255	0 0 255	0 0 255	0 0 255	0 0 255	0 0 255	0 0 255	0 0 255	0 0 255	0 0 255	0 0 255	0 0 255	0 0 255	0 0 255	0 0 255	0 0 255	0 0 255	0 0 255	0 0 255	0 0 255	0 0 255	0 0 255	0 0 255	0 0 255	0 0 255	0 0 255	0 0 255	0 0 255	0 0 255	0 0 255	0 0 255	0 0 255	0 0 255	0 0 255	0 0 255	0 0 255	0 0 255	0 0 255	0 0 255	0 0 255	0 0 255	0 0 255	0 0 255	0 0 255	0 0 255	0 0 255	0 0 255	0 0 255	0 0 255	0 0 255	0 0 255	0 0 255	0 0 255	0 0 255	0 0 255	0 0 255	0 0 255	0 0 255	0 0 255	0 0 255	0 0 255	0 0 255	0 0 255	0 0 255	0 0 255	0 0 255	0 0 255	0 0 255	0 0 255	0 0 255	0 0 255	0 0 255	0 0 255	0 0 255	0 0 255	0 0 255	0 0 255	0 0 255	0 0 255	0 0 255	0 0 255	0 0 255	0 0 255	0 0 255	0 0 255	0 0 255	0 0 255	0 0 255	0 0 255	0 0 255	0 0 255	0 0 255	0 0 255	0 0 255	0 0 255	0 0 255	0 0 255	0 0 255	0 0 255	0 0 255	0 0 255	0 0 255	0 0 255	0 0 255	0 0 255	0 0 255	0 0 255	0 0 255	0 0 255	0 0 255	0 0 255	0 0 255	0 0 255	0 0 255	0 0 255	0 0 255	0 0 255	0 0 255	0 0 255	0 0 255	0 0 255	0 0 255	0 0 255	0 25 51	0 33 51	0 38 51	0 43 51	0 47 51	0 50 51	0 53 51	0 56 51	0 58 51	0 60 51	0 62 51	0 63 51	0 64 51	0 65 51	0 66 51	0 67 51	0 67 51	0 68 51	0 68 51	0 68 51	0 68 51	0 68 51	0 67 51	0 67 51	0 66 51	0 65 51	0 65 51	0 64 51	0 62 51	0 61 51	0 60 51	0 59 51	0 57 51	0 55 51	0 54 51	0 52 51	0 50 51	0 48 51	0 46 51	0 44 51	0 41 51	0 39 51	0 36 51	0 33 51	0 30 51	0 27 51	0 24 51	0 21 51	0 17 51	0 13 51	0 8 51	0 2 51	0 10 51	0 0 255	0 0 255	0 0 255	0 0 255	0 0 255	0 0 255	0 0 255	0 0 255	0 0 255	0 0 255	0 0 255	0 0 255	0 0 255	0 0 255	0 0 255	0 0 255	0 0 255	0 0 255	0 0 255	0 0 255	0 0 255	0 0 255	0 0 255	0 0 255	0 0 255	0 0 255	0 0 255	0 0 255	0 0 255	0 0 255	0 0 255	0 0 255	0 0 255	0 0 255	0 0 255	0 0 255	0 0 255	0 0 255	0 0 255	0 0 255	0 0 255	0 0 255	0 0 255	0 0 255	0 0 255	0 0 255	0 0 255	0 0 255	0 0 255	0 0 255	0 0 255	0 0 255	0 0 255	0 0 255	0 0 255	0 0 255	0 0 255	0 0 255	0 0 255	0 0 255	0 0 255	0 0 255	0 0 255	0 0 255	0 0 255	
0 0 255	0 0 255	0 0 255	0 0 255	0 0 255	0 0 255	0 0 255	0 0 255	0 0 255	0 0 255	0 0 255	0 0 255	0 0 255	0 0 255	0 0 255	0 0 255	0 0 255	0 0 255	0 0 255	0 0 255	0 0 255	0 0 255	0 0 255	0 0 255	0 0 255	0 0 255	0 0 255	0 0 255	0 0 255	0 0 255	0 0 255	0 0 255	0 0 255	0 0 255	0 0 255	0 0 255	0 0 255	0 0 255	0 0 255	0 0 255	0 0 255	0 0 255	0 0 255	0 0 255	0 0 255	0 0 255	0 0 255	0 0 255	0 0 255	0 0 255	0 0 255	0 0 255	0 0 255	0 0 255	0 0 255	0 0 255	0 0 255	0 0 255	0 0 255	0 0 255	0 0 255	0 0 255	0 0 255	0 0 255	0 0 255	0 0 255	0 0 255	0 0 255	0 0 255	0 0 255	0 0 255	0 0 255	0 0 255	0 0 255	0 0 255	0 0 255	0 0 255	0 0 255	0 0 255	0 0 255	0 0 255	0 0 255	0 0 255	0 0 255	0 0 255	0 0 255	0 0 255	0 0 255	0 0 255	0 0 255	0 0 255	0 0 255	0 0 255	0 0 255	0 0 255	0 0 255	0 0 255	0 0 255	0 0 255	0 0 255	0 0 255	0 0 255	0 0 255	0 0 255	0 0 255	0 0 255	0 0 255	0 0 255	0 0 255	0 0 255	0 0 255	0 0 255	0 0 255	0 0 255	0 0 255	0 0 255	0 0 255	0 0 255	0 0 255	0 0 255	0 0 255	0 0 255	0 0 255	0 0 255	0 0 255	0 0 255	0 0 255	0 0 255	0 0 255	0 0 255	0 0 255	0 0 255	0 0 255	0 0 255	0 0 255	0 0 255	0 14 51	0 28 51	0 35 51	0 41 51	0 45 51	0 49 51	0 52 51	0 55 51	0 58 51	0 60 51	0 62 51	0 64 51	0 66 51	0 67 51	0 68 51	0 69 51	0 70 51	0 71 51	0 71 51	0 71 51	0 71 51	0 71 51	0 71 51	0 71 51	0 71 51	0 70 51	0 69 51	0 69 51	0 68 51	0 67 51	0 66 51	0 64 51	0 63 51	0 62 51	0 60 51	0 59 51	0 57 51	0 55 51	0 53 51	0 51 51	0 49 51	0 47 51	0 45 51	0 42 51	0 40 51	0 37 51	0 34 51	0 31 51	0 28 51	0 25 51	0 21 51	0 18 51	0 13 51	0 9 51	0 3 51	0 10 51	0 10 51	0 0 255	0 0 255	0 0 255	0 0 255	0 0 255	0 0 255	0 0 255	0 0 255	0 0 255	0 0 255	0 0 255	0 0 255	0 0 255	0 0 255	0 0 255	0 0 255	0 0 255	0 0 255	0 0 255	0 0 255	0 0 255	0 0 255	0 0 255	0 0 255	0 0 255	0 0 255	0 0 255	0 0 255	0 0 255	0 0 255	0 0 255	0 0 255	0 0 255	0 0 255	0 0 255	0 0 255	0 0 255	0 0 255	0 0 255	0 0 255	0 0 255	0 0 255	0 0 255	0 0 255	0 0 255	0 0 255	0 0 255	0 0 255	0 0 255	0 0 255	0 0 255	0 0 255	0 0 255	0 0 255	0 0 255	0 0 255	0 0 255	0 0 255	0 0 255	0 0 255	0 0 255	0 0 255	0 0 255	
0 0 255	0 0 255	0 0 255	0 0 255	0 0 255	0 0 255	0 0 255	0 0 255	0 0 255	0 0 255	0 0 255	0 0 255	0 0 255	0 0 255	0 0 255	0 0 255	0 0 255	0 0 255	0 0 255	0 0 255	0 0 255	0 0 255	0 0 255	0 0 255	0 0 255	0 0 255	0 0 255	0 0 255	0 0 255	0 0 255	0 0 255	0 0 255	0 0 255	0 0 255	0 0 255	0 0 255	0 0 255	0 0 255	0 0 255	0 0 255	0 0 255	0 0 255	0 0 255	0 0 255	0 0 255	0 0 255	0 0 255	0 0 255	0 0 255	0 0 255	0 0 255	0 0 255	0 0 255	0 0 255	0 0 255	0 0 255	0 0 255	0 0 255	0 0 255	0 0 255	0 0 255	0 0 255	0 0 255	0 0 255	0 0 255	0 0 255	0 0 255	0 0 255	0 0 255	0 0 255	0 0 255	0 0 255	0 0 255	0 0 255	0 0 255	0 0 255	0 0 255	0 0 255	0 0 255	0 0 255	0 0 255	0 0 255	0 0 255	0 0 255	0 0 255	0 0 255	0 0 255	0 0 255	0 0 255	0 0 255	0 0 255	0 0 255	0 0 255	0 0 255	0 0 255	0 0 255	0 0 255	0 0 255	0 0 255	0 0 255	0 0 255	0 0 255	0 0 255	0 0 255	0 0 255	0 0 255	0 0 255	0 0 255	0 0 255	0 0 255	0 0 255	0 0 255	0 0 255	0 0 255	0 0 255	0 0 255	0 0 255	0 0 255	0 0 255	0 0 255	0 0 255	0 0 255	0 0 255	0 0 255	0 0 255	0 0 255	0 0 255	0 0 255	0 0 255	0 0 255	0 0 255	0 0 255	0 0 255	0 0 255	0 0 255	0 17 51	0 29 51	0 37 51	0 42 51	0 47 51	0 51 51	0 54 51	0 57 51	0 60 51	0 62 51	0 65 51	0 66 51	0 68 51	0 70 51	0 71 51	0 72 51	0 73 51	0 73 51	0 74 51	0 74 51	0 75 51	0 75 51	0 75 51	0 74 51	0 74 51	0 74 51	0 73 51	0 72 51	0 72 51	0 71 51	0 70 51	0 69 51	0 67 51	0 66 51	0 65 51	0 63 51	0 61 51	0 60 51	0 58 51	0 56 51	0 54 51	0 52 51	0 50 51	0 48 51	0 45 51	0 43 51	0 40 51	0 37 51	0 35 51	0 32 51	0 29 51	0 25 51	0 22 51	0 18 51	0 14 51	0 9 51	0 4 51	0 10 51	0 10 51	0 0 255	0 0 255	0 0 255	0 0 255	0 0 255	0 0 255	0 0 255	0 0 255	0 0 255	0 0 255	0 0 255	0 0 255	0 0 255	0 0 255	0 0 255	0 0 255	0 0 255	0 0 255	0 0 255	0 0 255	0 0 255	0 0 255	0 0 255	0 0 255	0 0 255	0 0 255	0 0 255	0 0 255	0 0 255	0 0 255	0 0 255	0 0 255	0 0 255	0 0 255	0 0 255	0 0 255	0 0 255	0 0 255	0 0 255	0 0 255	0 0 255	0 0 255	0 0 255	0 0 255	0 0 255	0 0 255	0 0 255	0 0 255	0 0 255	0 0 255	0 0 255	0 0 255	0 0 255	0 0 255	0 0 255	0 0 255	0 0 255	0 0 255	0 0 255	0 0 255	0 0 255	0 0 255	
0 0 255	0 0 255	0 0 255	0 0 255	0 0 255	0 0 255	0 0 255	0 0 255	0 0 255	0 0 255	0 0 255	0 0 255	0 0 255	0 0 255	0 0 255	0 0 255	0 0 255	0 0 255	0 0 255	0 0 255	0 0 255	0 0 255	0 0 255	0 0 255	0 0 255	0 0 255	0 0 255	0 0 255	0 0 255	0 0 255	0 0 255	0 0 255	0 0 255	0 0 255	0 0 255	0 0 255	0 0 255	0 0 255	0 0 255	0 0 255	0 0 255	0 0 255	0 0 255	0 0 255	0 0 255	0 0 255	0 0 255	0 0 255	0 0 255	0 0 255	0 0 255	0 0 255	0 0 255	0 0 255	0 0 255	0 0 255	0 0 255	0 0 255	0 0 255	0 0 255	0 0 255	0 0 255	0 0 255	0 0 255	0 0 255	0 0 255	0 0 255	0 0 255	0 0 255	0 0 255	0 0 255	0 0 255	0 0 255	0 0 255	0 0 255	0 0 255	0 0 255	0 0 255	0 0 255	0 0 255	0 0 255	0 0 255	0 0 255	0 0 255	0 0 255	0 0 255	0 0 255	0 0 255	0 0 255	0 0 255	0 0 255	0 0 255	0 0 255	0 0 255	0 0 255	0 0 255	0 0 255	0 0 255	0 0 255	0 0 255	0 0 255	0 0 255	0 0 255	0 0 255	0 0 255	0 0 255	0 0 255	0 0 255	0 0 255	0 0 255	0 0 255	0 0 255	0 0 255	0 0 255	0 0 255	0 0 255	0 0 255	0 0 255	0 0 255	0 0 255	0 0 255	0 0 255	0 0 255	0 0 255	0 0 255	0 0 255	0 0 255	0 0 255	0 0 255	0 0 255	0 0 255	0 0 255	0 0 255	0 0 255	0 19 51	0 30 51	0 38 51	0 43 51	0 48 51	0 52 51	0 56 51	0 59 51	0 62 51	0 64 51	0 66 51	0 68 51	0 70 51	0 72 51	0 73 51	0 74 51	0 75 51	0 76 51	0 77 51	0 77 51	0 77 51	0 78 51	0 78 51	0 78 51	0 77 51	0 77 51	0 77 51	0 76 51	0 75 51	0 74 51	0 73 51	0 72 51	0 71 51	0 70 51	0 69 51	0 67 51	0 66 51	0 64 51	0 62 51	0 61 51	0 59 51	0 57 51	0 55 51	0 53 51	0 50 51	0 48 51	0 46 51	0 43 51	0 40 51	0 38 51	0 35 51	0 32 51	0 29 51	0 25 51	0 22 51	0 18 51	0 14 51	0 9 51	0 4 51	0 10 51	0 10 51	0 0 255	0 0 255	0 0 255	0 0 255	0 0 255	0 0 255	0 0 255	0 0 255	0 0 255	0 0 255	0 0 255	0 0 255	0 0 255	0 0 255	0 0 255	0 0 255	0 0 255	0 0 255	0 0 255	0 0 255	0 0 255	0 0 255	0 0 255	0 0 255	0 0 255	0 0 255	0 0 255	0 0 255	0 0 255	0 0 255	0 0 255	0 0 255	0 0 255	0 0 255	0 0 255	0 0 255	0 0 255	0 0 255	0 0 255	0 0 255	0 0 255	0 0 255	0 0 255	0 0 255	0 0 255	0 0 255	0 0 255	0 0 255	0 0 255	0 0 255	0 0 255	0 0 255	0 0 255	0 0 255	0 0 255	0 0 255	0 0 255	0 0 255	0 0 255	0 0 255	0 0 255	
0 0 255	0 0 255	0 0 255	0 0 255	0 0 255	0 0 255	0 0 255	0 0 255	0 0 255	0 0 255	0 0 255	0 0 255	0 0 255	0 0 255	0 0 255	0 0 255	0 0 255	0 0 255	0 0 255	0 0 255	0 0 255	0 0 255	0 0 255	0 0 255	0 0 255	0 0 255	0 0 255	0 0 255	0 0 255	0 0 255	0 0 255	0 0 255	0 0 255	0 0 255	0 0 255	0 0 255	0 0 255	0 0 255	0 0 255	0 0 255	0 0 255	0 0 255	0 0 255	0 0 255	0 0 255	0 0 255	0 0 255	0 0 255	0 0 255	0 0 255	0 0 255	0 0 255	0 0 255	0 0 255	0 0 255	0 0 255	0 0 255	0 0 255	0 0 255	0 0 255	0 0 255	0 0 255	0 0 255	0 0 255	0 0 255	0 0 255	0 0 255	0 0 255	0 0 255	0 0 255	0 0 255	0 0 255	0 0 255	0 0 255	0 0 255	0 0 255	0 0 255	0 0 255	0 0 255	0 0 255	0 0 255	0 0 255	0 0 255	0 0 255	0 0 255	0 0 255	0 0 255	0 0 255	0 0 255	0 0 255	0 0 255	0 0 255	0 0 255	0 0 255	0 0 255	0 0 255	0 0 255	0 0 255	0 0 255	0 0 255	0 0 255	0 0 255	0 0 255	0 0 255	0 0 255	0 0 255	0 0 255	0 0 255	0 0 255	0 0 255	0 0 255	0 0 255	0 0 255	0 0 255	0 0 255	0 0 255	0 0 255	0 0 255	0 0 255	0 0 255	0 0 255	0 0 255	0 0 255	0 0 255	0 0 255	0 0 255	0 0 255	0 0 255	0 0 255	0 0 255	0 0 255	0 0 255	0 0 255	0 19 51	0 31 51	0 38 51	0 44 51	0 49 51	0 53 51	0 57 51	0 60 51	0 63 51	0 65 51	0 68 51	0 70 51	0 72 51	0 73 51	0 75 51	0 76 51	0 77 51	0 78 51	0 79 51	0 80 51	0 80 51	0 80 51	0 80 51	0 80 51	0 80 51	0 80 51	0 96 10	0 95 10	0 94 10	0 93 10	0 92 10	0 91 10	0 90 10	0 89 10	0 87 10	0 86 10	0 70 51	0 68 51	0 67 51	0 65 51	0 63 51	0 61 51	0 59 51	0 57 51	0 55 51	0 53 51	0 51 51	0 48 51	0 46 51	0 43 51	0 40 51	0 38 51	0 35 51	0 32 51	0 29 51	0 25 51	0 22 51	0 18 51	0 14 51	0 9 51	0 4 51	0 10 51	0 10 51	0 0 255	0 0 255	0 0 255	0 0 255	0 0 255	0 0 255	0 0 255	0 0 255	0 0 255	0 0 255	0 0 255	0 0 255	0 0 255	0 0 255	0 0 255	0 0 255	0 0 255	0 0 255	0 0 255	0 0 255	0 0 255	0 0 255	0 0 255	0 0 255	0 0 255	0 0 255	0 0 255	0 0 255	0 0 255	0 0 255	0 0 255	0 0 255	0 0 255	0 0 255	0 0 255	0 0 255	0 0 255	0 0 255	0 0 255	0 0 255	0 0 255	0 0 255	0 0 255	0 0 255	0 0 255	0 0 255	0 0 255	0 0 255	0 0 255	0 0 255	0 0 255	0 0 255	0 0 255	0 0 255	0 0 255	0 0 255	0 0 255	0 0 255	0 0 255	0 0 255	
0 0 255	0 0 255	0 0 255	0 0 255	0 0 255	0 0 255	0 0 255	0 0 255	0 0 255	0 0 255	0 0 255	0 0 255	0 0 255	0 0 255	0 0 255	0 0 255	0 0 255	0 0 255	0 0 255	0 0 255	0 0 255	0 0 255	0 0 255	0 0 255	0 0 255	0 0 255	0 0 255	0 0 255	0 0 255	0 0 255	0 0 255	0 0 255	0 0 255	0 0 255	0 0 255	0 0 255	0 0 255	0 0 255	0 0 255	0 0 255	0 0 255	0 0 255	0 0 255	0 0 255	0 0 255	0 0 255	0 0 255	0 0 255	0 0 255	0 0 255	0 0 255	0 0 255	0 0 255	0 0 255	0 0 255	0 0 255	0 0 255	0 0 255	0 0 255	0 0 255	0 0 255	0 0 255	0 0 255	0 0 255	0 0 255	0 0 255	0 0 255	0 0 255	0 0 255	0 0 255	0 0 255	0 0 255	0 0 255	0 0 255	0 0 255	0 0 255	0 0 255	0 0 255	0 0 255	0 0 255	0 0 255	0 0 255	0 0 255	0 0 255	0 0 255	0 0 255	0 0 255	0 0 255	0 0 255	0 0 255	0 0 255	0 0 255	0 0 255	0 0 255	0 0 255	0 0 255	0 0 255	0 0 255	0 0 255	0 0 255	0 0 255	0 0 255	0 0 255	0 0 255	0 0 255	0 0 255	0 0 255	0 0 255	0 0 255	0 0 255	0 0 255	0 0 255	0 0 255	0 0 255	0 0 255	0 0 255	0 0 255	0 0 255	0 0 255	0 0 255	0 0 255	0 0 255	0 0 255	0 0 255	0 0 255	0 0 255	0 0 255	0 0 255	0 0 255	0 0 255	0 0 255	0 0 255	0 18 51	0 30 51	0 38 51	0 44 51	0 49 51	0 53 51	0 57 51	0 61 51	0 64 51	0 66 51	0 69 51	0 71 51	0 73 51	0 75 51	0 76 51	0 78 51	0 79 51	0 80 51	0 81 51	0 82 51	0 82 51	0 83 51	0 99 10	0 100 10	0 100 10	0 99 10	0 99 10	0 99 10	0 98 10	0 97 10	0 96 10	0 95 10	0 94 10	0 93 10	0 91 10	0 90 10	0 88 10	0 87 10	0 85 10	0 83 10	0 81 10	0 65 51	0 64 51	0 62 51	0 60 51	0 57 51	0 55 51	0 53 51	0 51 51	0 48 51	0 46 51	0 43 51	0 40 51	0 37 51	0 34 51	0 31 51	0 28 51	0 25 51	0 21 51	0 17 51	0 13 51	0 9 51	0 3 51	0 10 51	0 10 51	0 0 255	0 0 255	0 0 255	0 0 255	0 0 255	0 0 255	0 0 255	0 0 255	0 0 255	0 0 255	0 0 255	0 0 255	0 0 255	0 0 255	0 0 255	0 0 255	0 0 255	0 0 255	0 0 255	0 0 255	0 0 255	0 0 255	0 0 255	0 0 255	0 0 255	0 0 255	0 0 255	0 0 255	0 0 255	0 0 255	0 0 255	0 0 255	0 0 255	0 0 255	0 0 255	0 0 255	0 0 255	0 0 255	0 0 255	0 0 255	0 0 255	0 0 255	0 0 255	0 0 255	0 0 255	0 0 255	0 0 255	0 0 255	0 0 255	0 0 255	0 0 255	0 0 255	0 0 255	0 0 255	0 0 255	0 0 255	0 0 255	0 0 255	0 0 255	
0 0 255	0 0 255	0 0 255	0 0 255	0 0 255	0 0 255	0 0 255	0 0 255	0 0 255	0 0 255	0 0 255	0 0 255	0 0 255	0 0 255	0 0 255	0 0 255	0 0 255	0 0 255	0 0 255	0 0 255	0 0 255	0 0 255	0 0 255	0 0 255	0 0 255	0 0 255	0 0 255	0 0 255	0 0 255	0 0 255	0 0 255	0 0 255	0 0 255	0 0 255	0 0 255	0 0 255	0 0 255	0 0 255	0 0 255	0 0 255	0 0 255	0 0 255	0 0 255	0 0 255	0 0 255	0 0 255	0 0 255	0 0 255	0 0 255	0 0 255	0 0 255	0 0 255	0 0 255	0 0 255	0 0 255	0 0 255	0 0 255	0 0 255	0 0 255	0 0 255	0 0 255	0 0 255	0 0 255	0 0 255	0 0 255	0 0 255	0 0 255	0 0 255	0 0 255	0 0 255	0 0 255	0 0 255	0 0 255	0 0 255	0 0 255	0 0 255	0 0 255	0 0 255	0 0 255	0 0 255	0 0 255	0 0 255	0 0 255	0 0 255	0 0 255	0 0 255	0 0 255	0 0 255	0 0 255	0 0 255	0 0 255	0 0 255	0 0 255	0 0 255	0 0 255	0 0 255	0 0 255	0 0 255	0 0 255	0 0 255	0 0 255	0 0 255	0 0 255	0 0 255	0 0 255	0 0 255	0 0 255	0 0 255	0 0 255	0 0 255	0 0 255	0 0 255	0 0 255	0 0 255	0 0 255	0 0 255	0 0 255	0 0 255	0 0 255	0 0 255	0 0 255	0 0 255	0 0 255	0 0 255	0 0 255	0 0 255	0 0 255	0 0 255	0 0 255	0 0 255	0 0 255	0 14 51	0 29 51	0 37 51	0 44 51	0 49 51	0 53 51	0 57 51	0 61 51	0 64 51	0 67 51	0 70 51	0 72 51	0 74 51	0 76 51	0 78 51	0 79 51	0 81 51	0 82 51	0 83 51	0 84 51	0 84 51	0 102 10	0 102 10	0 102 10	0 102 10	0 102 10	0 102 10	0 102 10	0 101 10	0 101 10	0 100 10	0 99 10	0 98 10	0 97 10	0 95 10	0 94 10	0 92 10	0 91 10	0 89 10	0 87 10	0 85 10	0 83 10	0 81 10	0 79 10	0 77 10	0 62 51	0 60 51	0 57 51	0 55 51	0 53 51	0 50 51	0 48 51	0 45 51	0 43 51	0 40 51	0 37 51	0 34 51	0 31 51	0 28 51	0 24 51	0 20 51	0 17 51	0 12 51	0 8 51	0 2 51	0 10 51	0 10 51	0 0 255	0 0 255	0 0 255	0 0 255	0 0 255	0 0 255	0 0 255	0 0 255	0 0 255	0 0 255	0 0 255	0 0 255	0 0 255	0 0 255	0 0 255	0 0 255	0 0 255	0 0 255	0 0 255	0 0 255	0 0 255	0 0 255	0 0 255	0 0 255	0 0 255	0 0 255	0 0 255	0 0 255	0 0 255	0 0 255	0 0 255	0 0 255	0 0 255	0 0 255	0 0 255	0 0 255	0 0 255	0 0 255	0 0 255	0 0 255	0 0 255	0 0 255	0 0 255	0 0 255	0 0 255	0 0 255	0 0 255	0 0 255	0 0 255	0 0 255	0 0 255	0 0 255	0 0 255	0 0 255	0 0 255	0 0 255	0 0 255	0 0 255	
0 0 255	0 0 255	0 0 255	0 0 255	0 0 255	0 0 255	0 0 255	0 0 255	0 0 255	0 0 255	0 0 255	0 0 255	0 0 255	0 0 255	0 0 255	0 0 255	0 0 255	0 0 255	0 0 255	0 0 255	0 0 255	0 0 255	0 0 255	0 0 255	0 0 255	0 0 255	0 0 255	0 0 255	0 0 255	0 0 255	0 0 255	0 0 255	0 0 255	0 0 255	0 0 255	0 0 255	0 0 255	0 0 255	0 0 255	0 0 255	0 0 255	0 0 255	0 0 255	0 0 255	0 0 255	0 0 255	0 0 255	0 0 255	0 0 255	0 0 255	0 0 255	0 0 255	0 0 255	0 0 255	0 0 255	0 0 255	0 0 255	0 0 255	0 0 255	0 0 255	0 0 255	0 0 255	0 0 255	0 0 255	0 0 255	0 0 255	0 0 255	0 0 255	0 0 255	0 0 255	0 0 255	0 0 255	0 0 255	0 0 255	0 0 255	0 0 255	0 0 255	0 0 255	0 0 255	0 0 255	0 0 255	0 0 255	0 0 255	0 0 255	0 0 255	0 0 255	0 0 255	0 0 255	0 0 255	0 0 255	0 0 255	0 0 255	0 0 255	0 0 255	0 0 255	0 0 255	0 0 255	0 0 255	0 0 255	0 0 255	0 0 255	0 0 255	0 0 255	0 0 255	0 0 255	0 0 255	0 0 255	0 0 255	0 0 255	0 0 255	0 0 255	0 0 255	0 0 255	0 0 255	0 0 255	0 0 255	0 0 255	0 0 255	0 0 255	0 0 255	0 0 255	0 0 255	0 0 255	0 0 255	0 0 255	0 0 255	0 0 255	0 0 255	0 0 255	0 0 255	0 0 255	0 27 51	0 36 51	0 43 51	0 48 51	0 53 51	0 57 51	0 61 51	0 64 51	0 67 51	0 70 51	0 73 51	0 75 51	0 77 51	0 79 51	0 80 51	0 82 51	0 83 51	0 84 51	0 85 51	0 103 10	0 104 10	0 104 10	0 105 10	0 105 10	0 105 10	0 105 10	0 105 10	0 104 10	0 104 10	0 103 10	0 102 10	0 101 10	0 100 10	0 99 10	0 98 10	0 96 10	0 95 10	0 93 10	0 91 10	0 90 10	0 88 10	0 86 10	0 83 10	0 81 10	0 79 10	0 76 10	0 74 10	0 59 51	0 57 51	0 55 51	0 52 51	0 50 51	0 47 51	0 45 51	0 42 51	0 39 51	0 36 51	0 33 51	0 30 51	0 27 51	0 23 51	0 20 51	0 16 51	0 11 51	0 7 51	0 1 51	0 10 51	0 10 51	0 0 255	0 0 255	0 0 255	0 0 255	0 0 255	0 0 255	0 0 255	0 0 255	0 0 255	0 0 255	0 0 255	0 0 255	0 0 255	0 0 255	0 0 255	0 0 255	0 0 255	0 0 255	0 0 255	0 0 255	0 0 255	0 0 255	0 0 255	0 0 255	0 0 255	0 0 255	0 0 255	0 0 255	0 0 255	0 0 255	0 0 255	0 0 255	0 0 255	0 0 255	0 0 255	0 0 255	0 0 255	0 0 255	0 0 255	0 0 255	0 0 255	0 0 255	0 0 255	0 0 255	0 0 255	0 0 255	0 0 255	0 0 255	0 0 255	0 0 255	0 0 255	0 0 255	0 0 255	0 0 255	0 0 255	0 0 255	0 0 255	
0 0 255	0 0 255	0 0 255	0 0 255	0 0 255	0 0 255	0 0 255	0 0 255	0 0 255	0 0 255	0 0 255	0 0 255	0 0 255	0 0 255	0 0 255	0 0 255	0 0 255	0 0 255	0 0 255	0 0 255	0 0 255	0 0 255	0 0 255	0 0 255	0 0 255	0 0 255	0 0 255	0 0 255	0 0 255	0 0 255	0 0 255	0 0 255	0 0 255	0 0 255	0 0 255	0 0 255	0 0 255	0 0 255	0 0 255	0 0 255	0 0 255	0 0 255	0 0 255	0 0 255	0 0 255	0 0 255	0 0 255	0 0 255	0 0 255	0 0 255	0 0 255	0 0 255	0 0 255	0 0 255	0 0 255	0 0 255	0 0 255	0 0 255	0 0 255	0 0 255	0 0 255	0 0 255	0 0 255	0 0 255	0 0 255	0 0 255	0 0 255	0 0 255	0 0 255	0 0 255	0 0 255	0 0 255	0 0 255	0 0 255	0 0 255	0 0 255	0 0 255	0 0 255	0 0 255	0 0 255	0 0 255	0 0 255	0 0 255	0 0 255	0 0 255	0 0 255	0 0 255	0 0 255	0 0 255	0 0 255	0 0 255	0 0 255	0 0 255	0 0 255	0 0 255	0 0 255	0 0 255	0 0 255	0 0 255	0 0 255	0 0 255	0 0 255	0 0 255	0 0 255	0 0 255	0 0 255	0 0 255	0 0 255	0 0 255	0 0 255	0 0 255	0 0 255	0 0 255	0 0 255	0 0 255	0 0 255	0 0 255	0 0 255	0 0 255	0 0 255	0 0 255	0 0 255	0 0 255	0 0 255	0 0 255	0 0 255	0 0 255	0 0 255	0 0 255	0 0 255	0 25 51	0 35 51	0 42 51	0 47 51	0 52 51	0 57 51	0 61 51	0 64 51	0 67 51	0 70 51	0 73 51	0 75 51	0 78 51	0 79 51	0 81 51	0 83 51	0 84 51	0 85 51	0 104 10	0 105 10	0 106 10	0 106 10	0 107 10	0 107 10	0 107 10	0 107 10	0 107 10	0 107 10	0 107 10	0 106 10	0 105 10	0 105 10	0 104 10	0 102 10	0 101 10	0 100 10	0 98 10	0 97 10	0 95 10	0 94 10	0 92 10	0 90 10	0 88 10	0 86 10	0 83 10	0 81 10	0 79 10	0 76 10	0 74 10	0 71 10	0 57 51	0 54 51	0 52 51	0 49 51	0 47 51	0 44 51	0 41 51	0 38 51	0 35 51	0 32 51	0 29 51	0 26 51	0 22 51	0 18 51	0 14 51	0 10 51	0 5 51	0 0 51	0 10 51	0 10 51	0 0 255	0 0 255	0 0 255	0 0 255	0 0 255	0 0 255	0 0 255	0 0 255	0 0 255	0 0 255	0 0 255	0 0 255	0 0 255	0 0 255	0 0 255	0 0 255	0 0 255	0 0 255	0 0 255	0 0 255	0 0 255	0 0 255	0 0 255	0 0 255	0 0 255	0 0 255	0 0 255	0 0 255	0 0 255	0 0 255	0 0 255	0 0 255	0 0 255	0 0 255	0 0 255	0 0 255	0 0 255	0 0 255	0 0 255	0 0 255	0 0 255	0 0 255	0 0 255	0 0 255	0 0 255	0 0 255	0 0 255	0 0 255	0 0 255	0 0 255	0 0 255	0 0 255	0 0 255	0 0 255	0 0 255	0 0 255	
0 0 255	0 0 255	0 0 255	0 0 255	0 0 255	0 0 255	0 0 255	0 0 255	0 0 255	0 0 255	0 0 255	0 0 255	0 0 255	0 0 255	0 0 255	0 0 255	0 0 255	0 0 255	0 0 255	0 0 255	0 0 255	0 0 255	0 0 255	0 0 255	0 0 255	0 0 255	0 0 255	0 0 255	0 0 255	0 0 255	0 0 255	0 0 255	0 0 255	0 0 255	0 0 255	0 0 255	0 0 255	0 0 255	0 0 255	0 0 255	0 0 255	0 0 255	0 0 255	0 0 255	0 0 255	0 0 255	0 0 255	0 0 255	0 0 255	0 0 255	0 0 255	0 0 255	0 0 255	0 0 255	0 0 255	0 0 255	0 0 255	0 0 255	0 0 255	0 0 255	0 0 255	0 0 255	0 0 255	0 0 255	0 0 255	0 0 255	0 0 255	0 0 255	0 0 255	0 0 255	0 0 255	0 0 255	0 0 255	0 0 255	0 0 255	0 0 255	0 0 255	0 0 255	0 0 255	0 0 255	0 0 255	0 0 255	0 0 255	0 0 255	0 0 255	0 0 255	0 0 255	0 0 255	0 0 255	0 0 255	0 0 255	0 0 255	0 0 255	0 0 255	0 0 255	0 0 255	0 0 255	0 0 255	0 0 255	0 0 255	0 0 255	0 0 255	0 0 255	0 0 255	0 0 255	0 0 255	0 0 255	0 0 255	0 0 255	0 0 255	0 0 255	0 0 255	0 0 255	0 0 255	0 0 255	0 0 255	0 0 255	0 0 255	0 0 255	0 0 255	0 0 255	0 0 255	0 0 255	0 0 255	0 0 255	0 0 255	0 0 255	0 0 255	0 0 255	0 21 51	0 32 51	0 40 51	0 46 51	0 51 51	0 56 51	0 60 51	0 64 51	0 67 51	0 70 51	0 73 51	0 76 51	0 78 51	0 80 51	0 82 51	0 83 51	0 85 51	0 104 10	0 105 10	0 106 10	0 107 10	0 108 10	0 109 10	0 109 10	0 110 10	0 110 10	0 110 10	0 109 10	0 109 10	0 109 10	0 108 10	0 107 10	0 107 10	0 106 10	0 104 10	0 103 10	0 102 10	0 100 10	0 99 10	0 97 10	0 95 10	0 94 10	0 92 10	0 90 10	0 88 10	0 85 10	0 83 10	0 81 10	0 78 10	0 76 10	0 73 10	0 70 10	0 56 51	0 54 51	0 51 51	0 49 51	0 46 51	0 43 51	0 40 51	0 37 51	0 34 51	0 31 51	0 28 51	0 25 51	0 21 51	0 17 51	0 13 51	0 9 51	0 4 51	0 10 51	0 10 51	0 0 255	0 0 255	0 0 255	0 0 255	0 0 255	0 0 255	0 0 255	0 0 255	0 0 255	0 0 255	0 0 255	0 0 255	0 0 255	0 0 255	0 0 255	0 0 255	0 0 255	0 0 255	0 0 255	0 0 255	0 0 255	0 0 255	0 0 255	0 0 255	0 0 255	0 0 255	0 0 255	0 0 255	0 0 255	0 0 255	0 0 255	0 0 255	0 0 255	0 0 255	0 0 255	0 0 255	0 0 255	0 0 255	0 0 255	0 0 255	0 0 255	0 0 255	0 0 255	0 0 255	0 0 255	0 0 255	0 0 255	0 0 255	0 0 255	0 0 255	0 0 255	0 0 255	0 0 255	0 0 255	0 0 255	0 0 255	
0 0 255	0 0 255	0 0 255	0 0 255	0 0 255	0 0 255	0 0 255	0 0 255	0 0 255	0 0 255	0 0 255	0 0 255	0 0 255	0 0 255	0 0 255	0 0 255	0 0 255	0 0 255	0 0 255	0 0 255	0 0 255	0 0 255	0 0 255	0 0 255	0 0 255	0 0 255	0 0 255	0 0 255	0 0 255	0 0 255	0 0 255	0 0 255	0 0 255	0 0 255	0 0 255	0 0 255	0 0 255	0 0 255	0 0 255	0 0 255	0 0 255	0 0 255	0 0 255	0 0 255	0 0 255	0 0 255	0 0 255	0 0 255	0 0 255	0 0 255	0 0 255	0 0 255	0 0 255	0 0 255	0 0 255	0 0 255	0 0 255	0 0 255	0 0 255	0 0 255	0 0 255	0 0 255	0 0 255	0 0 255	0 0 255	0 0 255	0 0 255	0 0 255	0 0 255	0 0 255	0 0 255	0 0 255	0 0 255	0 0 255	0 0 255	0 0 255	0 0 255	0 0 255	0 0 255	0 0 255	0 0 255	0 0 255	0 0 255	0 0 255	0 0 255	0 0 255	0 0 255	0 0 255	0 0 255	0 0 255	0 0 255	0 0 255	0 0 255	0 0 255	0 0 255	0 0 255	0 0 255	0 0 255	0 0 255	0 0 255	0 0 255	0 0 255	0 0 255	0 0 255	0 0 255	0 0 255	0 0 255	0 0 255	0 0 255	0 0 255	0 0 255	0 0 255	0 0 255	0 0 255	0 0 255	0 0 255	0 0 255	0 0 255	0 0 255	0 0 255	0 0 255	0 0 255	0 0 255	0 0 255	0 0 255	0 0 255	0 0 255	0 0 255	0 14 51	0 29 51	0 38 51	0 44 51	0 50 51	0 55 51	0 59 51	0 63 51	0 67 51	0 70 51	0 73 51	0 75 51	0 78 51	0 80 51	0 82 51	0 84 51	0 86 51	0 104 10	0 106 10	0 107 10	0 108 10	0 109 10	0 110 10	0 111 10	0 111 10	0 112 10	0 112 10	0 112 10	0 111 10	0 111 10	0 111 10	0 110 10	0 109 10	0 108 10	0 107 10	0 106 10	0 105 10	0 104 10	0 102 10	0 101 10	0 99 10	0 97 10	0 95 10	0 93 10	0 91 10	0 89 10	0 87 10	0 85 10	0 82 10	0 80 10	0 77 10	0 75 10	0 72 10	0 69 10	0 66 10	0 53 51	0 50 51	0 48 51	0 45 51	0 42 51	0 39 51	0 36 51	0 33 51	0 30 51	0 27 51	0 23 51	0 20 51	0 16 51	0 11 51	0 7 51	0 2 51	0 10 51	0 10 51	0 0 255	0 0 255	0 0 255	0 0 255	0 0 255	0 0 255	0 0 255	0 0 255	0 0 255	0 0 255	0 0 255	0 0 255	0 0 255	0 0 255	0 0 255	0 0 255	0 0 255	0 0 255	0 0 255	0 0 255	0 0 255	0 0 255	0 0 255	0 0 255	0 0 255	0 0 255	0 0 255	0 0 255	0 0 255	0 0 255	0 0 255	0 0 255	0 0 255	0 0 255	0 0 255	0 0 255	0 0 255	0 0 255	0 0 255	0 0 255	0 0 255	0 0 255	0 0 255	0 0 255	0 0 255	0 0 255	0 0 255	0 0 255	0 0 255	0 0 255	0 0 255	0 0 255	0 0 255	0 0 255	0 0 255	
0 0 255	0 0 255	0 0 255	0 0 255	0 0 255	0 0 255	0 0 255	0 0 255	0 0 255	0 0 255	0 0 255	0 0 255	0 0 255	0 0 255	0 0 255	0 0 255	0 0 255	0 0 255	0 0 255	0 0 255	0 0 255	0 0 255	0 0 255	0 0 255	0 0 255	0 0 255	0 0 255	0 0 255	0 0 255	0 0 255	0 0 255	0 0 255	0 0 255	0 0 255	0 0 255	0 0 255	0 0 255	0 0 255	0 0 255	0 0 255	0 0 255	0 0 255	0 0 255	0 0 255	0 0 255	0 0 255	0 0 255	0 0 255	0 0 255	0 0 255	0 0 255	0 0 255	0 0 255	0 0 255	0 0 255	0 0 255	0 0 255	0 0 255	0 0 255	0 0 255	0 0 255	0 0 255	0 0 255	0 0 255	0 0 255	0 0 255	0 0 255	0 0 255	0 0 255	0 0 255	0 0 255	0 0 255	0 0 255	0 0 255	0 0 255	0 0 255	0 0 255	0 0 255	0 0 255	0 0 255	0 0 255	0 0 255	0 0 255	0 0 255	0 0 255	0 0 255	0 0 255	0 0 255	0 0 255	0 0 255	0 0 255	0 0 255	0 0 255	0 0 255	0 0 255	0 0 255	0 0 255	0 0 255	0 0 255	0 0 255	0 0 255	0 0 255	0 0 255	0 0 255	0 0 255	0 0 255	0 0 255	0 0 255	0 0 255	0 0 255	0 0 255	0 0 255	0 0 255	0 0 255	0 0 255	0 0 255	0 0 255	0 0 255	0 0 255	0 0 255	0 0 255	0 0 255	0 0 255	0 0 255	0 0 255	0 0 255	0 0 255	0 0 255	0 25 51	0 35 51	0 42 51	0 48 51	0 53 51	0 58 51	0 62 51	0 66 51	0 69 51	0 72 51	0 75 51	0 78 51	0 80 51	0 82 51	0 84 51	0 86 51	0 105 10	0 107 10	0 108 10	0 109 10	0 110 10	0 111 10	0 112 10	0 113 10	0 113 10	0 113 10	0 113 10	0 113 10	0 113 10	0 113 10	0 112 10	0 112 10	0 111 10	0 110 10	0 109 10	0 108 10	0 107 10	0 105 10	0 104 10	0 102 10	0 101 10	0 99 10	0 97 10	0 95 10	0 93 10	0 91 10	0 89 10	0 86 10	0 84 10	0 82 10	0 79 10	0 76 10	0 74 10	0 71 10	0 68 10	0 65 10	0 52 51	0 49 51	0 46 51	0 44 51	0 41 51	0 38 51	0 35 51	0 32 51	0 29 51	0 25 51	0 22 51	0 18 51	0 14 51	0 10 51	0 5 51	0 5 51	0 10 51	0 10 51	0 0 255	0 0 255	0 0 255	0 0 255	0 0 255	0 0 255	0 0 255	0 0 255	0 0 255	0 0 255	0 0 255	0 0 255	0 0 255	0 0 255	0 0 255	0 0 255	0 0 255	0 0 255	0 0 255	0 0 255	0 0 255	0 0 255	0 0 255	0 0 255	0 0 255	0 0 255	0 0 255	0 0 255	0 0 255	0 0 255	0 0 255	0 0 255	0 0 255	0 0 255	0 0 255	0 0 255	0 0 255	0 0 255	0 0 255	0 0 255	0 0 255	0 0 255	0 0 255	0 0 255	0 0 255	0 0 255	0 0 255	0 0 255	0 0 255	0 0 255	0 0 255	0 0 255	0 0 255	0 0 255	
0 0 255	0 0 255	0 0 255	0 0 255	0 0 255	0 0 255	0 0 255	0 0 255	0 0 255	0 0 255	0 0 255	0 0 255	0 0 255	0 0 255	0 0 255	0 0 255	0 0 255	0 0 255	0 0 255	0 0 255	0 0 255	0 0 255	0 0 255	0 0 255	0 0 255	0 0 255	0 0 255	0 0 255	0 0 255	0 0 255	0 0 255	0 0 255	0 0 255	0 0 255	0 0 255	0 0 255	0 0 255	0 0 255	0 0 255	0 0 255	0 0 255	0 0 255	0 0 255	0 0 255	0 0 255	0 0 255	0 0 255	0 0 255	0 0 255	0 0 255	0 0 255	0 0 255	0 0 255	0 0 255	0 0 255	0 0 255	0 0 255	0 0 255	0 0 255	0 0 255	0 0 255	0 0 255	0 0 255	0 0 255	0 0 255	0 0 255	0 0 255	0 0 255	0 0 255	0 0 255	0 0 255	0 0 255	0 0 255	0 0 255	0 0 255	0 0 255	0 0 255	0 0 255	0 0 255	0 0 255	0 0 255	0 0 255	0 0 255	0 0 255	0 0 255	0 0 255	0 0 255	0 0 255	0 0 255	0 0 255	0 0 255	0 0 255	0 0 255	0 0 255	0 0 255	0 0 255	0 0 255	0 0 255	0 0 255	0 0 255	0 0 255	0 0 255	0 0 255	0 0 255	0 0 255	0 0 255	0 0 255	0 0 255	0 0 255	0 0 255	0 0 255	0 0 255	0 0 255	0 0 255	0 0 255	0 0 255	0 0 255	0 0 255	0 0 255	0 0 255	0 0 255	0 0 255	0 0 255	0 0 255	0 0 255	0 0 255	0 0 255	0 19 51	0 31 51	0 39 51	0 46 51	0 51 51	0 56 51	0 61 51	0 64 51	0 68 51	0 71 51	0 74 51	0 77 51	0 79 51	0 82 51	0 84 51	0 86 51	0 105 10	0 107 10	0 109 10	0 110 10	0 111 10	0 112 10	0 113 10	0 114 10	0 114 10	0 115 10	0 115 10	0 115 10	0 115 10	0 115 10	0 114 10	0 114 10	0 113 10	0 112 10	0 112 10	0 111 10	0 109 10	0 108 10	0 107 10	0 105 10	0 104 10	0 102 10	0 100 10	0 98 10	0 96 10	0 94 10	0 92 10	0 90 10	0 88 10	0 85 10	0 83 10	0 80 10	0 78 10	0 75 10	0 72 10	0 70 10	0 67 10	0 64 10	0 50 51	0 48 51	0 45 51	0 42 51	0 40 51	0 37 51	0 33 51	0 30 51	0 27 51	0 24 51	0 20 51	0 16 51	0 12 51	0 8 51	0 3 51	0 10 51	0 10 51	0 10 51	0 0 255	0 0 255	0 0 255	0 0 255	0 0 255	0 0 255	0 0 255	0 0 255	0 0 255	0 0 255	0 0 255	0 0 255	0 0 255	0 0 255	0 0 255	0 0 255	0 0 255	0 0 255	0 0 255	0 0 255	0 0 255	0 0 255	0 0 255	0 0 255	0 0 255	0 0 255	0 0 255	0 0 255	0 0 255	0 0 255	0 0 255	0 0 255	0 0 255	0 0 255	0 0 255	0 0 255	0 0 255	0 0 255	0 0 255	0 0 255	0 0 255	0 0 255	0 0 255	0 0 255	0 0 255	0 0 255	0 0 255	0 0 255	0 0 255	0 0 255	0 0 255	0 0 255	0 0 255	
0 0 255	0 0 255	0 0 255	0 0 255	0 0 255	0 0 255	0 0 255	0 0 255	0 0 255	0 0 255	0 0 255	0 0 255	0 0 255	0 0 255	0 0 255	0 0 255	0 0 255	0 0 255	0 0 255	0 0 255	0 0 255	0 0 255	0 0 255	0 0 255	0 0 255	0 0 255	0 0 255	0 0 255	0 0 255	0 0 255	0 0 255	0 0 255	0 0 255	0 0 255	0 0 255	0 0 255	0 0 255	0 0 255	0 0 255	0 0 255	0 0 255	0 0 255	0 0 255	0 0 255	0 0 255	0 0 255	0 0 255	0 0 255	0 0 255	0 0 255	0 0 255	0 0 255	0 0 255	0 0 255	0 0 255	0 0 255	0 0 255	0 0 255	0 0 255	0 0 255	0 0 255	0 0 255	0 0 255	0 0 255	0 0 255	0 0 255	0 0 255	0 0 255	0 0 255	0 0 255	0 0 255	0 0 255	0 0 255	0 0 255	0 0 255	0 0 255	0 0 255	0 0 255	0 0 255	0 0 255	0 0 255	0 0 255	0 0 255	0 0 255	0 0 255	0 0 255	0 0 255	0 0 255	0 0 255	0 0 255	0 0 255	0 0 255	0 0 255	0 0 255	0 0 255	0 0 255	0 0 255	0 0 255	0 0 255	0 0 255	0 0 255	0 0 255	0 0 255	0 0 255	0 0 255	0 0 255	0 0 255	0 0 255	0 0 255	0 0 255	0 0 255	0 0 255	0 0 255	0 0 255	0 0 255	0 0 255	0 0 255	0 0 255	0 0 255	0 0 255	0 0 255	0 0 255	0 0 255	0 0 255	0 0 255	0 0 255	0 0 255	0 27 51	0 36 51	0 43 51	0 49 51	0 54 51	0 59 51	0 63 51	0 67 51	0 70 51	0 73 51	0 76 51	0 79 51	0 81 51	0 83 51	0 85 51	0 105 10	0 107 10	0 109 10	0 110 10	0 112 10	0 113 10	0 114 10	0 115 10	0 115 10	0 116 10	0 116 10	0 116 10	0 116 10	0 116 10	0 116 10	0 116 10	0 115 10	0 115 10	0 114 10	0 113 10	0 112 10	0 111 10	0 109 10	0 108 10	0 107 10	0 105 10	0 103 10	0 102 10	0 100 10	0 98 10	0 96 10	0 94 10	0 91 10	0 89 10	0 87 10	0 84 10	0 82 10	0 79 10	0 77 10	0 74 10	0 71 10	0 68 10	0 65 10	0 62 10	0 49 51	0 46 51	0 44 51	0 41 51	0 38 51	0 35 51	0 32 51	0 29 51	0 25 51	0 22 51	0 18 51	0 14 51	0 10 51	0 5 51	0 0 51	0 10 51	0 10 51	0 0 255	0 0 255	0 0 255	0 0 255	0 0 255	0 0 255	0 0 255	0 0 255	0 0 255	0 0 255	0 0 255	0 0 255	0 0 255	0 0 255	0 0 255	0 0 255	0 0 255	0 0 255	0 0 255	0 0 255	0 0 255	0 0 255	0 0 255	0 0 255	0 0 255	0 0 255	0 0 255	0 0 255	0 0 255	0 0 255	0 0 255	0 0 255	0 0 255	0 0 255	0 0 255	0 0 255	0 0 255	0 0 255	0 0 255	0 0 255	0 0 255	0 0 255	0 0 255	0 0 255	0 0 255	0 0 255	0 0 255	0 0 255	0 0 255	0 0 255	0 0 255	0 0 255	0 0 255	
0 0 255	0 0 255	0 0 255	0 0 255	0 0 255	0 0 255	0 0 255	0 0 255	0 0 255	0 0 255	0 0 255	0 0 255	0 0 255	0 0 255	0 0 255	0 0 255	0 0 255	0 0 255	0 0 255	0 0 255	0 0 255	0 0 255	0 0 255	0 0 255	0 0 255	0 0 255	0 0 255	0 0 255	0 0 255	0 0 255	0 0 255	0 0 255	0 0 255	0 0 255	0 0 255	0 0 255	0 0 255	0 0 255	0 0 255	0 0 255	0 0 255	0 0 255	0 0 255	0 0 255	0 0 255	0 0 255	0 0 255	0 0 255	0 0 255	0 0 255	0 0 255	0 0 255	0 0 255	0 0 255	0 0 255	0 0 255	0 0 255	0 0 255	0 0 255	0 0 255	0 0 255	0 0 255	0 0 255	0 0 255	0 0 255	0 0 255	0 0 255	0 0 255	0 0 255	0 0 255	0 0 255	0 0 255	0 0 255	0 0 255	0 0 255	0 0 255	0 0 255	0 0 255	0 0 255	0 0 255	0 0 255	0 0 255	0 0 255	0 0 255	0 0 255	0 0 255	0 0 255	0 0 255	0 0 255	0 0 255	0 0 255	0 0 255	0 0 255	0 0 255	0 0 255	0 0 255	0 0 255	0 0 255	0 0 255	0 0 255	0 0 255	0 0 255	0 0 255	0 0 255	0 0 255	0 0 255	0 0 255	0 0 255	0 0 255	0 0 255	0 0 255	0 0 255	0 0 255	0 0 255	0 0 255	0 0 255	0 0 255	0 0 255	0 0 255	0 0 255	0 0 255	0 0 255	0 0 255	0 0 255	0 0 255	0 0 255	0 20 51	0 32 51	0 40 51	0 46 51	0 52 51	0 57 51	0 61 51	0 65 51	0 69 51	0 72 51	0 75 51	0 78 51	0 80 51	0 83 51	0 85 51	0 104 10	0 107 10	0 108 10	0 110 10	0 112 10	0 113 10	0 114 10	0 115 10	0 116 10	0 117 10	0 117 10	0 118 10	0 118 10	0 118 10	0 118 10	0 117 10	0 117 10	0 116 10	0 116 10	0 115 10	0 114 10	0 113 10	0 112 10	0 111 10	0 109 10	0 108 10	0 106 10	0 104 10	0 103 10	0 101 10	0 99 10	0 97 10	0 95 10	0 93 10	0 90 10	0 88 10	0 85 10	0 83 10	0 80 10	0 78 10	0 75 10	0 72 10	0 69 10	0 67 10	0 63 10	0 60 10	0 48 51	0 45 51	0 42 51	0 39 51	0 36 51	0 33 51	0 30 51	0 27 51	0 23 51	0 20 51	0 16 51	0 12 51	0 8 51	0 3 51	0 10 51	0 10 51	0 10 51	0 0 255	0 0 255	0 0 255	0 0 255	0 0 255	0 0 255	0 0 255	0 0 255	0 0 255	0 0 255	0 0 255	0 0 255	0 0 255	0 0 255	0 0 255	0 0 255	0 0 255	0 0 255	0 0 255	0 0 255	0 0 255	0 0 255	0 0 255	0 0 255	0 0 255	0 0 255	0 0 255	0 0 255	0 0 255	0 0 255	0 0 255	0 0 255	0 0 255	0 0 255	0 0 255	0 0 255	0 0 255	0 0 255	0 0 255	0 0 255	0 0 255	0 0 255	0 0 255	0 0 255	0 0 255	0 0 255	0 0 255	0 0 255	0 0 255	0 0 255	0 0 255	0 0 255	
0 0 255	0 0 255	0 0 255	0 0 255	0 0 255	0 0 255	0 0 255	0 0 255	0 0 255	0 0 255	0 0 255	0 0 255	0 0 255	0 0 255	0 0 255	0 0 255	0 0 255	0 0 255	0 0 255	0 0 255	0 0 255	0 0 255	0 0 255	0 0 255	0 0 255	0 0 255	0 0 255	0 0 255	0 0 255	0 0 255	0 0 255	0 0 255	0 0 255	0 0 255	0 0 255	0 0 255	0 0 255	0 0 255	0 0 255	0 0 255	0 0 255	0 0 255	0 0 255	0 0 255	0 0 255	0 0 255	0 0 255	0 0 255	0 0 255	0 0 255	0 0 255	0 0 255	0 0 255	0 0 255	0 0 255	0 0 255	0 0 255	0 0 255	0 0 255	0 0 255	0 0 255	0 0 255	0 0 255	0 0 255	0 0 255	0 0 255	0 0 255	0 0 255	0 0 255	0 0 255	0 0 255	0 0 255	0 0 255	0 0 255	0 0 255	0 0 255	0 0 255	0 0 255	0 0 255	0 0 255	0 0 255	0 0 255	0 0 255	0 0 255	0 0 255	0 0 255	0 0 255	0 0 255	0 0 255	0 0 255	0 0 255	0 0 255	0 0 255	0 0 255	0 0 255	0 0 255	0 0 255	0 0 255	0 0 255	0 0 255	0 0 255	0 0 255	0 0 255	0 0 255	0 0 255	0 0 255	0 0 255	0 0 255	0 0 255	0 0 255	0 0 255	0 0 255	0 0 255	0 0 255	0 0 255	0 0 255	0 0 255	0 0 255	0 0 255	0 0 255	0 0 255	0 0 255	0 0 255	0 0 255	0 0 255	0 0 255	0 26 51	0 36 51	0 43 51	0 49 51	0 54 51	0 59 51	0 63 51	0 67 51	0 70 51	0 74 51	0 77 51	0 79 51	0 82 51	0 84 51	0 104 10	0 106 10	0 108 10	0 110 10	0 112 10	0 113 10	0 114 10	0 116 10	0 116 10	0 117 10	0 118 10	0 118 10	0 119 10	0 119 10	0 119 10	0 119 10	0 118 10	0 118 10	0 117 10	0 117 10	0 116 10	0 115 10	0 114 10	0 113 10	0 111 10	0 110 10	0 109 10	0 107 10	0 105 10	0 104 10	0 102 10	0 100 10	0 98 10	0 96 10	0 94 10	0 91 10	0 89 10	0 87 10	0 84 10	0 81 10	0 79 10	0 76 10	0 73 10	0 71 10	0 68 10	0 65 10	0 62 10	0 58 10	0 46 51	0 43 51	0 40 51	0 37 51	0 34 51	0 31 51	0 28 51	0 25 51	0 21 51	0 18 51	0 14 51	0 10 51	0 5 51	0 0 51	0 10 51	0 10 51	0 0 255	0 0 255	0 0 255	0 0 255	0 0 255	0 0 255	0 0 255	0 0 255	0 0 255	0 0 255	0 0 255	0 0 255	0 0 255	0 0 255	0 0 255	0 0 255	0 0 255	0 0 255	0 0 255	0 0 255	0 0 255	0 0 255	0 0 255	0 0 255	0 0 255	0 0 255	0 0 255	0 0 255	0 0 255	0 0 255	0 0 255	0 0 255	0 0 255	0 0 255	0 0 255	0 0 255	0 0 255	0 0 255	0 0 255	0 0 255	0 0 255	0 0 255	0 0 255	0 0 255	0 0 255	0 0 255	0 0 255	0 0 255	0 0 255	0 0 255	0 0 255	0 0 255	
0 0 255	0 0 255	0 0 255	0 0 255	0 0 255	0 0 255	0 0 255	0 0 255	0 0 255	0 0 255	0 0 255	0 0 255	0 0 255	0 0 255	0 0 255	0 0 255	0 0 255	0 0 255	0 0 255	0 0 255	0 0 255	0 0 255	0 0 255	0 0 255	0 0 255	0 0 255	0 0 255	0 0 255	0 0 255	0 0 255	0 0 255	0 0 255	0 0 255	0 0 255	0 0 255	0 0 255	0 0 255	0 0 255	0 0 255	0 0 255	0 0 255	0 0 255	0 0 255	0 0 255	0 0 255	0 0 255	0 0 255	0 0 255	0 0 255	0 0 255	0 0 255	0 0 255	0 0 255	0 0 255	0 0 255	0 0 255	0 0 255	0 0 255	0 0 255	0 0 255	0 0 255	0 0 255	0 0 255	0 0 255	0 0 255	0 0 255	0 0 255	0 0 255	0 0 255	0 0 255	0 0 255	0 0 255	0 0 255	0 0 255	0 0 255	0 0 255	0 0 255	0 0 255	0 0 255	0 0 255	0 0 255	0 0 255	0 0 255	0 0 255	0 0 255	0 0 255	0 0 255	0 0 255	0 0 255	0 0 255	0 0 255	0 0 255	0 0 255	0 0 255	0 0 255	0 0 255	0 0 255	0 0 255	0 0 255	0 0 255	0 0 255	0 0 255	0 0 255	0 0 255	0 0 255	0 0 255	0 0 255	0 0 255	0 0 255	0 0 255	0 0 255	0 0 255	0 0 255	0 0 255	0 0 255	0 0 255	0 0 255	0 0 255	0 0 255	0 0 255	0 0 255	0 0 255	0 0 255	0 0 255	0 0 255	0 19 51	0 31 51	0 39 51	0 46 51	0 51 51	0 56 51	0 61 51	0 65 51	0 68 51	0 72 51	0 75 51	0 78 51	0 81 51	0 83 51	0 102 10	0 105 10	0 107 10	0 109 10	0 111 10	0 113 10	0 114 10	0 115 10	0 117 10	0 118 10	0 118 10	0 119 10	0 119 10	0 120 10	0 120 10	0 120 10	0 120 10	0 119 10	0 119 10	0 118 10	0 118 10	0 117 10	0 116 10	0 115 10	0 114 10	0 112 10	0 111 10	0 109 10	0 108 10	0 106 10	0 104 10	0 103 10	0 101 10	0 99 10	0 97 10	0 94 10	0 92 10	0 90 10	0 87 10	0 85 10	0 82 10	0 80 10	0 77 10	0 74 10	0 72 10	0 69 10	0 66 10	0 63 10	0 60 10	0 56 10	0 44 51	0 41 51	0 39 51	0 36 51	0 33 51	0 29 51	0 26 51	0 23 51	0 19 51	0 15 51	0 11 51	0 7 51	0 2 51	0 10 51	0 10 51	0 10 51	0 0 255	0 0 255	0 0 255	0 0 255	0 0 255	0 0 255	0 0 255	0 0 255	0 0 255	0 0 255	0 0 255	0 0 255	0 0 255	0 0 255	0 0 255	0 0 255	0 0 255	0 0 255	0 0 255	0 0 255	0 0 255	0 0 255	0 0 255	0 0 255	0 0 255	0 0 255	0 0 255	0 0 255	0 0 255	0 0 255	0 0 255	0 0 255	0 0 255	0 0 255	0 0 255	0 0 255	0 0 255	0 0 255	0 0 255	0 0 255	0 0 255	0 0 255	0 0 255	0 0 255	0 0 255	0 0 255	0 0 255	0 0 255	0 0 255	0 0 255	0 0 255	
0 0 255	0 0 255	0 0 255	0 0 255	0 0 255	0 0 255	0 0 255	0 0 255	0 0 255	0 0 255	0 0 255	0 0 255	0 0 255	0 0 255	0 0 255	0 0 255	0 0 255	0 0 255	0 0 255	0 0 255	0 0 255	0 0 255	0 0 255	0 0 255	0 0 255	0 0 255	0 0 255	0 0 255	0 0 255	0 0 255	0 0 255	0 0 255	0 0 255	0 0 255	0 0 255	0 0 255	0 0 255	0 0 255	0 0 255	0 0 255	0 0 255	0 0 255	0 0 255	0 0 255	0 0 255	0 0 255	0 0 255	0 0 255	0 0 255	0 0 255	0 0 255	0 0 255	0 0 255	0 0 255	0 0 255	0 0 255	0 0 255	0 0 255	0 0 255	0 0 255	0 0 255	0 0 255	0 0 255	0 0 255	0 0 255	0 0 255	0 0 255	0 0 255	0 0 255	0 0 255	0 0 255	0 0 255	0 0 255	0 0 255	0 0 255	0 0 255	0 0 255	0 0 255	0 0 255	0 0 255	0 0 255	0 0 255	0 0 255	0 0 255	0 0 255	0 0 255	0 0 255	0 0 255	0 0 255	0 0 255	0 0 255	0 0 255	0 0 255	0 0 255	0 0 255	0 0 255	0 0 255	0 0 255	0 0 255	0 0 255	0 0 255	0 0 255	0 0 255	0 0 255	0 0 255	0 0 255	0 0 255	0 0 255	0 0 255	0 0 255	0 0 255	0 0 255	0 0 255	0 0 255	0 0 255	0 0 255	0 0 255	0 0 255	0 0 255	0 0 255	0 0 255	0 0 255	0 0 255	0 0 255	0 0 255	0 25 51	0 34 51	0 42 51	0 48 51	0 53 51	0 58 51	0 62 51	0 66 51	0 70 51	0 73 51	0 76 51	0 79 51	0 82 51	0 84 51	0 104 10	0 106 10	0 108 10	0 110 10	0 112 10	0 114 10	0 115 10	0 116 10	0 117 10	0 118 10	0 119 10	0 120 10	0 120 10	0 120 10	0 120 10	0 120 10	0 120 10	0 120 10	0 120 10	0 119 10	0 118 10	0 117 10	0 116 10	0 115 10	0 114 10	0 113 10	0 112 10	0 110 10	0 109 10	0 107 10	0 105 10	0 103 10	0 101 10	0 99 10	0 97 10	0 95 10	0 93 10	0 91 10	0 88 10	0 86 10	0 83 10	0 81 10	0 78 10	0 75 10	0 72 10	0 70 10	0 67 10	0 64 10	0 61 10	0 57 10	0 54 10	0 42 51	0 39 51	0 37 51	0 34 51	0 30 51	0 27 51	0 24 51	0 20 51	0 17 51	0 13 51	0 9 51	0 4 51	0 5 51	0 10 51	0 10 51	0 10 51	0 0 255	0 0 255	0 0 255	0 0 255	0 0 255	0 0 255	0 0 255	0 0 255	0 0 255	0 0 255	0 0 255	0 0 255	0 0 255	0 0 255	0 0 255	0 0 255	0 0 255	0 0 255	0 0 255	0 0 255	0 0 255	0 0 255	0 0 255	0 0 255	0 0 255	0 0 255	0 0 255	0 0 255	0 0 255	0 0 255	0 0 255	0 0 255	0 0 255	0 0 255	0 0 255	0 0 255	0 0 255	0 0 255	0 0 255	0 0 255	0 0 255	0 0 255	0 0 255	0 0 255	0 0 255	0 0 255	0 0 255	0 0 255	0 0 255	0 0 255	
0 0 255	0 0 255	0 0 255	0 0 255	0 0 255	0 0 255	0 0 255	0 0 255	0 0 255	0 0 255	0 0 255	0 0 255	0 0 255	0 0 255	0 0 255	0 0 255	0 0 255	0 0 255	0 0 255	0 0 255	0 0 255	0 0 255	0 0 255	0 0 255	0 0 255	0 0 255	0 0 255	0 0 255	0 0 255	0 0 255	0 0 255	0 0 255	0 0 255	0 0 255	0 0 255	0 0 255	0 0 255	0 0 255	0 0 255	0 0 255	0 0 255	0 0 255	0 0 255	0 0 255	0 0 255	0 0 255	0 0 255	0 0 255	0 0 255	0 0 255	0 0 255	0 0 255	0 0 255	0 0 255	0 0 255	0 0 255	0 0 255	0 0 255	0 0 255	0 0 255	0 0 255	0 0 255	0 0 255	0 0 255	0 0 255	0 0 255	0 0 255	0 0 255	0 0 255	0 0 255	0 0 255	0 0 255	0 0 255	0 0 255	0 0 255	0 0 255	0 0 255	0 0 255	0 0 255	0 0 255	0 0 255	0 0 255	0 0 255	0 0 255	0 0 255	0 0 255	0 0 255	0 0 255	0 0 255	0 0 255	0 0 255	0 0 255	0 0 255	0 0 255	0 0 255	0 0 255	0 0 255	0 0 255	0 0 255	0 0 255	0 0 255	0 0 255	0 0 255	0 0 255	0 0 255	0 0 255	0 0 255	0 0 255	0 0 255	0 0 255	0 0 255	0 0 255	0 0 255	0 0 255	0 0 255	0 0 255	0 0 255	0 0 255	0 0 255	0 0 255	0 0 255	0 0 255	0 0 255	0 0 255	0 15 51	0 29 51	0 37 51	0 44 51	0 50 51	0 55 51	0 60 51	0 64 51	0 68 51	0 71 51	0 74 51	0 77 51	0 80 51	0 83 51	0 102 10	0 105 10	0 107 10	0 109 10	0 111 10	0 113 10	0 114 10	0 116 10	0 117 10	0 118 10	0 119 10	0 120 10	0 120 10	0 121 10	0 121 10	0 121 10	0 121 10	0 121 10	0 121 10	0 120 10	0 119 10	0 123 2	0 122 2	0 121 2	0 120 2	0 119 2	0 117 2	0 116 2	0 114 2	0 113 2	0 107 10	0 106 10	0 104 10	0 102 10	0 100 10	0 98 10	0 96 10	0 93 10	0 91 10	0 89 10	0 86 10	0 84 10	0 81 10	0 79 10	0 76 10	0 73 10	0 70 10	0 67 10	0 64 10	0 61 10	0 58 10	0 55 10	0 43 51	0 40 51	0 37 51	0 34 51	0 31 51	0 28 51	0 25 51	0 22 51	0 18 51	0 14 51	0 10 51	0 6 51	0 1 51	0 10 51	0 10 51	0 10 51	0 0 255	0 0 255	0 0 255	0 0 255	0 0 255	0 0 255	0 0 255	0 0 255	0 0 255	0 0 255	0 0 255	0 0 255	0 0 255	0 0 255	0 0 255	0 0 255	0 0 255	0 0 255	0 0 255	0 0 255	0 0 255	0 0 255	0 0 255	0 0 255	0 0 255	0 0 255	0 0 255	0 0 255	0 0 255	0 0 255	0 0 255	0 0 255	0 0 255	0 0 255	0 0 255	0 0 255	0 0 255	0 0 255	0 0 255	0 0 255	0 0 255	0 0 255	0 0 255	0 0 255	0 0 255	0 0 255	0 0 255	0 0 255	0 0 255	0 0 255	
0 0 255	0 0 255	0 0 255	0 0 255	0 0 255	0 0 255	0 0 255	0 0 255	0 0 255	0 0 255	0 0 255	0 0 255	0 0 255	0 0 255	0 0 255	0 0 255	0 0 255	0 0 255	0 0 255	0 0 255	0 0 255	0 0 255	0 0 255	0 0 255	0 0 255	0 0 255	0 0 255	0 0 255	0 0 255	0 0 255	0 0 255	0 0 255	0 0 255	0 0 255	0 0 255	0 0 255	0 0 255	0 0 255	0 0 255	0 0 255	0 0 255	0 0 255	0 0 255	0 0 255	0 0 255	0 0 255	0 0 255	0 0 255	0 0 255	0 0 255	0 0 255	0 0 255	0 0 255	0 0 255	0 0 255	0 0 255	0 0 255	0 0 255	0 0 255	0 0 255	0 0 255	0 0 255	0 0 255	0 0 255	0 0 255	0 0 255	0 0 255	0 0 255	0 0 255	0 0 255	0 0 255	0 0 255	0 0 255	0 0 255	0 0 255	0 0 255	0 0 255	0 0 255	0 0 255	0 0 255	0 0 255	0 0 255	0 0 255	0 0 255	0 0 255	0 0 255	0 0 255	0 0 255	0 0 255	0 0 255	0 0 255	0 0 255	0 0 255	0 0 255	0 0 255	0 0 255	0 0 255	0 0 255	0 0 255	0 0 255	0 0 255	0 0 255	0 0 255	0 0 255	0 0 255	0 0 255	0 0 255	0 0 255	0 0 255	0 0 255	0 0 255	0 0 255	0 0 255	0 0 255	0 0 255	0 0 255	0 0 255	0 0 255	0 0 255	0 0 255	0 0 255	0 0 255	0 0 255	0 0 255	0 21 51	0 32 51	0 40 51	0 46 51	0 51 51	0 56 51	0 61 51	0 65 51	0 69 51	0 72 51	0 75 51	0 78 51	0 81 51	0 83 51	0 103 10	0 105 10	0 108 10	0 110 10	0 112 10	0 114 10	0 115 10	0 116 10	0 118 10	0 119 10	0 120 10	0 120 10	0 121 10	0 121 10	0 121 10	0 121 10	0 121 10	0 121 10	0 121 10	0 124 2	0 124 2	0 123 2	0 122 2	0 121 2	0 120 2	0 119 2	0 118 2	0 116 2	0 115 2	0 113 2	0 111 2	0 110 2	0 108 2	0 102 10	0 100 10	0 98 10	0 96 10	0 94 10	0 92 10	0 89 10	0 87 10	0 84 10	0 82 10	0 79 10	0 77 10	0 74 10	0 71 10	0 68 10	0 65 10	0 62 10	0 59 10	0 56 10	0 53 10	0 41 51	0 38 51	0 35 51	0 32 51	0 29 51	0 26 51	0 23 51	0 19 51	0 15 51	0 11 51	0 7 51	0 3 51	0 10 51	0 10 51	0 10 51	0 0 255	0 0 255	0 0 255	0 0 255	0 0 255	0 0 255	0 0 255	0 0 255	0 0 255	0 0 255	0 0 255	0 0 255	0 0 255	0 0 255	0 0 255	0 0 255	0 0 255	0 0 255	0 0 255	0 0 255	0 0 255	0 0 255	0 0 255	0 0 255	0 0 255	0 0 255	0 0 255	0 0 255	0 0 255	0 0 255	0 0 255	0 0 255	0 0 255	0 0 255	0 0 255	0 0 255	0 0 255	0 0 255	0 0 255	0 0 255	0 0 255	0 0 255	0 0 255	0 0 255	0 0 255	0 0 255	0 0 255	0 0 255	0 0 255	0 0 255	
0 0 255	0 0 255	0 0 255	0 0 255	0 0 255	0 0 255	0 0 255	0 0 255	0 0 255	0 0 255	0 0 255	0 0 255	0 0 255	0 0 255	0 0 255	0 0 255	0 0 255	0 0 255	0 0 255	0 0 255	0 0 255	0 0 255	0 0 255	0 0 255	0 0 255	0 0 255	0 0 255	0 0 255	0 0 255	0 0 255	0 0 255	0 0 255	0 0 255	0 0 255	0 0 255	0 0 255	0 0 255	0 0 255	0 0 255	0 0 255	0 0 255	0 0 255	0 0 255	0 0 255	0 0 255	0 0 255	0 0 255	0 0 255	0 0 255	0 0 255	0 0 255	0 0 255	0 0 255	0 0 255	0 0 255	0 0 255	0 0 255	0 0 255	0 0 255	0 0 255	0 0 255	0 0 255	0 0 255	0 0 255	0 0 255	0 0 255	0 0 255	0 0 255	0 0 255	0 0 255	0 0 255	0 0 255	0 0 255	0 0 255	0 0 255	0 0 255	0 0 255	0 0 255	0 0 255	0 0 255	0 0 255	0 0 255	0 0 255	0 0 255	0 0 255	0 0 255	0 0 255	0 0 255	0 0 255	0 0 255	0 0 255	0 0 255	0 0 255	0 0 255	0 0 255	0 0 255	0 0 255	0 0 255	0 0 255	0 0 255	0 0 255	0 0 255	0 0 255	0 0 255	0 0 255	0 0 255	0 0 255	0 0 255	0 0 255	0 0 255	0 0 255	0 0 255	0 0 255	0 0 255	0 0 255	0 0 255	0 0 255	0 0 255	0 0 255	0 0 255	0 0 255	0 0 255	0 0 255	0 4 51	0 25 51	0 34 51	0 42 51	0 48 51	0 53 51	0 58 51	0 62 51	0 66 51	0 70 51	0 73 51	0 76 51	0 79 51	0 81 51	0 101 10	0 104 10	0 106 10	0 108 10	0 110 10	0 112 10	0 114 10	0 116 10	0 117 10	0 118 10	0 119 10	0 120 10	0 121 10	0 121 10	0 121 10	0 122 10	0 122 10	0 122 10	0 126 2	0 125 2	0 125 2	0 124 2	0 123 2	0 123 2	0 122 2	0 120 2	0 119 2	0 118 2	0 117 2	0 115 2	0 113 2	0 112 2	0 110 2	0 108 2	0 106 2	0 104 2	0 99 10	0 96 10	0 94 10	0 92 10	0 90 10	0 87 10	0 85 10	0 82 10	0 80 10	0 77 10	0 74 10	0 71 10	0 69 10	0 66 10	0 63 10	0 60 10	0 57 10	0 53 10	0 50 10	0 39 51	0 36 51	0 33 51	0 30 51	0 27 51	0 23 51	0 20 51	0 16 51	0 13 51	0 9 51	0 4 51	0 5 51	0 10 51	0 10 51	0 10 51	0 0 255	0 0 255	0 0 255	0 0 255	0 0 255	0 0 255	0 0 255	0 0 255	0 0 255	0 0 255	0 0 255	0 0 255	0 0 255	0 0 255	0 0 255	0 0 255	0 0 255	0 0 255	0 0 255	0 0 255	0 0 255	0 0 255	0 0 255	0 0 255	0 0 255	0 0 255	0 0 255	0 0 255	0 0 255	0 0 255	0 0 255	0 0 255	0 0 255	0 0 255	0 0 255	0 0 255	0 0 255	0 0 255	0 0 255	0 0 255	0 0 255	0 0 255	0 0 255	0 0 255	0 0 255	0 0 255	0 0 255	0 0 255	0 0 255	
0 0 255	0 0 255	0 0 255	0 0 255	0 0 255	0 0 255	0 0 255	0 0 255	0 0 255	0 0 255	0 0 255	0 0 255	0 0 255	0 0 255	0 0 255	0 0 255	0 0 255	0 0 255	0 0 255	0 0 255	0 0 255	0 0 255	0 0 255	0 0 255	0 0 255	0 0 255	0 0 255	0 0 255	0 0 255	0 0 255	0 0 255	0 0 255	0 0 255	0 0 255	0 0 255	0 0 255	0 0 255	0 0 255	0 0 255	0 0 255	0 0 255	0 0 255	0 0 255	0 0 255	0 0 255	0 0 255	0 0 255	0 0 255	0 0 255	0 0 255	0 0 255	0 0 255	0 0 255	0 0 255	0 0 255	0 0 255	0 0 255	0 0 255	0 0 255	0 0 255	0 0 255	0 0 255	0 0 255	0 0 255	0 0 255	0 0 255	0 0 255	0 0 255	0 0 255	0 0 255	0 0 255	0 0 255	0 0 255	0 0 255	0 0 255	0 0 255	0 0 255	0 0 255	0 0 255	0 0 255	0 0 255	0 0 255	0 0 255	0 0 255	0 0 255	0 0 255	0 0 255	0 0 255	0 0 255	0 0 255	0 0 255	0 0 255	0 0 255	0 0 255	0 0 255	0 0 255	0 0 255	0 0 255	0 0 255	0 0 255	0 0 255	0 0 255	0 0 255	0 0 255	0 0 255	0 0 255	0 0 255	0 0 255	0 0 255	0 0 255	0 0 255	0 0 255	0 0 255	0 0 255	0 0 255	0 0 255	0 0 255	0 0 255	0 0 255	0 0 255	0 0 255	0 0 255	0 0 255	0 15 51	0 28 51	0 36 51	0 43 51	0 49 51	0 54 51	0 59 51	0 63 51	0 67 51	0 70 51	0 74 51	0 77 51	0 79 51	0 82 51	0 101 10	0 104 10	0 106 10	0 109 10	0 111 10	0 113 10	0 114 10	0 116 10	0 117 10	0 118 10	0 119 10	0 120 10	0 121 10	0 121 10	0 122 10	0 122 10	0 126 2	0 126 2	0 126 2	0 125 2	0 125 2	0 124 2	0 123 2	0 123 2	0 122 2	0 121 2	0 119 2	0 118 2	0 117 2	0 115 2	0 114 2	0 112 2	0 110 2	0 108 2	0 106 2	0 104 2	0 102 2	0 97 10	0 94 10	0 92 10	0 90 10	0 88 10	0 85 10	0 83 10	0 80 10	0 77 10	0 75 10	0 72 10	0 69 10	0 66 10	0 63 10	0 60 10	0 57 10	0 54 10	0 51 10	0 39 51	0 36 51	0 34 51	0 31 51	0 27 51	0 24 51	0 21 51	0 17 51	0 14 51	0 10 51	0 5 51	0 1 51	0 10 51	0 10 51	0 10 51	0 0 255	0 0 255	0 0 255	0 0 255	0 0 255	0 0 255	0 0 255	0 0 255	0 0 255	0 0 255	0 0 255	0 0 255	0 0 255	0 0 255	0 0 255	0 0 255	0 0 255	0 0 255	0 0 255	0 0 255	0 0 255	0 0 255	0 0 255	0 0 255	0 0 255	0 0 255	0 0 255	0 0 255	0 0 255	0 0 255	0 0 255	0 0 255	0 0 255	0 0 255	0 0 255	0 0 255	0 0 255	0 0 255	0 0 255	0 0 255	0 0 255	0 0 255	0 0 255	0 0 255	0 0 255	0 0 255	0 0 255	0 0 255	0 0 255	
0 0 255	0 0 255	0 0 255	0 0 255	0 0 255	0 0 255	0 0 255	0 0 255	0 0 255	0 0 255	0 0 255	0 0 255	0 0 255	0 0 255	0 0 255	0 0 255	0 0 255	0 0 255	0 0 255	0 0 255	0 0 255	0 0 255	0 0 255	0 0 255	0 0 255	0 0 255	0 0 255	0 0 255	0 0 255	0 0 255	0 0 255	0 0 255	0 0 255	0 0 255	0 0 255	0 0 255	0 0 255	0 0 255	0 0 255	0 0 255	0 0 255	0 0 255	0 0 255	0 0 255	0 0 255	0 0 255	0 0 255	0 0 255	0 0 255	0 0 255	0 0 255	0 0 255	0 0 255	0 0 255	0 0 255	0 0 255	0 0 255	0 0 255	0 0 255	0 0 255	0 0 255	0 0 255	0 0 255	0 0 255	0 0 255	0 0 255	0 0 255	0 0 255	0 0 255	0 0 255	0 0 255	0 0 255	0 0 255	0 0 255	0 0 255	0 0 255	0 0 255	0 0 255	0 0 255	0 0 255	0 0 255	0 0 255	0 0 255	0 0 255	0 0 255	0 0 255	0 0 255	0 0 255	0 0 255	0 0 255	0 0 255	0 0 255	0 0 255	0 0 255	0 0 255	0 0 255	0 0 255	0 0 255	0 0 255	0 0 255	0 0 255	0 0 255	0 0 255	0 0 255	0 0 255	0 0 255	0 0 255	0 0 255	0 0 255	0 0 255	0 0 255	0 0 255	0 0 255	0 0 255	0 0 255	0 0 255	0 0 255	0 0 255	0 0 255	0 0 255	0 0 255	0 0 255	0 0 255	0 19 51	0 30 51	0 38 51	0 45 51	0 50 51	0 55 51	0 60 51	0 64 51	0 67 51	0 71 51	0 74 51	0 77 51	0 80 51	0 99 10	0 102 10	0 104 10	0 107 10	0 109 10	0 111 10	0 113 10	0 114 10	0 116 10	0 117 10	0 118 10	0 119 10	0 120 10	0 121 10	0 121 10	0 122 10	0 126 2	0 126 2	0 126 2	0 126 2	0 125 2	0 125 2	0 124 2	0 123 2	0 123 2	0 122 2	0 121 2	0 119 2	0 118 2	0 117 2	0 115 2	0 114 2	0 112 2	0 110 2	0 108 2	0 106 2	0 104 2	0 102 2	0 100 2	0 95 10	0 92 10	0 90 10	0 88 10	0 85 10	0 83 10	0 80 10	0 78 10	0 75 10	0 72 10	0 69 10	0 66 10	0 64 10	0 61 10	0 57 10	0 54 10	0 51 10	0 48 10	0 37 51	0 34 51	0 31 51	0 28 51	0 25 51	0 21 51	0 18 51	0 14 51	0 11 51	0 6 51	0 2 51	0 10 51	0 10 51	0 10 51	0 10 51	0 0 255	0 0 255	0 0 255	0 0 255	0 0 255	0 0 255	0 0 255	0 0 255	0 0 255	0 0 255	0 0 255	0 0 255	0 0 255	0 0 255	0 0 255	0 0 255	0 0 255	0 0 255	0 0 255	0 0 255	0 0 255	0 0 255	0 0 255	0 0 255	0 0 255	0 0 255	0 0 255	0 0 255	0 0 255	0 0 255	0 0 255	0 0 255	0 0 255	0 0 255	0 0 255	0 0 255	0 0 255	0 0 255	0 0 255	0 0 255	0 0 255	0 0 255	0 0 255	0 0 255	0 0 255	0 0 255	0 0 255	0 0 255	
0 0 255	0 0 255	0 0 255	0 0 255	0 0 255	0 0 255	0 0 255	0 0 255	0 0 255	0 0 255	0 0 255	0 0 255	0 0 255	0 0 255	0 0 255	0 0 255	0 0 255	0 0 255	0 0 255	0 0 255	0 0 255	0 0 255	0 0 255	0 0 255	0 0 255	0 0 255	0 0 255	0 0 255	0 0 255	0 0 255	0 0 255	0 0 255	0 0 255	0 0 255	0 0 255	0 0 255	0 0 255	0 0 255	0 0 255	0 0 255	0 0 255	0 0 255	0 0 255	0 0 255	0 0 255	0 0 255	0 0 255	0 0 255	0 0 255	0 0 255	0 0 255	0 0 255	0 0 255	0 0 255	0 0 255	0 0 255	0 0 255	0 0 255	0 0 255	0 0 255	0 0 255	0 0 255	0 0 255	0 0 255	0 0 255	0 0 255	0 0 255	0 0 255	0 0 255	0 0 255	0 0 255	0 0 255	0 0 255	0 0 255	0 0 255	0 0 255	0 0 255	0 0 255	0 0 255	0 0 255	0 0 255	0 0 255	0 0 255	0 0 255	0 0 255	0 0 255	0 0 255	0 0 255	0 0 255	0 0 255	0 0 255	0 0 255	0 0 255	0 0 255	0 0 255	0 0 255	0 0 255	0 0 255	0 0 255	0 0 255	0 0 255	0 0 255	0 0 255	0 0 255	0 0 255	0 0 255	0 0 255	0 0 255	0 0 255	0 0 255	0 0 255	0 0 255	0 0 255	0 0 255	0 0 255	0 0 255	0 0 255	0 0 255	0 0 255	0 0 255	0 0 255	0 0 255	0 0 255	0 22 51	0 32 51	0 39 51	0 46 51	0 51 51	0 56 51	0 60 51	0 64 51	0 68 51	0 71 51	0 74 51	0 77 51	0 80 51	0 99 10	0 102 10	0 105 10	0 107 10	0 109 10	0 111 10	0 113 10	0 114 10	0 116 10	0 117 10	0 118 10	0 119 10	0 120 10	0 121 10	0 121 10	0 126 2	0 126 2	0 126 2	0 126 2	0 125 2	0 125 2	0 125 2	0 124 2	0 123 2	0 122 2	0 121 2	0 120 2	0 119 2	0 118 2	0 117 2	0 115 2	0 113 2	0 112 2	0 110 2	0 108 2	0 106 2	0 104 2	0 102 2	0 100 2	0 98 2	0 92 10	0 90 10	0 88 10	0 85 10	0 83 10	0 80 10	0 78 10	0 75 10	0 72 10	0 70 10	0 67 10	0 64 10	0 61 10	0 58 10	0 55 10	0 51 10	0 48 10	0 37 51	0 34 51	0 31 51	0 28 51	0 25 51	0 22 51	0 19 51	0 15 51	0 11 51	0 7 51	0 3 51	0 10 51	0 10 51	0 10 51	0 10 51	0 0 255	0 0 255	0 0 255	0 0 255	0 0 255	0 0 255	0 0 255	0 0 255	0 0 255	0 0 255	0 0 255	0 0 255	0 0 255	0 0 255	0 0 255	0 0 255	0 0 255	0 0 255	0 0 255	0 0 255	0 0 255	0 0 255	0 0 255	0 0 255	0 0 255	0 0 255	0 0 255	0 0 255	0 0 255	0 0 255	0 0 255	0 0 255	0 0 255	0 0 255	0 0 255	0 0 255	0 0 255	0 0 255	0 0 255	0 0 255	0 0 255	0 0 255	0 0 255	0 0 255	0 0 255	0 0 255	0 0 255	0 0 255	
0 0 255	0 0 255	0 0 255	0 0 255	0 0 255	0 0 255	0 0 255	0 0 255	0 0 255	0 0 255	0 0 255	0 0 255	0 0 255	0 0 255	0 0 255	0 0 255	0 0 255	0 0 255	0 0 255	0 0 255	0 0 255	0 0 255	0 0 255	0 0 255	0 0 255	0 0 255	0 0 255	0 0 255	0 0 255	0 0 255	0 0 255	0 0 255	0 0 255	0 0 255	0 0 255	0 0 255	0 0 255	0 0 255	0 0 255	0 0 255	0 0 255	0 0 255	0 0 255	0 0 255	0 0 255	0 0 255	0 0 255	0 0 255	0 0 255	0 0 255	0 0 255	0 0 255	0 0 255	0 0 255	0 0 255	0 0 255	0 0 255	0 0 255	0 0 255	0 0 255	0 0 255	0 0 255	0 0 255	0 0 255	0 0 255	0 0 255	0 0 255	0 0 255	0 0 255	0 0 255	0 0 255	0 0 255	0 0 255	0 0 255	0 0 255	0 0 255	0 0 255	0 0 255	0 0 255	0 0 255	0 0 255	0 0 255	0 0 255	0 0 255	0 0 255	0 0 255	0 0 255	0 0 255	0 0 255	0 0 255	0 0 255	0 0 255	0 0 255	0 0 255	0 0 255	0 0 255	0 0 255	0 0 255	0 0 255	0 0 255	0 0 255	0 0 255	0 0 255	0 0 255	0 0 255	0 0 255	0 0 255	0 0 255	0 0 255	0 0 255	0 0 255	0 0 255	0 0 255	0 0 255	0 0 255	0 0 255	0 0 255	0 0 255	0 0 255	0 0 255	0 0 255	0 0 255	0 9 51	0 25 51	0 34 51	0 41 51	0 46 51	0 52 51	0 56 51	0 61 51	0 65 51	0 68 51	0 71 51	0 75 51	0 77 51	0 96 10	0 99 10	0 102 10	0 105 10	0 107 10	0 109 10	0 111 10	0 113 10	0 114 10	0 116 10	0 117 10	0 118 10	0 119 10	0 120 10	0 120 10	0 121 10	0 125 2	0 125 2	0 125 2	0 125 2	0 125 2	0 125 2	0 124 2	0 124 2	0 123 2	0 122 2	0 121 2	0 120 2	0 119 2	0 118 2	0 116 2	0 115 2	0 113 2	0 112 2	0 110 2	0 108 2	0 106 2	0 104 2	0 102 2	0 100 2	0 98 2	0 95 2	0 90 10	0 88 10	0 85 10	0 83 10	0 80 10	0 78 10	0 75 10	0 72 10	0 70 10	0 67 10	0 64 10	0 61 10	0 58 10	0 55 10	0 52 10	0 49 10	0 45 10	0 35 51	0 32 51	0 29 51	0 26 51	0 23 51	0 19 51	0 16 51	0 12 51	0 8 51	0 4 51	0 5 51	0 10 51	0 10 51	0 10 51	0 0 255	0 0 255	0 0 255	0 0 255	0 0 255	0 0 255	0 0 255	0 0 255	0 0 255	0 0 255	0 0 255	0 0 255	0 0 255	0 0 255	0 0 255	0 0 255	0 0 255	0 0 255	0 0 255	0 0 255	0 0 255	0 0 255	0 0 255	0 0 255	0 0 255	0 0 255	0 0 255	0 0 255	0 0 255	0 0 255	0 0 255	0 0 255	0 0 255	0 0 255	0 0 255	0 0 255	0 0 255	0 0 255	0 0 255	0 0 255	0 0 255	0 0 255	0 0 255	0 0 255	0 0 255	0 0 255	0 0 255	0 0 255	
0 0 255	0 0 255	0 0 255	0 0 255	0 0 255	0 0 255	0 0 255	0 0 255	0 0 255	0 0 255	0 0 255	0 0 255	0 0 255	0 0 255	0 0 255	0 0 255	0 0 255	0 0 255	0 0 255	0 0 255	0 0 255	0 0 255	0 0 255	0 0 255	0 0 255	0 0 255	0 0 255	0 0 255	0 0 255	0 0 255	0 0 255	0 0 255	0 0 255	0 0 255	0 0 255	0 0 255	0 0 255	0 0 255	0 0 255	0 0 255	0 0 255	0 0 255	0 0 255	0 0 255	0 0 255	0 0 255	0 0 255	0 0 255	0 0 255	0 0 255	0 0 255	0 0 255	0 0 255	0 0 255	0 0 255	0 0 255	0 0 255	0 0 255	0 0 255	0 0 255	0 0 255	0 0 255	0 0 255	0 0 255	0 0 255	0 0 255	0 0 255	0 0 255	0 0 255	0 0 255	0 0 255	0 0 255	0 0 255	0 0 255	0 0 255	0 0 255	0 0 255	0 0 255	0 0 255	0 0 255	0 0 255	0 0 255	0 0 255	0 0 255	0 0 255	0 0 255	0 0 255	0 0 255	0 0 255	0 0 255	0 0 255	0 0 255	0 0 255	0 0 255	0 0 255	0 0 255	0 0 255	0 0 255	0 0 255	0 0 255	0 0 255	0 0 255	0 0 255	0 0 255	0 0 255	0 0 255	0 0 255	0 0 255	0 0 255	0 0 255	0 0 255	0 0 255	0 0 255	0 0 255	0 0 255	0 0 255	0 0 255	0 0 255	0 0 255	0 0 255	0 0 255	0 0 255	0 14 51	0 26 51	0 35 51	0 41 51	0 47 51	0 52 51	0 57 51	0 61 51	0 65 51	0 68 51	0 72 51	0 75 51	0 77 51	0 96 10	0 99 10	0 102 10	0 104 10	0 107 10	0 109 10	0 111 10	0 112 10	0 114 10	0 115 10	0 117 10	0 118 10	0 119 10	0 119 10	0 120 10	0 125 2	0 125 2	0 125 2	0 125 2	0 125 2	0 125 2	0 124 2	0 124 2	0 123 2	0 123 2	0 122 2	0 121 2	0 120 2	0 119 2	0 117 2	0 116 2	0 114 2	0 113 2	0 111 2	0 109 2	0 108 2	0 106 2	0 104 2	0 102 2	0 100 2	0 97 2	0 95 2	0 93 2	0 88 10	0 85 10	0 83 10	0 80 10	0 78 10	0 75 10	0 72 10	0 70 10	0 67 10	0 64 10	0 61 10	0 58 10	0 55 10	0 52 10	0 49 10	0 45 10	0 35 51	0 32 51	0 29 51	0 26 51	0 23 51	0 20 51	0 16 51	0 13 51	0 9 51	0 5 51	0 0 51	0 10 51	0 10 51	0 10 51	0 10 51	0 0 255	0 0 255	0 0 255	0 0 255	0 0 255	0 0 255	0 0 255	0 0 255	0 0 255	0 0 255	0 0 255	0 0 255	0 0 255	0 0 255	0 0 255	0 0 255	0 0 255	0 0 255	0 0 255	0 0 255	0 0 255	0 0 255	0 0 255	0 0 255	0 0 255	0 0 255	0 0 255	0 0 255	0 0 255	0 0 255	0 0 255	0 0 255	0 0 255	0 0 255	0 0 255	0 0 255	0 0 255	0 0 255	0 0 255	0 0 255	0 0 255	0 0 255	0 0 255	0 0 255	0 0 255	0 0 255	0 0 255	
0 0 255	0 0 255	0 0 255	0 0 255	0 0 255	0 0 255	0 0 255	0 0 255	0 0 255	0 0 255	0 0 255	0 0 255	0 0 255	0 0 255	0 0 255	0 0 255	0 0 255	0 0 255	0 0 255	0 0 255	0 0 255	0 0 255	0 0 255	0 0 255	0 0 255	0 0 255	0 0 255	0 0 255	0 0 255	0 0 255	0 0 255	0 0 255	0 0 255	0 0 255	0 0 255	0 0 255	0 0 255	0 0 255	0 0 255	0 0 255	0 0 255	0 0 255	0 0 255	0 0 255	0 0 255	0 0 255	0 0 255	0 0 255	0 0 255	0 0 255	0 0 255	0 0 255	0 0 255	0 0 255	0 0 255	0 0 255	0 0 255	0 0 255	0 0 255	0 0 255	0 0 255	0 0 255	0 0 255	0 0 255	0 0 255	0 0 255	0 0 255	0 0 255	0 0 255	0 0 255	0 0 255	0 0 255	0 0 255	0 0 255	0 0 255	0 0 255	0 0 255	0 0 255	0 0 255	0 0 255	0 0 255	0 0 255	0 0 255	0 0 255	0 0 255	0 0 255	0 0 255	0 0 255	0 0 255	0 0 255	0 0 255	0 0 255	0 0 255	0 0 255	0 0 255	0 0 255	0 0 255	0 0 255	0 0 255	0 0 255	0 0 255	0 0 255	0 0 255	0 0 255	0 0 255	0 0 255	0 0 255	0 0 255	0 0 255	0 0 255	0 0 255	0 0 255	0 0 255	0 0 255	0 0 255	0 0 255	0 0 255	0 0 255	0 0 255	0 0 255	0 0 255	0 0 255	0 16 51	0 28 51	0 35 51	0 42 51	0 48 51	0 52 51	0 57 51	0 61 51	0 65 51	0 68 51	0 72 51	0 75 51	0 77 51	0 96 10	0 99 10	0 102 10	0 104 10	0 106 10	0 108 10	0 110 10	0 112 10	0 114 10	0 115 10	0 116 10	0 117 10	0 118 10	0 119 10	0 123 2	0 124 2	0 124 2	0 124 2	0 125 2	0 124 2	0 124 2	0 124 2	0 123 2	0 123 2	0 122 2	0 121 2	0 121 0	0 120 0	0 119 0	0 117 0	0 116 0	0 115 0	0 112 2	0 111 2	0 109 2	0 107 2	0 105 2	0 103 2	0 101 2	0 99 2	0 97 2	0 95 2	0 93 2	0 90 2	0 85 10	0 83 10	0 80 10	0 78 10	0 75 10	0 72 10	0 70 10	0 67 10	0 64 10	0 61 10	0 58 10	0 55 10	0 52 10	0 49 10	0 46 10	0 35 51	0 32 51	0 29 51	0 26 51	0 23 51	0 20 51	0 17 51	0 13 51	0 9 51	0 5 51	0 1 51	0 10 51	0 10 51	0 10 51	0 10 51	0 0 255	0 0 255	0 0 255	0 0 255	0 0 255	0 0 255	0 0 255	0 0 255	0 0 255	0 0 255	0 0 255	0 0 255	0 0 255	0 0 255	0 0 255	0 0 255	0 0 255	0 0 255	0 0 255	0 0 255	0 0 255	0 0 255	0 0 255	0 0 255	0 0 255	0 0 255	0 0 255	0 0 255	0 0 255	0 0 255	0 0 255	0 0 255	0 0 255	0 0 255	0 0 255	0 0 255	0 0 255	0 0 255	0 0 255	0 0 255	0 0 255	0 0 255	0 0 255	0 0 255	0 0 255	0 0 255	0 0 255	
0 0 255	0 0 255	0 0 255	0 0 255	0 0 255	0 0 255	0 0 255	0 0 255	0 0 255	0 0 255	0 0 255	0 0 255	0 0 255	0 0 255	0 0 255	0 0 255	0 0 255	0 0 255	0 0 255	0 0 255	0 0 255	0 0 255	0 0 255	0 0 255	0 0 255	0 0 255	0 0 255	0 0 255	0 0 255	0 0 255	0 0 255	0 0 255	0 0 255	0 0 255	0 0 255	0 0 255	0 0 255	0 0 255	0 0 255	0 0 255	0 0 255	0 0 255	0 0 255	0 0 255	0 0 255	0 0 255	0 0 255	0 0 255	0 0 255	0 0 255	0 0 255	0 0 255	0 0 255	0 0 255	0 0 255	0 0 255	0 0 255	0 0 255	0 0 255	0 0 255	0 0 255	0 0 255	0 0 255	0 0 255	0 0 255	0 0 255	0 0 255	0 0 255	0 0 255	0 0 255	0 0 255	0 0 255	0 0 255	0 0 255	0 0 255	0 0 255	0 0 255	0 0 255	0 0 255	0 0 255	0 0 255	0 0 255	0 0 255	0 0 255	0 0 255	0 0 255	0 0 255	0 0 255	0 0 255	0 0 255	0 0 255	0 0 255	0 0 255	0 0 255	0 0 255	0 0 255	0 0 255	0 0 255	0 0 255	0 0 255	0 0 255	0 0 255	0 0 255	0 0 255	0 0 255	0 0 255	0 0 255	0 0 255	0 0 255	0 0 255	0 0 255	0 0 255	0 0 255	0 0 255	0 0 255	0 0 255	0 0 255	0 0 255	0 0 255	0 0 255	0 0 255	0 0 255	0 18 51	0 29 51	0 36 51	0 42 51	0 48 51	0 53 51	0 57 51	0 61 51	0 65 51	0 68 51	0 71 51	0 74 51	0 77 51	0 96 10	0 99 10	0 101 10	0 104 10	0 106 10	0 108 10	0 110 10	0 112 10	0 113 10	0 114 10	0 116 10	0 117 10	0 118 10	0 118 10	0 123 2	0 123 2	0 124 2	0 124 2	0 124 2	0 124 2	0 123 2	0 123 2	0 123 2	0 122 2	0 122 0	0 121 0	0 120 0	0 119 0	0 118 0	0 117 0	0 116 0	0 114 0	0 113 0	0 111 0	0 109 2	0 107 2	0 105 2	0 103 2	0 101 2	0 99 2	0 97 2	0 94 2	0 92 2	0 90 2	0 85 10	0 82 10	0 80 10	0 77 10	0 75 10	0 72 10	0 69 10	0 67 10	0 64 10	0 61 10	0 58 10	0 55 10	0 52 10	0 49 10	0 46 10	0 42 10	0 32 51	0 29 51	0 26 51	0 23 51	0 20 51	0 17 51	0 13 51	0 10 51	0 6 51	0 2 51	0 10 51	0 10 51	0 10 51	0 10 51	0 0 255	0 0 255	0 0 255	0 0 255	0 0 255	0 0 255	0 0 255	0 0 255	0 0 255	0 0 255	0 0 255	0 0 255	0 0 255	0 0 255	0 0 255	0 0 255	0 0 255	0 0 255	0 0 255	0 0 255	0 0 255	0 0 255	0 0 255	0 0 255	0 0 255	0 0 255	0 0 255	0 0 255	0 0 255	0 0 255	0 0 255	0 0 255	0 0 255	0 0 255	0 0 255	0 0 255	0 0 255	0 0 255	0 0 255	0 0 255	0 0 255	0 0 255	0 0 255	0 0 255	0 0 255	0 0 255	0 0 255	
0 0 255	0 0 255	0 0 255	0 0 255	0 0 255	0 0 255	0 0 255	0 0 255	0 0 255	0 0 255	0 0 255	0 0 255	0 0 255	0 0 255	0 0 255	0 0 255	0 0 255	0 0 255	0 0 255	0 0 255	0 0 255	0 0 255	0 0 255	0 0 255	0 0 255	0 0 255	0 0 255	0 0 255	0 0 255	0 0 255	0 0 255	0 0 255	0 0 255	0 0 255	0 0 255	0 0 255	0 0 255	0 0 255	0 0 255	0 0 255	0 0 255	0 0 255	0 0 255	0 0 255	0 0 255	0 0 255	0 0 255	0 0 255	0 0 255	0 0 255	0 0 255	0 0 255	0 0 255	0 0 255	0 0 255	0 0 255	0 0 255	0 0 255	0 0 255	0 0 255	0 0 255	0 0 255	0 0 255	0 0 255	0 0 255	0 0 255	0 0 255	0 0 255	0 0 255	0 0 255	0 0 255	0 0 255	0 0 255	0 0 255	0 0 255	0 0 255	0 0 255	0 0 255	0 0 255	0 0 255	0 0 255	0 0 255	0 0 255	0 0 255	0 0 255	0 0 255	0 0 255	0 0 255	0 0 255	0 0 255	0 0 255	0 0 255	0 0 255	0 0 255	0 0 255	0 0 255	0 0 255	0 0 255	0 0 255	0 0 255	0 0 255	0 0 255	0 0 255	0 0 255	0 0 255	0 0 255	0 0 255	0 0 255	0 0 255	0 0 255	0 0 255	0 0 255	0 0 255	0 0 255	0 0 255	0 0 255	0 0 255	0 0 255	0 0 255	0 0 255	0 0 255	0 0 255	0 20 51	0 29 51	0 36 51	0 43 51	0 48 51	0 53 51	0 57 51	0 61 51	0 65 51	0 68 51	0 71 51	0 74 51	0 92 10	0 95 10	0 98 10	0 101 10	0 103 10	0 105 10	0 107 10	0 109 10	0 111 10	0 112 10	0 114 10	0 115 10	0 116 10	0 117 10	0 117 10	0 122 2	0 122 2	0 123 2	0 123 2	0 123 2	0 123 2	0 123 2	0 122 2	0 122 2	0 122 0	0 121 0	0 121 0	0 120 0	0 119 0	0 117 0	0 116 0	0 115 0	0 113 0	0 112 0	0 110 0	0 109 0	0 106 2	0 104 2	0 102 2	0 100 2	0 98 2	0 96 2	0 94 2	0 92 2	0 89 2	0 87 2	0 82 10	0 79 10	0 77 10	0 74 10	0 72 10	0 69 10	0 66 10	0 64 10	0 61 10	0 58 10	0 55 10	0 52 10	0 49 10	0 46 10	0 42 10	0 32 51	0 29 51	0 27 51	0 23 51	0 20 51	0 17 51	0 14 51	0 10 51	0 6 51	0 2 51	0 10 51	0 10 51	0 10 51	0 10 51	0 0 255	0 0 255	0 0 255	0 0 255	0 0 255	0 0 255	0 0 255	0 0 255	0 0 255	0 0 255	0 0 255	0 0 255	0 0 255	0 0 255	0 0 255	0 0 255	0 0 255	0 0 255	0 0 255	0 0 255	0 0 255	0 0 255	0 0 255	0 0 255	0 0 255	0 0 255	0 0 255	0 0 255	0 0 255	0 0 255	0 0 255	0 0 255	0 0 255	0 0 255	0 0 255	0 0 255	0 0 255	0 0 255	0 0 255	0 0 255	0 0 255	0 0 255	0 0 255	0 0 255	0 0 255	0 0 255	0 0 255	
0 0 255	0 0 255	0 0 255	0 0 255	0 0 255	0 0 255	0 0 255	0 0 255	0 0 255	0 0 255	0 0 255	0 0 255	0 0 255	0 0 255	0 0 255	0 0 255	0 0 255	0 0 255	0 0 255	0 0 255	0 0 255	0 0 255	0 0 255	0 0 255	0 0 255	0 0 255	0 0 255	0 0 255	0 0 255	0 0 255	0 0 255	0 0 255	0 0 255	0 0 255	0 0 255	0 0 255	0 0 255	0 0 255	0 0 255	0 0 255	0 0 255	0 0 255	0 0 255	0 0 255	0 0 255	0 0 255	0 0 255	0 0 255	0 0 255	0 0 255	0 0 255	0 0 255	0 0 255	0 0 255	0 0 255	0 0 255	0 0 255	0 0 255	0 0 255	0 0 255	0 0 255	0 0 255	0 0 255	0 0 255	0 0 255	0 0 255	0 0 255	0 0 255	0 0 255	0 0 255	0 0 255	0 0 255	0 0 255	0 0 255	0 0 255	0 0 255	0 0 255	0 0 255	0 0 255	0 0 255	0 0 255	0 0 255	0 0 255	0 0 255	0 0 255	0 0 255	0 0 255	0 0 255	0 0 255	0 0 255	0 0 255	0 0 255	0 0 255	0 0 255	0 0 255	0 0 255	0 0 255	0 0 255	0 0 255	0 0 255	0 0 255	0 0 255	0 0 255	0 0 255	0 0 255	0 0 255	0 0 255	0 0 255	0 0 255	0 0 255	0 0 255	0 0 255	0 0 255	0 0 255	0 0 255	0 0 255	0 0 255	0 0 255	0 0 255	0 0 255	0 0 255	0 1 51	0 20 51	0 30 51	0 37 51	0 43 51	0 48 51	0 53 51	0 57 51	0 61 51	0 64 51	0 68 51	0 71 51	0 74 51	0 92 10	0 95 10	0 97 10	0 100 10	0 102 10	0 105 10	0 107 10	0 108 10	0 110 10	0 112 10	0 113 10	0 114 10	0 115 10	0 116 10	0 121 2	0 121 2	0 122 2	0 122 2	0 122 2	0 122 2	0 122 2	0 122 2	0 121 2	0 122 0	0 121 0	0 120 0	0 120 0	0 119 0	0 118 0	0 117 0	0 115 0	0 114 0	0 113 0	0 111 0	0 109 0	0 108 0	0 106 0	0 104 2	0 102 2	0 100 2	0 98 2	0 96 2	0 93 2	0 91 2	0 89 2	0 86 2	0 81 10	0 79 10	0 76 10	0 74 10	0 71 10	0 69 10	0 66 10	0 63 10	0 60 10	0 58 10	0 55 10	0 52 10	0 49 10	0 45 10	0 42 10	0 32 51	0 29 51	0 27 51	0 23 51	0 20 51	0 17 51	0 14 51	0 10 51	0 6 51	0 2 51	0 10 51	0 10 51	0 10 51	0 10 51	0 10 51	0 0 255	0 0 255	0 0 255	0 0 255	0 0 255	0 0 255	0 0 255	0 0 255	0 0 255	0 0 255	0 0 255	0 0 255	0 0 255	0 0 255	0 0 255	0 0 255	0 0 255	0 0 255	0 0 255	0 0 255	0 0 255	0 0 255	0 0 255	0 0 255	0 0 255	0 0 255	0 0 255	0 0 255	0 0 255	0 0 255	0 0 255	0 0 255	0 0 255	0 0 255	0 0 255	0 0 255	0 0 255	0 0 255	0 0 255	0 0 255	0 0 255	0 0 255	0 0 255	0 0 255	0 0 255	0 0 255	
0 0 255	0 0 255	0 0 255	0 0 255	0 0 255	0 0 255	0 0 255	0 0 255	0 0 255	0 0 255	0 0 255	0 0 255	0 0 255	0 0 255	0 0 255	0 0 255	0 0 255	0 0 255	0 0 255	0 0 255	0 0 255	0 0 255	0 0 255	0 0 255	0 0 255	0 0 255	0 0 255	0 0 255	0 0 255	0 0 255	0 0 255	0 0 255	0 0 255	0 0 255	0 0 255	0 0 255	0 0 255	0 0 255	0 0 255	0 0 255	0 0 255	0 0 255	0 0 255	0 0 255	0 0 255	0 0 255	0 0 255	0 0 255	0 0 255	0 0 255	0 0 255	0 0 255	0 0 255	0 0 255	0 0 255	0 0 255	0 0 255	0 0 255	0 0 255	0 0 255	0 0 255	0 0 255	0 0 255	0 0 255	0 0 255	0 0 255	0 0 255	0 0 255	0 0 255	0 0 255	0 0 255	0 0 255	0 0 255	0 0 255	0 0 255	0 0 255	0 0 255	0 0 255	0 0 255	0 0 255	0 0 255	0 0 255	0 0 255	0 0 255	0 0 255	0 0 255	0 0 255	0 0 255	0 0 255	0 0 255	0 0 255	0 0 255	0 0 255	0 0 255	0 0 255	0 0 255	0 0 255	0 0 255	0 0 255	0 0 255	0 0 255	0 0 255	0 0 255	0 0 255	0 0 255	0 0 255	0 0 255	0 0 255	0 0 255	0 0 255	0 0 255	0 0 255	0 0 255	0 0 255	0 0 255	0 0 255	0 0 255	0 0 255	0 0 255	0 0 255	0 0 255	0 5 51	0 21 51	0 30 51	0 37 51	0 42 51	0 48 51	0 52 51	0 56 51	0 60 51	0 64 51	0 67 51	0 70 51	0 73 51	0 91 10	0 94 10	0 97 10	0 99 10	0 102 10	0 104 10	0 106 10	0 107 10	0 109 10	0 111 10	0 112 10	0 113 10	0 114 10	0 115 10	0 119 2	0 120 2	0 121 2	0 121 2	0 121 2	0 121 2	0 121 2	0 121 2	0 121 0	0 121 0	0 120 0	0 119 0	0 119 0	0 118 0	0 117 0	0 116 0	0 115 0	0 113 0	0 112 0	0 110 0	0 109 0	0 107 0	0 105 0	0 103 0	0 101 2	0 99 2	0 97 2	0 95 2	0 93 2	0 90 2	0 88 2	0 86 2	0 81 10	0 78 10	0 76 10	0 73 10	0 71 10	0 68 10	0 66 10	0 63 10	0 60 10	0 57 10	0 54 10	0 51 10	0 48 10	0 45 10	0 42 10	0 32 51	0 29 51	0 26 51	0 23 51	0 20 51	0 17 51	0 14 51	0 10 51	0 6 51	0 3 51	0 10 51	0 10 51	0 10 51	0 10 51	0 10 51	0 0 255	0 0 255	0 0 255	0 0 255	0 0 255	0 0 255	0 0 255	0 0 255	0 0 255	0 0 255	0 0 255	0 0 255	0 0 255	0 0 255	0 0 255	0 0 255	0 0 255	0 0 255	0 0 255	0 0 255	0 0 255	0 0 255	0 0 255	0 0 255	0 0 255	0 0 255	0 0 255	0 0 255	0 0 255	0 0 255	0 0 255	0 0 255	0 0 255	0 0 255	0 0 255	0 0 255	0 0 255	0 0 255	0 0 255	0 0 255	0 0 255	0 0 255	0 0 255	0 0 255	0 0 255	0 0 255	
0 0 255	0 0 255	0 0 255	0 0 255	0 0 255	0 0 255	0 0 255	0 0 255	0 0 255	0 0 255	0 0 255	0 0 255	0 0 255	0 0 255	0 0 255	0 0 255	0 0 255	0 0 255	0 0 255	0 0 255	0 0 255	0 0 255	0 0 255	0 0 255	0 0 255	0 0 255	0 0 255	0 0 255	0 0 255	0 0 255	0 0 255	0 0 255	0 0 255	0 0 255	0 0 255	0 0 255	0 0 255	0 0 255	0 0 255	0 0 255	0 0 255	0 0 255	0 0 255	0 0 255	0 0 255	0 0 255	0 0 255	0 0 255	0 0 255	0 0 255	0 0 255	0 0 255	0 0 255	0 0 255	0 0 255	0 0 255	0 0 255	0 0 255	0 0 255	0 0 255	0 0 255	0 0 255	0 0 255	0 0 255	0 0 255	0 0 255	0 0 255	0 0 255	0 0 255	0 0 255	0 0 255	0 0 255	0 0 255	0 0 255	0 0 255	0 0 255	0 0 255	0 0 255	0 0 255	0 0 255	0 0 255	0 0 255	0 0 255	0 0 255	0 0 255	0 0 255	0 0 255	0 0 255	0 0 255	0 0 255	0 0 255	0 0 255	0 0 255	0 0 255	0 0 255	0 0 255	0 0 255	0 0 255	0 0 255	0 0 255	0 0 255	0 0 255	0 0 255	0 0 255	0 0 255	0 0 255	0 0 255	0 0 255	0 0 255	0 0 255	0 0 255	0 0 255	0 0 255	0 0 255	0 0 255	0 0 255	0 0 255	0 0 255	0 0 255	0 0 255	0 0 255	0 7 51	0 21 51	0 30 51	0 36 51	0 42 51	0 47 51	0 52 51	0 56 51	0 60 51	0 63 51	0 67 51	0 70 51	0 72 51	0 90 10	0 93 10	0 96 10	0 98 10	0 101 10	0 103 10	0 105 10	0 106 10	0 108 10	0 110 10	0 111 10	0 112 10	0 113 10	0 114 10	0 118 2	0 119 2	0 119 2	0 120 2	0 120 2	0 120 2	0 120 2	0 120 2	0 120 0	0 120 0	0 119 0	0 118 0	0 118 0	0 117 0	0 116 0	0 115 0	0 113 0	0 112 0	0 111 0	0 109 0	0 108 0	0 106 0	0 104 0	0 103 0	0 100 2	0 98 2	0 96 2	0 94 2	0 92 2	0 90 2	0 87 2	0 85 2	0 83 2	0 78 10	0 75 10	0 73 10	0 70 10	0 68 10	0 65 10	0 62 10	0 60 10	0 57 10	0 54 10	0 51 10	0 48 10	0 45 10	0 42 10	0 38 10	0 29 51	0 26 51	0 23 51	0 20 51	0 17 51	0 14 51	0 10 51	0 7 51	0 3 51	0 10 51	0 10 51	0 10 51	0 10 51	0 10 51	0 0 255	0 0 255	0 0 255	0 0 255	0 0 255	0 0 255	0 0 255	0 0 255	0 0 255	0 0 255	0 0 255	0 0 255	0 0 255	0 0 255	0 0 255	0 0 255	0 0 255	0 0 255	0 0 255	0 0 255	0 0 255	0 0 255	0 0 255	0 0 255	0 0 255	0 0 255	0 0 255	0 0 255	0 0 255	0 0 255	0 0 255	0 0 255	0 0 255	0 0 255	0 0 255	0 0 255	0 0 255	0 0 255	0 0 255	0 0 255	0 0 255	0 0 255	0 0 255	0 0 255	0 0 255	0 0 255	
0 0 255	0 0 255	0 0 255	0 0 255	0 0 255	0 0 255	0 0 255	0 0 255	0 0 255	0 0 255	0 0 255	0 0 255	0 0 255	0 0 255	0 0 255	0 0 255	0 0 255	0 0 255	0 0 255	0 0 255	0 0 255	0 0 255	0 0 255	0 0 255	0 0 255	0 0 255	0 0 255	0 0 255	0 0 255	0 0 255	0 0 255	0 0 255	0 0 255	0 0 255	0 0 255	0 0 255	0 0 255	0 0 255	0 0 255	0 0 255	0 0 255	0 0 255	0 0 255	0 0 255	0 0 255	0 0 255	0 0 255	0 0 255	0 0 255	0 0 255	0 0 255	0 0 255	0 0 255	0 0 255	0 0 255	0 0 255	0 0 255	0 0 255	0 0 255	0 0 255	0 0 255	0 0 255	0 0 255	0 0 255	0 0 255	0 0 255	0 0 255	0 0 255	0 0 255	0 0 255	0 0 255	0 0 255	0 0 255	0 0 255	0 0 255	0 0 255	0 0 255	0 0 255	0 0 255	0 0 255	0 0 255	0 0 255	0 0 255	0 0 255	0 0 255	0 0 255	0 0 255	0 0 255	0 0 255	0 0 255	0 0 255	0 0 255	0 0 255	0 0 255	0 0 255	0 0 255	0 0 255	0 0 255	0 0 255	0 0 255	0 0 255	0 0 255	0 0 255	0 0 255	0 0 255	0 0 255	0 0 255	0 0 255	0 0 255	0 0 255	0 0 255	0 0 255	0 0 255	0 0 255	0 0 255	0 0 255	0 0 255	0 0 255	0 0 255	0 0 255	0 0 255	0 8 51	0 21 51	0 29 51	0 36 51	0 42 51	0 47 51	0 51 51	0 55 51	0 59 51	0 63 51	0 66 51	0 69 51	0 72 51	0 89 10	0 92 10	0 95 10	0 97 10	0 99 10	0 102 10	0 104 10	0 105 10	0 107 10	0 108 10	0 110 10	0 111 10	0 112 10	0 113 10	0 117 2	0 118 2	0 118 2	0 118 2	0 119 2	0 119 2	0 119 2	0 118 2	0 119 0	0 118 0	0 118 0	0 117 0	0 116 0	0 116 0	0 115 0	0 114 0	0 112 0	0 111 0	0 110 0	0 108 0	0 107 0	0 105 0	0 103 0	0 102 0	0 99 2	0 97 2	0 95 2	0 93 2	0 91 2	0 89 2	0 87 2	0 84 2	0 82 2	0 77 10	0 75 10	0 72 10	0 70 10	0 67 10	0 64 10	0 62 10	0 59 10	0 56 10	0 53 10	0 50 10	0 47 10	0 44 10	0 41 10	0 38 10	0 29 51	0 26 51	0 23 51	0 20 51	0 17 51	0 14 51	0 10 51	0 7 51	0 3 51	0 10 51	0 10 51	0 10 51	0 10 51	0 10 51	0 0 255	0 0 255	0 0 255	0 0 255	0 0 255	0 0 255	0 0 255	0 0 255	0 0 255	0 0 255	0 0 255	0 0 255	0 0 255	0 0 255	0 0 255	0 0 255	0 0 255	0 0 255	0 0 255	0 0 255	0 0 255	0 0 255	0 0 255	0 0 255	0 0 255	0 0 255	0 0 255	0 0 255	0 0 255	0 0 255	0 0 255	0 0 255	0 0 255	0 0 255	0 0 255	0 0 255	0 0 255	0 0 255	0 0 255	0 0 255	0 0 255	0 0 255	0 0 255	0 0 255	0 0 255	0 0 255	
0 0 255	0 0 255	0 0 255	0 0 255	0 0 255	0 0 255	0 0 255	0 0 255	0 0 255	0 0 255	0 0 255	0 0 255	0 0 255	0 0 255	0 0 255	0 0 255	0 0 255	0 0 255	0 0 255	0 0 255	0 0 255	0 0 255	0 0 255	0 0 255	0 0 255	0 0 255	0 0 255	0 0 255	0 0 255	0 0 255	0 0 255	0 0 255	0 0 255	0 0 255	0 0 255	0 0 255	0 0 255	0 0 255	0 0 255	0 0 255	0 0 255	0 0 255	0 0 255	0 0 255	0 0 255	0 0 255	0 0 255	0 0 255	0 0 255	0 0 255	0 0 255	0 0 255	0 0 255	0 0 255	0 0 255	0 0 255	0 0 255	0 0 255	0 0 255	0 0 255	0 0 255	0 0 255	0 0 255	0 0 255	0 0 255	0 0 255	0 0 255	0 0 255	0 0 255	0 0 255	0 0 255	0 0 255	0 0 255	0 0 255	0 0 255	0 0 255	0 0 255	0 0 255	0 0 255	0 0 255	0 0 255	0 0 255	0 0 255	0 0 255	0 0 255	0 0 255	0 0 255	0 0 255	0 0 255	0 0 255	0 0 255	0 0 255	0 0 255	0 0 255	0 0 255	0 0 255	0 0 255	0 0 255	0 0 255	0 0 255	0 0 255	0 0 255	0 0 255	0 0 255	0 0 255	0 0 255	0 0 255	0 0 255	0 0 255	0 0 255	0 0 255	0 0 255	0 0 255	0 0 255	0 0 255	0 0 255	0 0 255	0 0 255	0 0 255	0 0 255	0 0 255	0 8 51	0 21 51	0 29 51	0 36 51	0 41 51	0 46 51	0 51 51	0 55 51	0 58 51	0 62 51	0 65 51	0 68 51	0 71 51	0 88 10	0 91 10	0 94 10	0 96 10	0 98 10	0 100 10	0 102 10	0 104 10	0 106 10	0 107 10	0 108 10	0 109 10	0 110 10	0 111 10	0 116 2	0 116 2	0 117 2	0 117 2	0 117 2	0 117 2	0 117 2	0 117 2	0 117 0	0 117 0	0 116 0	0 116 0	0 115 0	0 114 0	0 113 0	0 112 0	0 111 0	0 110 0	0 109 0	0 107 0	0 105 0	0 104 0	0 102 0	0 100 0	0 99 0	0 96 2	0 94 2	0 92 2	0 90 2	0 88 2	0 86 2	0 83 2	0 81 2	0 76 10	0 74 10	0 71 10	0 69 10	0 66 10	0 64 10	0 61 10	0 58 10	0 56 10	0 53 10	0 50 10	0 47 10	0 44 10	0 41 10	0 38 10	0 28 51	0 26 51	0 23 51	0 20 51	0 17 51	0 13 51	0 10 51	0 6 51	0 3 51	0 10 51	0 10 51	0 10 51	0 10 51	0 10 51	0 0 255	0 0 255	0 0 255	0 0 255	0 0 255	0 0 255	0 0 255	0 0 255	0 0 255	0 0 255	0 0 255	0 0 255	0 0 255	0 0 255	0 0 255	0 0 255	0 0 255	0 0 255	0 0 255	0 0 255	0 0 255	0 0 255	0 0 255	0 0 255	0 0 255	0 0 255	0 0 255	0 0 255	0 0 255	0 0 255	0 0 255	0 0 255	0 0 255	0 0 255	0 0 255	0 0 255	0 0 255	0 0 255	0 0 255	0 0 255	0 0 255	0 0 255	0 0 255	0 0 255	0 0 255	0 0 255	
0 0 255	0 0 255	0 0 255	0 0 255	0 0 255	0 0 255	0 0 255	0 0 255	0 0 255	0 0 255	0 0 255	0 0 255	0 0 255	0 0 255	0 0 255	0 0 255	0 0 255	0 0 255	0 0 255	0 0 255	0 0 255	0 0 255	0 0 255	0 0 255	0 0 255	0 0 255	0 0 255	0 0 255	0 0 255	0 0 255	0 0 255	0 0 255	0 0 255	0 0 255	0 0 255	0 0 255	0 0 255	0 0 255	0 0 255	0 0 255	0 0 255	0 0 255	0 0 255	0 0 255	0 0 255	0 0 255	0 0 255	0 0 255	0 0 255	0 0 255	0 0 255	0 0 255	0 0 255	0 0 255	0 0 255	0 0 255	0 0 255	0 0 255	0 0 255	0 0 255	0 0 255	0 0 255	0 0 255	0 0 255	0 0 255	0 0 255	0 0 255	0 0 255	0 0 255	0 0 255	0 0 255	0 0 255	0 0 255	0 0 255	0 0 255	0 0 255	0 0 255	0 0 255	0 0 255	0 0 255	0 0 255	0 0 255	0 0 255	0 0 255	0 0 255	0 0 255	0 0 255	0 0 255	0 0 255	0 0 255	0 0 255	0 0 255	0 0 255	0 0 255	0 0 255	0 0 255	0 0 255	0 0 255	0 0 255	0 0 255	0 0 255	0 0 255	0 0 255	0 0 255	0 0 255	0 0 255	0 0 255	0 0 255	0 0 255	0 0 255	0 0 255	0 0 255	0 0 255	0 0 255	0 0 255	0 0 255	0 0 255	0 0 255	0 0 255	0 0 255	0 0 255	0 7 51	0 20 51	0 28 51	0 35 51	0 40 51	0 45 51	0 50 51	0 54 51	0 57 51	0 61 51	0 64 51	0 67 51	0 70 51	0 87 10	0 90 10	0 92 10	0 95 10	0 97 10	0 99 10	0 101 10	0 103 10	0 104 10	0 106 10	0 107 10	0 108 10	0 109 10	0 110 10	0 114 2	0 115 2	0 115 2	0 116 2	0 116 2	0 116 2	0 116 2	0 116 2	0 116 0	0 116 0	0 115 0	0 114 0	0 114 0	0 113 0	0 112 0	0 111 0	0 110 0	0 109 0	0 107 0	0 106 0	0 104 0	0 103 0	0 101 0	0 99 0	0 97 0	0 95 2	0 93 2	0 91 2	0 89 2	0 87 2	0 85 2	0 82 2	0 80 2	0 75 10	0 73 10	0 71 10	0 68 10	0 66 10	0 63 10	0 60 10	0 58 10	0 55 10	0 52 10	0 49 10	0 46 10	0 43 10	0 40 10	0 37 10	0 28 51	0 25 51	0 22 51	0 19 51	0 16 51	0 13 51	0 10 51	0 6 51	0 2 51	0 10 51	0 10 51	0 10 51	0 10 51	0 10 51	0 0 255	0 0 255	0 0 255	0 0 255	0 0 255	0 0 255	0 0 255	0 0 255	0 0 255	0 0 255	0 0 255	0 0 255	0 0 255	0 0 255	0 0 255	0 0 255	0 0 255	0 0 255	0 0 255	0 0 255	0 0 255	0 0 255	0 0 255	0 0 255	0 0 255	0 0 255	0 0 255	0 0 255	0 0 255	0 0 255	0 0 255	0 0 255	0 0 255	0 0 255	0 0 255	0 0 255	0 0 255	0 0 255	0 0 255	0 0 255	0 0 255	0 0 255	0 0 255	0 0 255	0 0 255	0 0 255	
0 0 255	0 0 255	0 0 255	0 0 255	0 0 255	0 0 255	0 0 255	0 0 255	0 0 255	0 0 255	0 0 255	0 0 255	0 0 255	0 0 255	0 0 255	0 0 255	0 0 255	0 0 255	0 0 255	0 0 255	0 0 255	0 0 255	0 0 255	0 0 255	0 0 255	0 0 255	0 0 255	0 0 255	0 0 255	0 0 255	0 0 255	0 0 255	0 0 255	0 0 255	0 0 255	0 0 255	0 0 255	0 0 255	0 0 255	0 0 255	0 0 255	0 0 255	0 0 255	0 0 255	0 0 255	0 0 255	0 0 255	0 0 255	0 0 255	0 0 255	0 0 255	0 0 255	0 0 255	0 0 255	0 0 255	0 0 255	0 0 255	0 0 255	0 0 255	0 0 255	0 0 255	0 0 255	0 0 255	0 0 255	0 0 255	0 0 255	0 0 255	0 0 255	0 0 255	0 0 255	0 0 255	0 0 255	0 0 255	0 0 255	0 0 255	0 0 255	0 0 255	0 0 255	0 0 255	0 0 255	0 0 255	0 0 255	0 0 255	0 0 255	0 0 255	0 0 255	0 0 255	0 0 255	0 0 255	0 0 255	0 0 255	0 0 255	0 0 255	0 0 255	0 0 255	0 0 255	0 0 255	0 0 255	0 0 255	0 0 255	0 0 255	0 0 255	0 0 255	0 0 255	0 0 255	0 0 255	0 0 255	0 0 255	0 0 255	0 0 255	0 0 255	0 0 255	0 0 255	0 0 255	0 0 255	0 0 255	0 0 255	0 0 255	0 0 255	0 0 255	0 0 255	0 7 51	0 19 51	0 27 51	0 34 51	0 40 51	0 44 51	0 49 51	0 53 51	0 56 51	0 60 51	0 63 51	0 66 51	0 69 51	0 85 10	0 88 10	0 91 10	0 93 10	0 96 10	0 98 10	0 100 10	0 101 10	0 103 10	0 104 10	0 105 10	0 107 10	0 108 10	0 108 10	0 113 2	0 113 2	0 114 2	0 114 2	0 114 2	0 114 2	0 114 2	0 114 2	0 115 0	0 114 0	0 114 0	0 113 0	0 112 0	0 112 0	0 111 0	0 110 0	0 108 0	0 107 0	0 106 0	0 105 0	0 103 0	0 101 0	0 100 0	0 98 0	0 96 0	0 94 2	0 92 2	0 90 2	0 88 2	0 86 2	0 84 2	0 81 2	0 79 2	0 74 10	0 72 10	0 70 10	0 67 10	0 65 10	0 62 10	0 60 10	0 57 10	0 54 10	0 51 10	0 49 10	0 46 10	0 43 10	0 40 10	0 36 10	0 28 51	0 25 51	0 22 51	0 19 51	0 16 51	0 13 51	0 9 51	0 6 51	0 2 51	0 10 51	0 10 51	0 10 51	0 10 51	0 10 51	0 0 255	0 0 255	0 0 255	0 0 255	0 0 255	0 0 255	0 0 255	0 0 255	0 0 255	0 0 255	0 0 255	0 0 255	0 0 255	0 0 255	0 0 255	0 0 255	0 0 255	0 0 255	0 0 255	0 0 255	0 0 255	0 0 255	0 0 255	0 0 255	0 0 255	0 0 255	0 0 255	0 0 255	0 0 255	0 0 255	0 0 255	0 0 255	0 0 255	0 0 255	0 0 255	0 0 255	0 0 255	0 0 255	0 0 255	0 0 255	0 0 255	0 0 255	0 0 255	0 0 255	0 0 255	0 0 255	
0 0 255	0 0 255	0 0 255	0 0 255	0 0 255	0 0 255	0 0 255	0 0 255	0 0 255	0 0 255	0 0 255	0 0 255	0 0 255	0 0 255	0 0 255	0 0 255	0 0 255	0 0 255	0 0 255	0 0 255	0 0 255	0 0 255	0 0 255	0 0 255	0 0 255	0 0 255	0 0 255	0 0 255	0 0 255	0 0 255	0 0 255	0 0 255	0 0 255	0 0 255	0 0 255	0 0 255	0 0 255	0 0 255	0 0 255	0 0 255	0 0 255	0 0 255	0 0 255	0 0 255	0 0 255	0 0 255	0 0 255	0 0 255	0 0 255	0 0 255	0 0 255	0 0 255	0 0 255	0 0 255	0 0 255	0 0 255	0 0 255	0 0 255	0 0 255	0 0 255	0 0 255	0 0 255	0 0 255	0 0 255	0 0 255	0 0 255	0 0 255	0 0 255	0 0 255	0 0 255	0 0 255	0 0 255	0 0 255	0 0 255	0 0 255	0 0 255	0 0 255	0 0 255	0 0 255	0 0 255	0 0 255	0 0 255	0 0 255	0 0 255	0 0 255	0 0 255	0 0 255	0 0 255	0 0 255	0 0 255	0 0 255	0 0 255	0 0 255	0 0 255	0 0 255	0 0 255	0 0 255	0 0 255	0 0 255	0 0 255	0 0 255	0 0 255	0 0 255	0 0 255	0 0 255	0 0 255	0 0 255	0 0 255	0 0 255	0 0 255	0 0 255	0 0 255	0 0 255	0 0 255	0 0 255	0 0 255	0 0 255	0 0 255	0 0 255	0 0 255	0 0 255	0 5 51	0 18 51	0 26 51	0 33 51	0 39 51	0 43 51	0 48 51	0 52 51	0 55 51	0 59 51	0 62 51	0 65 51	0 67 51	0 84 10	0 87 10	0 89 10	0 92 10	0 94 10	0 96 10	0 98 10	0 100 10	0 101 10	0 103 10	0 104 10	0 105 10	0 106 10	0 107 10	0 111 2	0 112 2	0 112 2	0 112 2	0 113 2	0 113 2	0 113 2	0 112 2	0 113 0	0 113 0	0 112 0	0 111 0	0 111 0	0 110 0	0 109 0	0 108 0	0 107 0	0 106 0	0 104 0	0 103 0	0 102 0	0 100 0	0 98 0	0 97 0	0 94 2	0 93 2	0 91 2	0 89 2	0 87 2	0 85 2	0 83 2	0 80 2	0 78 2	0 73 10	0 71 10	0 69 10	0 66 10	0 64 10	0 61 10	0 59 10	0 56 10	0 53 10	0 51 10	0 48 10	0 45 10	0 42 10	0 39 10	0 36 10	0 27 51	0 24 51	0 21 51	0 19 51	0 15 51	0 12 51	0 9 51	0 5 51	0 2 51	0 10 51	0 10 51	0 10 51	0 10 51	0 10 51	0 0 255	0 0 255	0 0 255	0 0 255	0 0 255	0 0 255	0 0 255	0 0 255	0 0 255	0 0 255	0 0 255	0 0 255	0 0 255	0 0 255	0 0 255	0 0 255	0 0 255	0 0 255	0 0 255	0 0 255	0 0 255	0 0 255	0 0 255	0 0 255	0 0 255	0 0 255	0 0 255	0 0 255	0 0 255	0 0 255	0 0 255	0 0 255	0 0 255	0 0 255	0 0 255	0 0 255	0 0 255	0 0 255	0 0 255	0 0 255	0 0 255	0 0 255	0 0 255	0 0 255	0 0 255	0 0 255	
0 0 255	0 0 255	0 0 255	0 0 255	0 0 255	0 0 255	0 0 255	0 0 255	0 0 255	0 0 255	0 0 255	0 0 255	0 0 255	0 0 255	0 0 255	0 0 255	0 0 255	0 0 255	0 0 255	0 0 255	0 0 255	0 0 255	0 0 255	0 0 255	0 0 255	0 0 255	0 0 255	0 0 255	0 0 255	0 0 255	0 0 255	0 0 255	0 0 255	0 0 255	0 0 255	0 0 255	0 0 255	0 0 255	0 0 255	0 0 255	0 0 255	0 0 255	0 0 255	0 0 255	0 0 255	0 0 255	0 0 255	0 0 255	0 0 255	0 0 255	0 0 255	0 0 255	0 0 255	0 0 255	0 0 255	0 0 255	0 0 255	0 0 255	0 0 255	0 0 255	0 0 255	0 0 255	0 0 255	0 0 255	0 0 255	0 0 255	0 0 255	0 0 255	0 0 255	0 0 255	0 0 255	0 0 255	0 0 255	0 0 255	0 0 255	0 0 255	0 0 255	0 0 255	0 0 255	0 0 255	0 0 255	0 0 255	0 0 255	0 0 255	0 0 255	0 0 255	0 0 255	0 0 255	0 0 255	0 0 255	0 0 255	0 0 255	0 0 255	0 0 255	0 0 255	0 0 255	0 0 255	0 0 255	0 0 255	0 0 255	0 0 255	0 0 255	0 0 255	0 0 255	0 0 255	0 0 255	0 0 255	0 0 255	0 0 255	0 0 255	0 0 255	0 0 255	0 0 255	0 0 255	0 0 255	0 0 255	0 0 255	0 0 255	0 0 255	0 0 255	0 0 255	0 4 51	0 17 51	0 25 51	0 32 51	0 37 51	0 42 51	0 47 51	0 51 51	0 54 51	0 58 51	0 61 51	0 64 51	0 66 51	0 83 10	0 85 10	0 88 10	0 90 10	0 92 10	0 94 10	0 96 10	0 98 10	0 100 10	0 101 10	0 102 10	0 103 10	0 104 10	0 105 10	0 109 2	0 110 2	0 110 2	0 111 2	0 111 2	0 111 2	0 111 2	0 111 2	0 111 0	0 111 0	0 110 0	0 110 0	0 109 0	0 108 0	0 107 0	0 106 0	0 105 0	0 104 0	0 103 0	0 101 0	0 100 0	0 99 0	0 97 0	0 95 0	0 93 2	0 91 2	0 89 2	0 87 2	0 85 2	0 83 2	0 81 2	0 79 2	0 77 2	0 72 10	0 70 10	0 68 10	0 65 10	0 63 10	0 60 10	0 58 10	0 55 10	0 52 10	0 50 10	0 47 10	0 44 10	0 41 10	0 38 10	0 35 10	0 26 51	0 24 51	0 21 51	0 18 51	0 15 51	0 12 51	0 8 51	0 5 51	0 1 51	0 10 51	0 10 51	0 10 51	0 10 51	0 10 51	0 0 255	0 0 255	0 0 255	0 0 255	0 0 255	0 0 255	0 0 255	0 0 255	0 0 255	0 0 255	0 0 255	0 0 255	0 0 255	0 0 255	0 0 255	0 0 255	0 0 255	0 0 255	0 0 255	0 0 255	0 0 255	0 0 255	0 0 255	0 0 255	0 0 255	0 0 255	0 0 255	0 0 255	0 0 255	0 0 255	0 0 255	0 0 255	0 0 255	0 0 255	0 0 255	0 0 255	0 0 255	0 0 255	0 0 255	0 0 255	0 0 255	0 0 255	0 0 255	0 0 255	0 0 255	0 0 255	
0 0 255	0 0 255	0 0 255	0 0 255	0 0 255	0 0 255	0 0 255	0 0 255	0 0 255	0 0 255	0 0 255	0 0 255	0 0 255	0 0 255	0 0 255	0 0 255	0 0 255	0 0 255	0 0 255	0 0 255	0 0 255	0 0 255	0 0 255	0 0 255	0 0 255	0 0 255	0 0 255	0 0 255	0 0 255	0 0 255	0 0 255	0 0 255	0 0 255	0 0 255	0 0 255	0 0 255	0 0 255	0 0 255	0 0 255	0 0 255	0 0 255	0 0 255	0 0 255	0 0 255	0 0 255	0 0 255	0 0 255	0 0 255	0 0 255	0 0 255	0 0 255	0 0 255	0 0 255	0 0 255	0 0 255	0 0 255	0 0 255	0 0 255	0 0 255	0 0 255	0 0 255	0 0 255	0 0 255	0 0 255	0 0 255	0 0 255	0 0 255	0 0 255	0 0 255	0 0 255	0 0 255	0 0 255	0 0 255	0 0 255	0 0 255	0 0 255	0 0 255	0 0 255	0 0 255	0 0 255	0 0 255	0 0 255	0 0 255	0 0 255	0 0 255	0 0 255	0 0 255	0 0 255	0 0 255	0 0 255	0 0 255	0 0 255	0 0 255	0 0 255	0 0 255	0 0 255	0 0 255	0 0 255	0 0 255	0 0 255	0 0 255	0 0 255	0 0 255	0 0 255	0 0 255	0 0 255	0 0 255	0 0 255	0 0 255	0 0 255	0 0 255	0 0 255	0 0 255	0 0 255	0 0 255	0 0 255	0 0 255	0 0 255	0 0 255	0 0 255	0 0 255	0 1 51	0 16 51	0 24 51	0 31 51	0 36 51	0 41 51	0 45 51	0 49 51	0 53 51	0 56 51	0 59 51	0 62 51	0 65 51	0 81 10	0 84 10	0 86 10	0 89 10	0 91 10	0 93 10	0 95 10	0 96 10	0 98 10	0 99 10	0 100 10	0 102 10	0 103 10	0 103 10	0 108 2	0 108 2	0 109 2	0 109 2	0 109 2	0 109 2	0 109 2	0 109 2	0 109 2	0 109 0	0 109 0	0 108 0	0 107 0	0 107 0	0 106 0	0 105 0	0 104 0	0 102 0	0 101 0	0 100 0	0 98 0	0 97 0	0 95 0	0 94 0	0 92 2	0 90 2	0 88 2	0 86 2	0 84 2	0 82 2	0 80 2	0 78 2	0 76 2	0 71 10	0 69 10	0 66 10	0 64 10	0 62 10	0 59 10	0 57 10	0 54 10	0 51 10	0 49 10	0 46 10	0 43 10	0 40 10	0 37 10	0 34 10	0 26 51	0 23 51	0 20 51	0 17 51	0 14 51	0 11 51	0 8 51	0 4 51	0 1 51	0 10 51	0 10 51	0 10 51	0 10 51	0 10 51	0 0 255	0 0 255	0 0 255	0 0 255	0 0 255	0 0 255	0 0 255	0 0 255	0 0 255	0 0 255	0 0 255	0 0 255	0 0 255	0 0 255	0 0 255	0 0 255	0 0 255	0 0 255	0 0 255	0 0 255	0 0 255	0 0 255	0 0 255	0 0 255	0 0 255	0 0 255	0 0 255	0 0 255	0 0 255	0 0 255	0 0 255	0 0 255	0 0 255	0 0 255	0 0 255	0 0 255	0 0 255	0 0 255	0 0 255	0 0 255	0 0 255	0 0 255	0 0 255	0 0 255	0 0 255	0 0 255	
0 0 255	0 0 255	0 0 255	0 0 255	0 0 255	0 0 255	0 0 255	0 0 255	0 0 255	0 0 255	0 0 255	0 0 255	0 0 255	0 0 255	0 0 255	0 0 255	0 0 255	0 0 255	0 0 255	0 0 255	0 0 255	0 0 255	0 0 255	0 0 255	0 0 255	0 0 255	0 0 255	0 0 255	0 0 255	0 0 255	0 0 255	0 0 255	0 0 255	0 0 255	0 0 255	0 0 255	0 0 255	0 0 255	0 0 255	0 0 255	0 0 255	0 0 255	0 0 255	0 0 255	0 0 255	0 0 255	0 0 255	0 0 255	0 0 255	0 0 255	0 0 255	0 0 255	0 0 255	0 0 255	0 0 255	0 0 255	0 0 255	0 0 255	0 0 255	0 0 255	0 0 255	0 0 255	0 0 255	0 0 255	0 0 255	0 0 255	0 0 255	0 0 255	0 0 255	0 0 255	0 0 255	0 0 255	0 0 255	0 0 255	0 0 255	0 0 255	0 0 255	0 0 255	0 0 255	0 0 255	0 0 255	0 0 255	0 0 255	0 0 255	0 0 255	0 0 255	0 0 255	0 0 255	0 0 255	0 0 255	0 0 255	0 0 255	0 0 255	0 0 255	0 0 255	0 0 255	0 0 255	0 0 255	0 0 255	0 0 255	0 0 255	0 0 255	0 0 255	0 0 255	0 0 255	0 0 255	0 0 255	0 0 255	0 0 255	0 0 255	0 0 255	0 0 255	0 0 255	0 0 255	0 0 255	0 0 255	0 0 255	0 0 255	0 0 255	0 0 255	0 0 255	0 10 51	0 14 51	0 23 51	0 29 51	0 35 51	0 40 51	0 44 51	0 48 51	0 51 51	0 55 51	0 58 51	0 61 51	0 63 51	0 79 10	0 82 10	0 84 10	0 87 10	0 89 10	0 91 10	0 93 10	0 95 10	0 96 10	0 97 10	0 99 10	0 100 10	0 101 10	0 102 10	0 102 10	0 106 2	0 107 2	0 107 2	0 107 2	0 107 2	0 107 2	0 107 2	0 107 2	0 107 2	0 107 0	0 106 0	0 106 0	0 105 0	0 104 0	0 103 0	0 102 0	0 101 0	0 100 0	0 98 0	0 97 0	0 95 0	0 94 0	0 92 2	0 90 2	0 88 2	0 87 2	0 85 2	0 83 2	0 81 2	0 79 2	0 77 2	0 72 10	0 70 10	0 68 10	0 65 10	0 63 10	0 61 10	0 58 10	0 56 10	0 53 10	0 50 10	0 48 10	0 45 10	0 42 10	0 39 10	0 36 10	0 33 10	0 25 51	0 22 51	0 20 51	0 17 51	0 14 51	0 11 51	0 7 51	0 4 51	0 0 51	0 10 51	0 10 51	0 10 51	0 10 51	0 10 51	0 0 255	0 0 255	0 0 255	0 0 255	0 0 255	0 0 255	0 0 255	0 0 255	0 0 255	0 0 255	0 0 255	0 0 255	0 0 255	0 0 255	0 0 255	0 0 255	0 0 255	0 0 255	0 0 255	0 0 255	0 0 255	0 0 255	0 0 255	0 0 255	0 0 255	0 0 255	0 0 255	0 0 255	0 0 255	0 0 255	0 0 255	0 0 255	0 0 255	0 0 255	0 0 255	0 0 255	0 0 255	0 0 255	0 0 255	0 0 255	0 0 255	0 0 255	0 0 255	0 0 255	0 0 255	0 0 255	
0 0 255	0 0 255	0 0 255	0 0 255	0 0 255	0 0 255	0 0 255	0 0 255	0 0 255	0 0 255	0 0 255	0 0 255	0 0 255	0 0 255	0 0 255	0 0 255	0 0 255	0 0 255	0 0 255	0 0 255	0 0 255	0 0 255	0 0 255	0 0 255	0 0 255	0 0 255	0 0 255	0 0 255	0 0 255	0 0 255	0 0 255	0 0 255	0 0 255	0 0 255	0 0 255	0 0 255	0 0 255	0 0 255	0 0 255	0 0 255	0 0 255	0 0 255	0 0 255	0 0 255	0 0 255	0 0 255	0 0 255	0 0 255	0 0 255	0 0 255	0 0 255	0 0 255	0 0 255	0 0 255	0 0 255	0 0 255	0 0 255	0 0 255	0 0 255	0 0 255	0 0 255	0 0 255	0 0 255	0 0 255	0 0 255	0 0 255	0 0 255	0 0 255	0 0 255	0 0 255	0 0 255	0 0 255	0 0 255	0 0 255	0 0 255	0 0 255	0 0 255	0 0 255	0 0 255	0 0 255	0 0 255	0 0 255	0 0 255	0 0 255	0 0 255	0 0 255	0 0 255	0 0 255	0 0 255	0 0 255	0 0 255	0 0 255	0 0 255	0 0 255	0 0 255	0 0 255	0 0 255	0 0 255	0 0 255	0 0 255	0 0 255	0 0 255	0 0 255	0 0 255	0 0 255	0 0 255	0 0 255	0 0 255	0 0 255	0 0 255	0 0 255	0 0 255	0 0 255	0 0 255	0 0 255	0 0 255	0 0 255	0 0 255	0 0 255	0 0 255	0 0 255	0 0 255	0 12 51	0 21 51	0 28 51	0 33 51	0 38 51	0 42 51	0 46 51	0 50 51	0 53 51	0 56 51	0 59 51	0 62 51	0 77 10	0 80 10	0 83 10	0 85 10	0 87 10	0 89 10	0 91 10	0 93 10	0 94 10	0 96 10	0 97 10	0 98 10	0 99 10	0 100 10	0 100 10	0 104 2	0 105 2	0 105 2	0 105 2	0 105 2	0 105 2	0 105 2	0 105 2	0 105 2	0 105 0	0 104 0	0 104 0	0 103 0	0 102 0	0 101 0	0 100 0	0 99 0	0 98 0	0 97 0	0 95 0	0 94 0	0 92 2	0 90 2	0 88 2	0 87 2	0 85 2	0 83 2	0 81 2	0 79 2	0 77 2	0 75 2	0 71 10	0 68 10	0 66 10	0 64 10	0 62 10	0 59 10	0 57 10	0 54 10	0 52 10	0 49 10	0 47 10	0 44 10	0 41 10	0 38 10	0 35 10	0 32 10	0 24 51	0 22 51	0 19 51	0 16 51	0 13 51	0 10 51	0 7 51	0 3 51	0 0 51	0 10 51	0 10 51	0 10 51	0 10 51	0 10 51	0 0 255	0 0 255	0 0 255	0 0 255	0 0 255	0 0 255	0 0 255	0 0 255	0 0 255	0 0 255	0 0 255	0 0 255	0 0 255	0 0 255	0 0 255	0 0 255	0 0 255	0 0 255	0 0 255	0 0 255	0 0 255	0 0 255	0 0 255	0 0 255	0 0 255	0 0 255	0 0 255	0 0 255	0 0 255	0 0 255	0 0 255	0 0 255	0 0 255	0 0 255	0 0 255	0 0 255	0 0 255	0 0 255	0 0 255	0 0 255	0 0 255	0 0 255	0 0 255	0 0 255	0 0 255	0 0 255	
0 0 255	0 0 255	0 0 255	0 0 255	0 0 255	0 0 255	0 0 255	0 0 255	0 0 255	0 0 255	0 0 255	0 0 255	0 0 255	0 0 255	0 0 255	0 0 255	0 0 255	0 0 255	0 0 255	0 0 255	0 0 255	0 0 255	0 0 255	0 0 255	0 0 255	0 0 255	0 0 255	0 0 255	0 0 255	0 0 255	0 0 255	0 0 255	0 0 255	0 0 255	0 0 255	0 0 255	0 0 255	0 0 255	0 0 255	0 0 255	0 0 255	0 0 255	0 0 255	0 0 255	0 0 255	0 0 255	0 0 255	0 0 255	0 0 255	0 0 255	0 0 255	0 0 255	0 0 255	0 0 255	0 0 255	0 0 255	0 0 255	0 0 255	0 0 255	0 0 255	0 0 255	0 0 255	0 0 255	0 0 255	0 0 255	0 0 255	0 0 255	0 0 255	0 0 255	0 0 255	0 0 255	0 0 255	0 0 255	0 0 255	0 0 255	0 0 255	0 0 255	0 0 255	0 0 255	0 0 255	0 0 255	0 0 255	0 0 255	0 0 255	0 0 255	0 0 255	0 0 255	0 0 255	0 0 255	0 0 255	0 0 255	0 0 255	0 0 255	0 0 255	0 0 255	0 0 255	0 0 255	0 0 255	0 0 255	0 0 255	0 0 255	0 0 255	0 0 255	0 0 255	0 0 255	0 0 255	0 0 255	0 0 255	0 0 255	0 0 255	0 0 255	0 0 255	0 0 255	0 0 255	0 0 255	0 0 255	0 0 255	0 0 255	0 0 255	0 0 255	0 0 255	0 0 255	0 10 51	0 19 51	0 26 51	0 31 51	0 36 51	0 41 51	0 45 51	0 48 51	0 52 51	0 55 51	0 58 51	0 60 51	0 63 51	0 78 10	0 81 10	0 83 10	0 85 10	0 87 10	0 89 10	0 91 10	0 92 10	0 94 10	0 95 10	0 96 10	0 97 10	0 98 10	0 98 10	0 102 2	0 103 2	0 103 2	0 103 2	0 103 2	0 103 2	0 103 2	0 103 2	0 103 2	0 102 2	0 102 2	0 102 0	0 101 0	0 100 0	0 99 0	0 98 0	0 97 0	0 96 0	0 95 0	0 93 0	0 91 2	0 90 2	0 88 2	0 87 2	0 85 2	0 83 2	0 82 2	0 80 2	0 78 2	0 76 2	0 74 2	0 69 10	0 67 10	0 65 10	0 63 10	0 60 10	0 58 10	0 56 10	0 53 10	0 51 10	0 48 10	0 45 10	0 43 10	0 40 10	0 37 10	0 34 10	0 31 10	0 23 51	0 21 51	0 18 51	0 15 51	0 12 51	0 9 51	0 6 51	0 2 51	0 10 51	0 10 51	0 10 51	0 10 51	0 10 51	0 10 51	0 0 255	0 0 255	0 0 255	0 0 255	0 0 255	0 0 255	0 0 255	0 0 255	0 0 255	0 0 255	0 0 255	0 0 255	0 0 255	0 0 255	0 0 255	0 0 255	0 0 255	0 0 255	0 0 255	0 0 255	0 0 255	0 0 255	0 0 255	0 0 255	0 0 255	0 0 255	0 0 255	0 0 255	0 0 255	0 0 255	0 0 255	0 0 255	0 0 255	0 0 255	0 0 255	0 0 255	0 0 255	0 0 255	0 0 255	0 0 255	0 0 255	0 0 255	0 0 255	0 0 255	0 0 255	0 0 255	
0 0 255	0 0 255	0 0 255	0 0 255	0 0 255	0 0 255	0 0 255	0 0 255	0 0 255	0 0 255	0 0 255	0 0 255	0 0 255	0 0 255	0 0 255	0 0 255	0 0 255	0 0 255	0 0 255	0 0 255	0 0 255	0 0 255	0 0 255	0 0 255	0 0 255	0 0 255	0 0 255	0 0 255	0 0 255	0 0 255	0 0 255	0 0 255	0 0 255	0 0 255	0 0 255	0 0 255	0 0 255	0 0 255	0 0 255	0 0 255	0 0 255	0 0 255	0 0 255	0 0 255	0 0 255	0 0 255	0 0 255	0 0 255	0 0 255	0 0 255	0 0 255	0 0 255	0 0 255	0 0 255	0 0 255	0 0 255	0 0 255	0 0 255	0 0 255	0 0 255	0 0 255	0 0 255	0 0 255	0 0 255	0 0 255	0 0 255	0 0 255	0 0 255	0 0 255	0 0 255	0 0 255	0 0 255	0 0 255	0 0 255	0 0 255	0 0 255	0 0 255	0 0 255	0 0 255	0 0 255	0 0 255	0 0 255	0 0 255	0 0 255	0 0 255	0 0 255	0 0 255	0 0 255	0 0 255	0 0 255	0 0 255	0 0 255	0 0 255	0 0 255	0 0 255	0 0 255	0 0 255	0 0 255	0 0 255	0 0 255	0 0 255	0 0 255	0 0 255	0 0 255	0 0 255	0 0 255	0 0 255	0 0 255	0 0 255	0 0 255	0 0 255	0 0 255	0 0 255	0 0 255	0 0 255	0 0 255	0 0 255	0 0 255	0 0 255	0 0 255	0 0 255	0 0 255	0 7 51	0 17 51	0 24 51	0 30 51	0 35 51	0 39 51	0 43 51	0 47 51	0 50 51	0 53 51	0 56 51	0 59 51	0 61 51	0 76 10	0 79 10	0 81 10	0 83 10	0 85 10	0 87 10	0 89 10	0 90 10	0 91 10	0 93 10	0 94 10	0 95 10	0 96 10	0 96 10	0 97 10	0 101 2	0 101 2	0 101 2	0 101 2	0 101 2	0 101 2	0 101 2	0 101 2	0 100 2	0 100 2	0 99 2	0 98 2	0 98 0	0 97 0	0 96 0	0 95 0	0 94 0	0 92 2	0 91 2	0 90 2	0 88 2	0 87 2	0 85 2	0 83 2	0 82 2	0 80 2	0 78 2	0 76 2	0 74 2	0 70 10	0 68 10	0 66 10	0 64 10	0 61 10	0 59 10	0 57 10	0 54 10	0 52 10	0 49 10	0 47 10	0 44 10	0 42 10	0 39 10	0 36 10	0 33 10	0 25 51	0 22 51	0 20 51	0 17 51	0 14 51	0 11 51	0 8 51	0 5 51	0 2 51	0 10 51	0 10 51	0 10 51	0 10 51	0 10 51	0 10 51	0 0 255	0 0 255	0 0 255	0 0 255	0 0 255	0 0 255	0 0 255	0 0 255	0 0 255	0 0 255	0 0 255	0 0 255	0 0 255	0 0 255	0 0 255	0 0 255	0 0 255	0 0 255	0 0 255	0 0 255	0 0 255	0 0 255	0 0 255	0 0 255	0 0 255	0 0 255	0 0 255	0 0 255	0 0 255	0 0 255	0 0 255	0 0 255	0 0 255	0 0 255	0 0 255	0 0 255	0 0 255	0 0 255	0 0 255	0 0 255	0 0 255	0 0 255	0 0 255	0 0 255	0 0 255	0 0 255	
0 0 255	0 0 255	0 0 255	0 0 255	0 0 255	0 0 255	0 0 255	0 0 255	0 0 255	0 0 255	0 0 255	0 0 255	0 0 255	0 0 255	0 0 255	0 0 255	0 0 255	0 0 255	0 0 255	0 0 255	0 0 255	0 0 255	0 0 255	0 0 255	0 0 255	0 0 255	0 0 255	0 0 255	0 0 255	0 0 255	0 0 255	0 0 255	0 0 255	0 0 255	0 0 255	0 0 255	0 0 255	0 0 255	0 0 255	0 0 255	0 0 255	0 0 255	0 0 255	0 0 255	0 0 255	0 0 255	0 0 255	0 0 255	0 0 255	0 0 255	0 0 255	0 0 255	0 0 255	0 0 255	0 0 255	0 0 255	0 0 255	0 0 255	0 0 255	0 0 255	0 0 255	0 0 255	0 0 255	0 0 255	0 0 255	0 0 255	0 0 255	0 0 255	0 0 255	0 0 255	0 0 255	0 0 255	0 0 255	0 0 255	0 0 255	0 0 255	0 0 255	0 0 255	0 0 255	0 0 255	0 0 255	0 0 255	0 0 255	0 0 255	0 0 255	0 0 255	0 0 255	0 0 255	0 0 255	0 0 255	0 0 255	0 0 255	0 0 255	0 0 255	0 0 255	0 0 255	0 0 255	0 0 255	0 0 255	0 0 255	0 0 255	0 0 255	0 0 255	0 0 255	0 0 255	0 0 255	0 0 255	0 0 255	0 0 255	0 0 255	0 0 255	0 0 255	0 0 255	0 0 255	0 0 255	0 0 255	0 0 255	0 0 255	0 0 255	0 0 255	0 0 255	0 0 255	0 4 51	0 14 51	0 22 51	0 28 51	0 33 51	0 37 51	0 41 51	0 45 51	0 48 51	0 51 51	0 54 51	0 57 51	0 59 51	0 74 10	0 76 10	0 79 10	0 81 10	0 83 10	0 85 10	0 86 10	0 88 10	0 89 10	0 91 10	0 92 10	0 93 10	0 93 10	0 94 10	0 95 10	0 98 2	0 99 2	0 99 2	0 99 2	0 99 2	0 99 2	0 99 2	0 99 2	0 98 2	0 98 2	0 97 2	0 96 2	0 96 2	0 95 2	0 94 2	0 93 2	0 92 2	0 90 2	0 89 2	0 88 2	0 86 2	0 85 2	0 83 2	0 82 2	0 80 2	0 78 2	0 76 2	0 75 2	0 73 2	0 68 10	0 66 10	0 64 10	0 62 10	0 60 10	0 58 10	0 55 10	0 53 10	0 51 10	0 48 10	0 46 10	0 43 10	0 40 10	0 38 10	0 35 10	0 32 10	0 24 51	0 21 51	0 19 51	0 16 51	0 13 51	0 10 51	0 7 51	0 4 51	0 1 51	0 10 51	0 10 51	0 10 51	0 10 51	0 10 51	0 10 51	0 0 255	0 0 255	0 0 255	0 0 255	0 0 255	0 0 255	0 0 255	0 0 255	0 0 255	0 0 255	0 0 255	0 0 255	0 0 255	0 0 255	0 0 255	0 0 255	0 0 255	0 0 255	0 0 255	0 0 255	0 0 255	0 0 255	0 0 255	0 0 255	0 0 255	0 0 255	0 0 255	0 0 255	0 0 255	0 0 255	0 0 255	0 0 255	0 0 255	0 0 255	0 0 255	0 0 255	0 0 255	0 0 255	0 0 255	0 0 255	0 0 255	0 0 255	0 0 255	0 0 255	0 0 255	0 0 255	
0 0 255	0 0 255	0 0 255	0 0 255	0 0 255	0 0 255	0 0 255	0 0 255	0 0 255	0 0 255	0 0 255	0 0 255	0 0 255	0 0 255	0 0 255	0 0 255	0 0 255	0 0 255	0 0 255	0 0 255	0 0 255	0 0 255	0 0 255	0 0 255	0 0 255	0 0 255	0 0 255	0 0 255	0 0 255	0 0 255	0 0 255	0 0 255	0 0 255	0 0 255	0 0 255	0 0 255	0 0 255	0 0 255	0 0 255	0 0 255	0 0 255	0 0 255	0 0 255	0 0 255	0 0 255	0 0 255	0 0 255	0 0 255	0 0 255	0 0 255	0 0 255	0 0 255	0 0 255	0 0 255	0 0 255	0 0 255	0 0 255	0 0 255	0 0 255	0 0 255	0 0 255	0 0 255	0 0 255	0 0 255	0 0 255	0 0 255	0 0 255	0 0 255	0 0 255	0 0 255	0 0 255	0 0 255	0 0 255	0 0 255	0 0 255	0 0 255	0 0 255	0 0 255	0 0 255	0 0 255	0 0 255	0 0 255	0 0 255	0 0 255	0 0 255	0 0 255	0 0 255	0 0 255	0 0 255	0 0 255	0 0 255	0 0 255	0 0 255	0 0 255	0 0 255	0 0 255	0 0 255	0 0 255	0 0 255	0 0 255	0 0 255	0 0 255	0 0 255	0 0 255	0 0 255	0 0 255	0 0 255	0 0 255	0 0 255	0 0 255	0 0 255	0 0 255	0 0 255	0 0 255	0 0 255	0 0 255	0 0 255	0 0 255	0 0 255	0 0 255	0 0 255	0 0 255	0 5 51	0 12 51	0 20 51	0 26 51	0 31 51	0 35 51	0 39 51	0 43 51	0 46 51	0 49 51	0 52 51	0 55 51	0 57 51	0 60 51	0 74 10	0 77 10	0 79 10	0 81 10	0 83 10	0 84 10	0 86 10	0 87 10	0 88 10	0 89 10	0 90 10	0 91 10	0 92 10	0 93 10	0 93 10	0 96 2	0 97 2	0 97 2	0 97 2	0 97 2	0 97 2	0 96 2	0 96 2	0 96 2	0 95 2	0 94 2	0 94 2	0 93 2	0 92 2	0 91 2	0 90 2	0 88 2	0 87 2	0 86 2	0 84 2	0 83 2	0 81 2	0 80 2	0 78 2	0 76 2	0 75 2	0 73 2	0 69 10	0 67 10	0 65 10	0 63 10	0 61 10	0 58 10	0 56 10	0 54 10	0 52 10	0 49 10	0 47 10	0 44 10	0 42 10	0 39 10	0 36 10	0 33 10	0 31 10	0 23 51	0 20 51	0 18 51	0 15 51	0 12 51	0 9 51	0 6 51	0 3 51	0 0 51	0 10 51	0 10 51	0 10 51	0 10 51	0 10 51	0 10 51	0 0 255	0 0 255	0 0 255	0 0 255	0 0 255	0 0 255	0 0 255	0 0 255	0 0 255	0 0 255	0 0 255	0 0 255	0 0 255	0 0 255	0 0 255	0 0 255	0 0 255	0 0 255	0 0 255	0 0 255	0 0 255	0 0 255	0 0 255	0 0 255	0 0 255	0 0 255	0 0 255	0 0 255	0 0 255	0 0 255	0 0 255	0 0 255	0 0 255	0 0 255	0 0 255	0 0 255	0 0 255	0 0 255	0 0 255	0 0 255	0 0 255	0 0 255	0 0 255	0 0 255	0 0 255	0 0 255	
0 0 255	0 0 255	0 0 255	0 0 255	0 0 255	0 0 255	0 0 255	0 0 255	0 0 255	0 0 255	0 0 255	0 0 255	0 0 255	0 0 255	0 0 255	0 0 255	0 0 255	0 0 255	0 0 255	0 0 255	0 0 255	0 0 255	0 0 255	0 0 255	0 0 255	0 0 255	0 0 255	0 0 255	0 0 255	0 0 255	0 0 255	0 0 255	0 0 255	0 0 255	0 0 255	0 0 255	0 0 255	0 0 255	0 0 255	0 0 255	0 0 255	0 0 255	0 0 255	0 0 255	0 0 255	0 0 255	0 0 255	0 0 255	0 0 255	0 0 255	0 0 255	0 0 255	0 0 255	0 0 255	0 0 255	0 0 255	0 0 255	0 0 255	0 0 255	0 0 255	0 0 255	0 0 255	0 0 255	0 0 255	0 0 255	0 0 255	0 0 255	0 0 255	0 0 255	0 0 255	0 0 255	0 0 255	0 0 255	0 0 255	0 0 255	0 0 255	0 0 255	0 0 255	0 0 255	0 0 255	0 0 255	0 0 255	0 0 255	0 0 255	0 0 255	0 0 255	0 0 255	0 0 255	0 0 255	0 0 255	0 0 255	0 0 255	0 0 255	0 0 255	0 0 255	0 0 255	0 0 255	0 0 255	0 0 255	0 0 255	0 0 255	0 0 255	0 0 255	0 0 255	0 0 255	0 0 255	0 0 255	0 0 255	0 0 255	0 0 255	0 0 255	0 0 255	0 0 255	0 0 255	0 0 255	0 0 255	0 0 255	0 0 255	0 0 255	0 0 255	0 0 255	0 0 255	0 0 255	0 9 51	0 17 51	0 23 51	0 29 51	0 33 51	0 37 51	0 41 51	0 44 51	0 48 51	0 50 51	0 53 51	0 55 51	0 58 51	0 72 10	0 74 10	0 76 10	0 78 10	0 80 10	0 82 10	0 83 10	0 85 10	0 86 10	0 87 10	0 88 10	0 89 10	0 90 10	0 90 10	0 91 10	0 91 10	0 94 2	0 95 2	0 95 2	0 95 2	0 94 2	0 94 2	0 94 2	0 93 2	0 93 2	0 92 2	0 91 2	0 91 2	0 90 2	0 89 2	0 88 2	0 86 2	0 85 2	0 84 2	0 83 2	0 81 2	0 80 2	0 78 2	0 76 2	0 75 2	0 73 2	0 69 10	0 67 10	0 65 10	0 63 10	0 61 10	0 59 10	0 57 10	0 55 10	0 52 10	0 50 10	0 48 10	0 45 10	0 43 10	0 40 10	0 38 10	0 35 10	0 32 10	0 29 10	0 22 51	0 19 51	0 17 51	0 14 51	0 11 51	0 8 51	0 5 51	0 2 51	0 10 51	0 10 51	0 10 51	0 10 51	0 10 51	0 10 51	0 10 51	0 0 255	0 0 255	0 0 255	0 0 255	0 0 255	0 0 255	0 0 255	0 0 255	0 0 255	0 0 255	0 0 255	0 0 255	0 0 255	0 0 255	0 0 255	0 0 255	0 0 255	0 0 255	0 0 255	0 0 255	0 0 255	0 0 255	0 0 255	0 0 255	0 0 255	0 0 255	0 0 255	0 0 255	0 0 255	0 0 255	0 0 255	0 0 255	0 0 255	0 0 255	0 0 255	0 0 255	0 0 255	0 0 255	0 0 255	0 0 255	0 0 255	0 0 255	0 0 255	0 0 255	0 0 255	0 0 255	
0 0 255	0 0 255	0 0 255	0 0 255	0 0 255	0 0 255	0 0 255	0 0 255	0 0 255	0 0 255	0 0 255	0 0 255	0 0 255	0 0 255	0 0 255	0 0 255	0 0 255	0 0 255	0 0 255	0 0 255	0 0 255	0 0 255	0 0 255	0 0 255	0 0 255	0 0 255	0 0 255	0 0 255	0 0 255	0 0 255	0 0 255	0 0 255	0 0 255	0 0 255	0 0 255	0 0 255	0 0 255	0 0 255	0 0 255	0 0 255	0 0 255	0 0 255	0 0 255	0 0 255	0 0 255	0 0 255	0 0 255	0 0 255	0 0 255	0 0 255	0 0 255	0 0 255	0 0 255	0 0 255	0 0 255	0 0 255	0 0 255	0 0 255	0 0 255	0 0 255	0 0 255	0 0 255	0 0 255	0 0 255	0 0 255	0 0 255	0 0 255	0 0 255	0 0 255	0 0 255	0 0 255	0 0 255	0 0 255	0 0 255	0 0 255	0 0 255	0 0 255	0 0 255	0 0 255	0 0 255	0 0 255	0 0 255	0 0 255	0 0 255	0 0 255	0 0 255	0 0 255	0 0 255	0 0 255	0 0 255	0 0 255	0 0 255	0 0 255	0 0 255	0 0 255	0 0 255	0 0 255	0 0 255	0 0 255	0 0 255	0 0 255	0 0 255	0 0 255	0 0 255	0 0 255	0 0 255	0 0 255	0 0 255	0 0 255	0 0 255	0 0 255	0 0 255	0 0 255	0 0 255	0 0 255	0 0 255	0 0 255	0 0 255	0 0 255	0 0 255	0 0 255	0 0 255	0 0 255	0 5 51	0 14 51	0 21 51	0 26 51	0 31 51	0 35 51	0 39 51	0 42 51	0 45 51	0 48 51	0 51 51	0 53 51	0 56 51	0 70 10	0 72 10	0 74 10	0 76 10	0 78 10	0 80 10	0 81 10	0 82 10	0 84 10	0 85 10	0 86 10	0 87 10	0 87 10	0 88 10	0 88 10	0 89 10	0 89 10	0 92 2	0 92 2	0 92 2	0 92 2	0 92 2	0 92 2	0 91 2	0 91 2	0 90 2	0 89 2	0 88 2	0 88 2	0 87 2	0 85 2	0 84 2	0 83 2	0 82 2	0 81 2	0 79 2	0 78 2	0 76 2	0 74 2	0 73 2	0 71 2	0 67 10	0 65 10	0 63 10	0 61 10	0 59 10	0 57 10	0 55 10	0 53 10	0 51 10	0 48 10	0 46 10	0 44 10	0 41 10	0 39 10	0 36 10	0 33 10	0 31 10	0 23 51	0 21 51	0 18 51	0 16 51	0 13 51	0 10 51	0 7 51	0 4 51	0 1 51	0 10 51	0 10 51	0 10 51	0 10 51	0 10 51	0 10 51	0 10 51	0 0 255	0 0 255	0 0 255	0 0 255	0 0 255	0 0 255	0 0 255	0 0 255	0 0 255	0 0 255	0 0 255	0 0 255	0 0 255	0 0 255	0 0 255	0 0 255	0 0 255	0 0 255	0 0 255	0 0 255	0 0 255	0 0 255	0 0 255	0 0 255	0 0 255	0 0 255	0 0 255	0 0 255	0 0 255	0 0 255	0 0 255	0 0 255	0 0 255	0 0 255	0 0 255	0 0 255	0 0 255	0 0 255	0 0 255	0 0 255	0 0 255	0 0 255	0 0 255	0 0 255	0 0 255	0 0 255	
0 0 255	0 0 255	0 0 255	0 0 255	0 0 255	0 0 255	0 0 255	0 0 255	0 0 255	0 0 255	0 0 255	0 0 255	0 0 255	0 0 255	0 0 255	0 0 255	0 0 255	0 0 255	0 0 255	0 0 255	0 0 255	0 0 255	0 0 255	0 0 255	0 0 255	0 0 255	0 0 255	0 0 255	0 0 255	0 0 255	0 0 255	0 0 255	0 0 255	0 0 255	0 0 255	0 0 255	0 0 255	0 0 255	0 0 255	0 0 255	0 0 255	0 0 255	0 0 255	0 0 255	0 0 255	0 0 255	0 0 255	0 0 255	0 0 255	0 0 255	0 0 255	0 0 255	0 0 255	0 0 255	0 0 255	0 0 255	0 0 255	0 0 255	0 0 255	0 0 255	0 0 255	0 0 255	0 0 255	0 0 255	0 0 255	0 0 255	0 0 255	0 0 255	0 0 255	0 0 255	0 0 255	0 0 255	0 0 255	0 0 255	0 0 255	0 0 255	0 0 255	0 0 255	0 0 255	0 0 255	0 0 255	0 0 255	0 0 255	0 0 255	0 0 255	0 0 255	0 0 255	0 0 255	0 0 255	0 0 255	0 0 255	0 0 255	0 0 255	0 0 255	0 0 255	0 0 255	0 0 255	0 0 255	0 0 255	0 0 255	0 0 255	0 0 255	0 0 255	0 0 255	0 0 255	0 0 255	0 0 255	0 0 255	0 0 255	0 0 255	0 0 255	0 0 255	0 0 255	0 0 255	0 0 255	0 0 255	0 0 255	0 0 255	0 0 255	0 0 255	0 0 255	0 0 255	0 0 255	0 1 51	0 11 51	0 18 51	0 24 51	0 29 51	0 33 51	0 37 51	0 40 51	0 43 51	0 46 51	0 49 51	0 51 51	0 54 51	0 56 51	0 69 10	0 72 10	0 74 10	0 75 10	0 77 10	0 79 10	0 80 10	0 81 10	0 82 10	0 83 10	0 84 10	0 85 10	0 86 10	0 86 10	0 86 10	0 87 10	0 87 10	0 90 2	0 90 2	0 90 2	0 90 2	0 89 2	0 89 2	0 88 2	0 88 2	0 87 2	0 86 2	0 85 2	0 84 2	0 83 2	0 82 2	0 81 2	0 80 2	0 78 2	0 77 2	0 76 2	0 74 2	0 72 2	0 71 2	0 67 10	0 65 10	0 63 10	0 61 10	0 60 10	0 58 10	0 56 10	0 53 10	0 51 10	0 49 10	0 47 10	0 45 10	0 42 10	0 40 10	0 37 10	0 35 10	0 32 10	0 29 10	0 22 51	0 19 51	0 17 51	0 14 51	0 12 51	0 9 51	0 6 51	0 3 51	0 0 51	0 10 51	0 10 51	0 10 51	0 10 51	0 10 51	0 10 51	0 0 255	0 0 255	0 0 255	0 0 255	0 0 255	0 0 255	0 0 255	0 0 255	0 0 255	0 0 255	0 0 255	0 0 255	0 0 255	0 0 255	0 0 255	0 0 255	0 0 255	0 0 255	0 0 255	0 0 255	0 0 255	0 0 255	0 0 255	0 0 255	0 0 255	0 0 255	0 0 255	0 0 255	0 0 255	0 0 255	0 0 255	0 0 255	0 0 255	0 0 255	0 0 255	0 0 255	0 0 255	0 0 255	0 0 255	0 0 255	0 0 255	0 0 255	0 0 255	0 0 255	0 0 255	0 0 255	0 0 255	
0 0 255	0 0 255	0 0 255	0 0 255	0 0 255	0 0 255	0 0 255	0 0 255	0 0 255	0 0 255	0 0 255	0 0 255	0 0 255	0 0 255	0 0 255	0 0 255	0 0 255	0 0 255	0 0 255	0 0 255	0 0 255	0 0 255	0 0 255	0 0 255	0 0 255	0 0 255	0 0 255	0 0 255	0 0 255	0 0 255	0 0 255	0 0 255	0 0 255	0 0 255	0 0 255	0 0 255	0 0 255	0 0 255	0 0 255	0 0 255	0 0 255	0 0 255	0 0 255	0 0 255	0 0 255	0 0 255	0 0 255	0 0 255	0 0 255	0 0 255	0 0 255	0 0 255	0 0 255	0 0 255	0 0 255	0 0 255	0 0 255	0 0 255	0 0 255	0 0 255	0 0 255	0 0 255	0 0 255	0 0 255	0 0 255	0 0 255	0 0 255	0 0 255	0 0 255	0 0 255	0 0 255	0 0 255	0 0 255	0 0 255	0 0 255	0 0 255	0 0 255	0 0 255	0 0 255	0 0 255	0 0 255	0 0 255	0 0 255	0 0 255	0 0 255	0 0 255	0 0 255	0 0 255	0 0 255	0 0 255	0 0 255	0 0 255	0 0 255	0 0 255	0 0 255	0 0 255	0 0 255	0 0 255	0 0 255	0 0 255	0 0 255	0 0 255	0 0 255	0 0 255	0 0 255	0 0 255	0 0 255	0 0 255	0 0 255	0 0 255	0 0 255	0 0 255	0 0 255	0 0 255	0 0 255	0 0 255	0 0 255	0 0 255	0 0 255	0 0 255	0 0 255	0 0 255	0 0 255	0 10 51	0 8 51	0 15 51	0 21 51	0 26 51	0 31 51	0 34 51	0 38 51	0 41 51	0 44 51	0 47 51	0 49 51	0 52 51	0 54 51	0 67 10	0 69 10	0 71 10	0 73 10	0 75 10	0 76 10	0 78 10	0 79 10	0 80 10	0 81 10	0 82 10	0 83 10	0 83 10	0 84 10	0 84 10	0 84 10	0 85 10	0 85 10	0 87 2	0 87 2	0 87 2	0 87 2	0 86 2	0 86 2	0 85 2	0 85 2	0 84 2	0 83 2	0 82 2	0 81 2	0 80 2	0 79 2	0 78 2	0 76 2	0 75 2	0 74 2	0 72 2	0 68 10	0 67 10	0 65 10	0 63 10	0 61 10	0 60 10	0 58 10	0 56 10	0 54 10	0 52 10	0 50 10	0 47 10	0 45 10	0 43 10	0 40 10	0 38 10	0 36 10	0 33 10	0 30 10	0 28 10	0 21 51	0 18 51	0 16 51	0 13 51	0 10 51	0 8 51	0 5 51	0 2 51	0 10 51	0 10 51	0 10 51	0 10 51	0 10 51	0 10 51	0 10 51	0 0 255	0 0 255	0 0 255	0 0 255	0 0 255	0 0 255	0 0 255	0 0 255	0 0 255	0 0 255	0 0 255	0 0 255	0 0 255	0 0 255	0 0 255	0 0 255	0 0 255	0 0 255	0 0 255	0 0 255	0 0 255	0 0 255	0 0 255	0 0 255	0 0 255	0 0 255	0 0 255	0 0 255	0 0 255	0 0 255	0 0 255	0 0 255	0 0 255	0 0 255	0 0 255	0 0 255	0 0 255	0 0 255	0 0 255	0 0 255	0 0 255	0 0 255	0 0 255	0 0 255	0 0 255	0 0 255	0 0 255	
0 0 255	0 0 255	0 0 255	0 0 255	0 0 255	0 0 255	0 0 255	0 0 255	0 0 255	0 0 255	0 0 255	0 0 255	0 0 255	0 0 255	0 0 255	0 0 255	0 0 255	0 0 255	0 0 255	0 0 255	0 0 255	0 0 255	0 0 255	0 0 255	0 0 255	0 0 255	0 0 255	0 0 255	0 0 255	0 0 255	0 0 255	0 0 255	0 0 255	0 0 255	0 0 255	0 0 255	0 0 255	0 0 255	0 0 255	0 0 255	0 0 255	0 0 255	0 0 255	0 0 255	0 0 255	0 0 255	0 0 255	0 0 255	0 0 255	0 0 255	0 0 255	0 0 255	0 0 255	0 0 255	0 0 255	0 0 255	0 0 255	0 0 255	0 0 255	0 0 255	0 0 255	0 0 255	0 0 255	0 0 255	0 0 255	0 0 255	0 0 255	0 0 255	0 0 255	0 0 255	0 0 255	0 0 255	0 0 255	0 0 255	0 0 255	0 0 255	0 0 255	0 0 255	0 0 255	0 0 255	0 0 255	0 0 255	0 0 255	0 0 255	0 0 255	0 0 255	0 0 255	0 0 255	0 0 255	0 0 255	0 0 255	0 0 255	0 0 255	0 0 255	0 0 255	0 0 255	0 0 255	0 0 255	0 0 255	0 0 255	0 0 255	0 0 255	0 0 255	0 0 255	0 0 255	0 0 255	0 0 255	0 0 255	0 0 255	0 0 255	0 0 255	0 0 255	0 0 255	0 0 255	0 0 255	0 0 255	0 0 255	0 0 255	0 0 255	0 0 255	0 0 255	0 0 255	0 0 255	0 0 255	0 4 51	0 12 51	0 18 51	0 24 51	0 28 51	0 32 51	0 36 51	0 39 51	0 42 51	0 45 51	0 47 51	0 49 51	0 52 51	0 53 51	0 66 10	0 68 10	0 70 10	0 72 10	0 74 10	0 75 10	0 76 10	0 77 10	0 78 10	0 79 10	0 80 10	0 81 10	0 81 10	0 82 10	0 82 10	0 82 10	0 82 10	0 82 10	1 82 5	0 85 2	0 84 2	0 84 2	0 84 2	0 83 2	0 82 2	0 82 2	0 81 2	0 80 2	0 79 2	0 78 2	0 77 2	0 75 2	0 74 2	0 73 2	0 71 2	0 68 10	0 66 10	0 65 10	0 63 10	0 61 10	0 60 10	0 58 10	0 56 10	0 54 10	0 52 10	0 50 10	0 48 10	0 46 10	0 43 10	0 41 10	0 39 10	0 36 10	0 34 10	0 31 10	0 29 10	0 22 51	0 19 51	0 17 51	0 14 51	0 12 51	0 9 51	0 6 51	0 3 51	0 0 51	0 10 51	0 10 51	0 10 51	0 10 51	0 10 51	0 10 51	0 10 51	0 0 255	0 0 255	0 0 255	0 0 255	0 0 255	0 0 255	0 0 255	0 0 255	0 0 255	0 0 255	0 0 255	0 0 255	0 0 255	0 0 255	0 0 255	0 0 255	0 0 255	0 0 255	0 0 255	0 0 255	0 0 255	0 0 255	0 0 255	0 0 255	0 0 255	0 0 255	0 0 255	0 0 255	0 0 255	0 0 255	0 0 255	0 0 255	0 0 255	0 0 255	0 0 255	0 0 255	0 0 255	0 0 255	0 0 255	0 0 255	0 0 255	0 0 255	0 0 255	0 0 255	0 0 255	0 0 255	0 0 255	
0 0 255	0 0 255	0 0 255	0 0 255	0 0 255	0 0 255	0 0 255	0 0 255	0 0 255	0 0 255	0 0 255	0 0 255	0 0 255	0 0 255	0 0 255	0 0 255	0 0 255	0 0 255	0 0 255	0 0 255	0 0 255	0 0 255	0 0 255	0 0 255	0 0 255	0 0 255	0 0 255	0 0 255	0 0 255	0 0 255	0 0 255	0 0 255	0 0 255	0 0 255	0 0 255	0 0 255	0 0 255	0 0 255	0 0 255	0 0 255	0 0 255	0 0 255	0 0 255	0 0 255	0 0 255	0 0 255	0 0 255	0 0 255	0 0 255	0 0 255	0 0 255	0 0 255	0 0 255	0 0 255	0 0 255	0 0 255	0 0 255	0 0 255	0 0 255	0 0 255	0 0 255	0 0 255	0 0 255	0 0 255	0 0 255	0 0 255	0 0 255	0 0 255	0 0 255	0 0 255	0 0 255	0 0 255	0 0 255	0 0 255	0 0 255	0 0 255	0 0 255	0 0 255	0 0 255	0 0 255	0 0 255	0 0 255	0 0 255	0 0 255	0 0 255	0 0 255	0 0 255	0 0 255	0 0 255	0 0 255	0 0 255	0 0 255	0 0 255	0 0 255	0 0 255	0 0 255	0 0 255	0 0 255	0 0 255	0 0 255	0 0 255	0 0 255	0 0 255	0 0 255	0 0 255	0 0 255	0 0 255	0 0 255	0 0 255	0 0 255	0 0 255	0 0 255	0 0 255	0 0 255	0 0 255	0 0 255	0 0 255	0 0 255	0 0 255	0 0 255	0 0 255	0 0 255	0 0 255	0 0 255	0 10 51	0 9 51	0 15 51	0 21 51	0 25 51	0 30 51	0 33 51	0 36 51	0 39 51	0 42 51	0 45 51	0 47 51	0 49 51	0 51 51	0 64 10	0 66 10	0 68 10	0 69 10	0 71 10	0 72 10	0 74 10	0 75 10	0 76 10	0 77 10	0 77 10	0 78 10	0 79 10	0 79 10	0 79 10	0 80 10	0 80 10	0 80 10	0 80 10	1 80 5	1 79 5	0 82 2	0 81 2	0 81 2	0 80 2	0 79 2	0 78 2	0 78 2	0 77 2	0 76 2	0 74 2	0 73 2	0 70 10	0 68 10	0 67 10	0 66 10	0 64 10	0 63 10	0 61 10	0 59 10	0 58 10	0 56 10	0 54 10	0 52 10	0 50 10	0 48 10	0 46 10	0 44 10	0 42 10	0 39 10	0 37 10	0 35 10	0 32 10	0 30 10	0 27 10	0 20 51	0 18 51	0 15 51	0 13 51	0 10 51	0 8 51	0 5 51	0 2 51	0 10 51	0 10 51	0 10 51	0 10 51	0 10 51	0 10 51	0 10 51	0 10 51	0 0 255	0 0 255	0 0 255	0 0 255	0 0 255	0 0 255	0 0 255	0 0 255	0 0 255	0 0 255	0 0 255	0 0 255	0 0 255	0 0 255	0 0 255	0 0 255	0 0 255	0 0 255	0 0 255	0 0 255	0 0 255	0 0 255	0 0 255	0 0 255	0 0 255	0 0 255	0 0 255	0 0 255	0 0 255	0 0 255	0 0 255	0 0 255	0 0 255	0 0 255	0 0 255	0 0 255	0 0 255	0 0 255	0 0 255	0 0 255	0 0 255	0 0 255	0 0 255	0 0 255	0 0 255	0 0 255	0 0 255	
0 0 255	0 0 255	0 0 255	0 0 255	0 0 255	0 0 255	0 0 255	0 0 255	0 0 255	0 0 255	0 0 255	0 0 255	0 0 255	0 0 255	0 0 255	0 0 255	0 0 255	0 0 255	0 0 255	0 0 255	0 0 255	0 0 255	0 0 255	0 0 255	0 0 255	0 0 255	0 0 255	0 0 255	0 0 255	0 0 255	0 0 255	0 0 255	0 0 255	0 0 255	0 0 255	0 0 255	0 0 255	0 0 255	0 0 255	0 0 255	0 0 255	0 0 255	0 0 255	0 0 255	0 0 255	0 0 255	0 0 255	0 0 255	0 0 255	0 0 255	0 0 255	0 0 255	0 0 255	0 0 255	0 0 255	0 0 255	0 0 255	0 0 255	0 0 255	0 0 255	0 0 255	0 0 255	0 0 255	0 0 255	0 0 255	0 0 255	0 0 255	0 0 255	0 0 255	0 0 255	0 0 255	0 0 255	0 0 255	0 0 255	0 0 255	0 0 255	0 0 255	0 0 255	0 0 255	0 0 255	0 0 255	0 0 255	0 0 255	0 0 255	0 0 255	0 0 255	0 0 255	0 0 255	0 0 255	0 0 255	0 0 255	0 0 255	0 0 255	0 0 255	0 0 255	0 0 255	0 0 255	0 0 255	0 0 255	0 0 255	0 0 255	0 0 255	0 0 255	0 0 255	0 0 255	0 0 255	0 0 255	0 0 255	0 0 255	0 0 255	0 0 255	0 0 255	0 0 255	0 0 255	0 0 255	0 0 255	0 0 255	0 0 255	0 0 255	0 0 255	0 0 255	0 0 255	0 0 255	0 0 255	0 10 51	0 5 51	0 12 51	0 18 51	0 23 51	0 27 51	0 31 51	0 34 51	0 37 51	0 40 51	0 42 51	0 45 51	0 47 51	0 49 51	0 51 51	0 63 10	0 65 10	0 67 10	0 68 10	0 70 10	0 71 10	0 72 10	0 73 10	0 74 10	0 75 10	0 76 10	0 76 10	0 77 10	0 77 10	0 77 10	0 77 10	0 77 10	0 77 10	0 77 10	0 77 10	0 76 10	0 76 10	0 76 10	0 75 10	0 74 10	0 73 10	0 73 10	0 72 10	0 71 10	0 70 10	0 69 10	0 67 10	0 66 10	0 65 10	0 63 10	0 62 10	0 60 10	0 59 10	0 57 10	0 56 10	0 54 10	0 52 10	0 50 10	0 48 10	0 46 10	0 44 10	0 42 10	0 40 10	0 38 10	0 35 10	0 33 10	0 30 10	0 28 10	0 21 51	0 19 51	0 16 51	0 14 51	0 11 51	0 9 51	0 6 51	0 3 51	0 0 51	0 10 51	0 10 51	0 10 51	0 10 51	0 10 51	0 10 51	0 10 51	0 0 255	0 0 255	0 0 255	0 0 255	0 0 255	0 0 255	0 0 255	0 0 255	0 0 255	0 0 255	0 0 255	0 0 255	0 0 255	0 0 255	0 0 255	0 0 255	0 0 255	0 0 255	0 0 255	0 0 255	0 0 255	0 0 255	0 0 255	0 0 255	0 0 255	0 0 255	0 0 255	0 0 255	0 0 255	0 0 255	0 0 255	0 0 255	0 0 255	0 0 255	0 0 255	0 0 255	0 0 255	0 0 255	0 0 255	0 0 255	0 0 255	0 0 255	0 0 255	0 0 255	0 0 255	0 0 255	0 0 255	0 0 255	
0 0 255	0 0 255	0 0 255	0 0 255	0 0 255	0 0 255	0 0 255	0 0 255	0 0 255	0 0 255	0 0 255	0 0 255	0 0 255	0 0 255	0 0 255	0 0 255	0 0 255	0 0 255	0 0 255	0 0 255	0 0 255	0 0 255	0 0 255	0 0 255	0 0 255	0 0 255	0 0 255	0 0 255	0 0 255	0 0 255	0 0 255	0 0 255	0 0 255	0 0 255	0 0 255	0 0 255	0 0 255	0 0 255	0 0 255	0 0 255	0 0 255	0 0 255	0 0 255	0 0 255	0 0 255	0 0 255	0 0 255	0 0 255	0 0 255	0 0 255	0 0 255	0 0 255	0 0 255	0 0 255	0 0 255	0 0 255	0 0 255	0 0 255	0 0 255	0 0 255	0 0 255	0 0 255	0 0 255	0 0 255	0 0 255	0 0 255	0 0 255	0 0 255	0 0 255	0 0 255	0 0 255	0 0 255	0 0 255	0 0 255	0 0 255	0 0 255	0 0 255	0 0 255	0 0 255	0 0 255	0 0 255	0 0 255	0 0 255	0 0 255	0 0 255	0 0 255	0 0 255	0 0 255	0 0 255	0 0 255	0 0 255	0 0 255	0 0 255	0 0 255	0 0 255	0 0 255	0 0 255	0 0 255	0 0 255	0 0 255	0 0 255	0 0 255	0 0 255	0 0 255	0 0 255	0 0 255	0 0 255	0 0 255	0 0 255	0 0 255	0 0 255	0 0 255	0 0 255	0 0 255	0 0 255	0 0 255	0 0 255	0 0 255	0 0 255	0 0 255	0 0 255	0 0 255	0 0 255	0 0 255	0 0 255	0 0 51	0 8 51	0 15 51	0 20 51	0 24 51	0 28 51	0 31 51	0 34 51	0 37 51	0 40 51	0 42 51	0 45 51	0 47 51	4 48 25	7 50 25	0 62 10	0 64 10	0 65 10	0 67 10	0 68 10	0 69 10	0 70 10	0 71 10	0 72 10	0 73 10	0 73 10	0 74 10	0 74 10	0 74 10	0 75 10	0 75 10	0 75 10	0 74 10	0 74 10	0 74 10	0 74 10	0 73 10	0 72 10	0 72 10	0 71 10	0 70 10	0 69 10	0 68 10	0 67 10	0 66 10	0 65 10	0 64 10	0 63 10	0 61 10	0 60 10	0 58 10	0 57 10	0 55 10	0 53 10	0 52 10	0 50 10	0 48 10	0 46 10	0 44 10	0 42 10	0 40 10	0 38 10	0 36 10	0 33 10	0 31 10	0 28 10	0 26 10	0 19 51	0 17 51	0 15 51	0 12 51	0 10 51	0 7 51	0 5 51	0 2 51	0 10 51	0 10 51	0 10 51	0 10 51	0 10 51	0 10 51	0 10 51	0 10 51	0 0 255	0 0 255	0 0 255	0 0 255	0 0 255	0 0 255	0 0 255	0 0 255	0 0 255	0 0 255	0 0 255	0 0 255	0 0 255	0 0 255	0 0 255	0 0 255	0 0 255	0 0 255	0 0 255	0 0 255	0 0 255	0 0 255	0 0 255	0 0 255	0 0 255	0 0 255	0 0 255	0 0 255	0 0 255	0 0 255	0 0 255	0 0 255	0 0 255	0 0 255	0 0 255	0 0 255	0 0 255	0 0 255	0 0 255	0 0 255	0 0 255	0 0 255	0 0 255	0 0 255	0 0 255	0 0 255	0 0 255	0 0 255	
0 0 255	0 0 255	0 0 255	0 0 255	0 0 255	0 0 255	0 0 255	0 0 255	0 0 255	0 0 255	0 0 255	0 0 255	0 0 255	0 0 255	0 0 255	0 0 255	0 0 255	0 0 255	0 0 255	0 0 255	0 0 255	0 0 255	0 0 255	0 0 255	0 0 255	0 0 255	0 0 255	0 0 255	0 0 255	0 0 255	0 0 255	0 0 255	0 0 255	0 0 255	0 0 255	0 0 255	0 0 255	0 0 255	0 0 255	0 0 255	0 0 255	0 0 255	0 0 255	0 0 255	0 0 255	0 0 255	0 0 255	0 0 255	0 0 255	0 0 255	0 0 255	0 0 255	0 0 255	0 0 255	0 0 255	0 0 255	0 0 255	0 0 255	0 0 255	0 0 255	0 0 255	0 0 255	0 0 255	0 0 255	0 0 255	0 0 255	0 0 255	0 0 255	0 0 255	0 0 255	0 0 255	0 0 255	0 0 255	0 0 255	0 0 255	0 0 255	0 0 255	0 0 255	0 0 255	0 0 255	0 0 255	0 0 255	0 0 255	0 0 255	0 0 255	0 0 255	0 0 255	0 0 255	0 0 255	0 0 255	0 0 255	0 0 255	0 0 255	0 0 255	0 0 255	0 0 255	0 0 255	0 0 255	0 0 255	0 0 255	0 0 255	0 0 255	0 0 255	0 0 255	0 0 255	0 0 255	0 0 255	0 0 255	0 0 255	0 0 255	0 0 255	0 0 255	0 0 255	0 0 255	0 0 255	0 0 255	0 0 255	0 0 255	0 0 255	0 0 255	0 0 255	0 0 255	0 0 255	0 0 255	0 0 255	0 10 51	0 4 51	0 11 51	0 17 51	0 21 51	0 25 51	0 29 51	0 32 51	0 35 51	0 37 51	0 40 51	0 42 51	0 44 51	6 46 25	8 48 25	0 59 10	0 61 10	0 63 10	0 64 10	0 65 10	0 67 10	0 68 10	0 69 10	0 69 10	0 70 10	0 71 10	0 71 10	0 72 10	0 72 10	0 72 10	0 72 10	0 72 10	0 72 10	0 72 10	0 71 10	0 71 10	0 71 10	0 70 10	0 69 10	0 69 10	0 68 10	0 67 10	0 66 10	0 65 10	0 64 10	0 63 10	0 62 10	0 60 10	0 59 10	0 58 10	0 56 10	0 55 10	0 53 10	0 51 10	0 50 10	0 48 10	0 46 10	0 44 10	0 42 10	0 40 10	0 38 10	0 36 10	0 34 10	0 31 10	0 29 10	0 27 10	0 20 51	0 18 51	0 16 51	0 13 51	0 11 51	0 8 51	0 6 51	0 3 51	0 0 51	0 10 51	0 10 51	0 10 51	0 10 51	0 10 51	0 10 51	0 10 51	0 10 51	0 0 255	0 0 255	0 0 255	0 0 255	0 0 255	0 0 255	0 0 255	0 0 255	0 0 255	0 0 255	0 0 255	0 0 255	0 0 255	0 0 255	0 0 255	0 0 255	0 0 255	0 0 255	0 0 255	0 0 255	0 0 255	0 0 255	0 0 255	0 0 255	0 0 255	0 0 255	0 0 255	0 0 255	0 0 255	0 0 255	0 0 255	0 0 255	0 0 255	0 0 255	0 0 255	0 0 255	0 0 255	0 0 255	0 0 255	0 0 255	0 0 255	0 0 255	0 0 255	0 0 255	0 0 255	0 0 255	0 0 255	0 0 255	
0 0 255	0 0 255	0 0 255	0 0 255	0 0 255	0 0 255	0 0 255	0 0 255	0 0 255	0 0 255	0 0 255	0 0 255	0 0 255	0 0 255	0 0 255	0 0 255	0 0 255	0 0 255	0 0 255	0 0 255	0 0 255	0 0 255	0 0 255	0 0 255	0 0 255	0 0 255	0 0 255	0 0 255	0 0 255	0 0 255	0 0 255	0 0 255	0 0 255	0 0 255	0 0 255	0 0 255	0 0 255	0 0 255	0 0 255	0 0 255	0 0 255	0 0 255	0 0 255	0 0 255	0 0 255	0 0 255	0 0 255	0 0 255	0 0 255	0 0 255	0 0 255	0 0 255	0 0 255	0 0 255	0 0 255	0 0 255	0 0 255	0 0 255	0 0 255	0 0 255	0 0 255	0 0 255	0 0 255	0 0 255	0 0 255	0 0 255	0 0 255	0 0 255	0 0 255	0 0 255	0 0 255	0 0 255	0 0 255	0 0 255	0 0 255	0 0 255	0 0 255	0 0 255	0 0 255	0 0 255	0 0 255	0 0 255	0 0 255	0 0 255	0 0 255	0 0 255	0 0 255	0 0 255	0 0 255	0 0 255	0 0 255	0 0 255	0 0 255	0 0 255	0 0 255	0 0 255	0 0 255	0 0 255	0 0 255	0 0 255	0 0 255	0 0 255	0 0 255	0 0 255	0 0 255	0 0 255	0 0 255	0 0 255	0 0 255	0 0 255	0 0 255	0 0 255	0 0 255	0 0 255	0 0 255	0 0 255	0 0 255	0 0 255	0 0 255	0 0 255	0 0 255	0 0 255	0 0 255	0 0 255	0 0 255	0 0 255	0 5 51	0 7 51	0 13 51	0 18 51	0 22 51	0 26 51	0 29 51	0 32 51	0 35 51	0 37 51	0 39 51	0 42 51	7 43 25	9 45 25	9 47 25	0 58 10	0 60 10	0 61 10	0 63 10	0 64 10	0 65 10	0 66 10	0 67 10	0 67 10	0 68 10	0 68 10	0 69 10	0 69 10	0 69 10	0 69 10	0 69 10	0 69 10	0 69 10	0 69 10	0 68 10	0 68 10	0 67 10	0 67 10	0 66 10	0 65 10	0 65 10	0 64 10	0 63 10	0 62 10	0 61 10	0 59 10	0 58 10	0 57 10	0 55 10	0 54 10	0 52 10	0 51 10	0 49 10	0 47 10	0 46 10	0 44 10	0 42 10	0 40 10	0 38 10	0 36 10	0 34 10	0 32 10	0 29 10	0 27 10	0 20 51	0 18 51	0 16 51	0 14 51	0 12 51	0 9 51	0 7 51	0 4 51	0 1 51	0 10 51	0 10 51	0 10 51	0 10 51	0 10 51	0 10 51	0 10 51	0 10 51	0 0 255	0 0 255	0 0 255	0 0 255	0 0 255	0 0 255	0 0 255	0 0 255	0 0 255	0 0 255	0 0 255	0 0 255	0 0 255	0 0 255	0 0 255	0 0 255	0 0 255	0 0 255	0 0 255	0 0 255	0 0 255	0 0 255	0 0 255	0 0 255	0 0 255	0 0 255	0 0 255	0 0 255	0 0 255	0 0 255	0 0 255	0 0 255	0 0 255	0 0 255	0 0 255	0 0 255	0 0 255	0 0 255	0 0 255	0 0 255	0 0 255	0 0 255	0 0 255	0 0 255	0 0 255	0 0 255	0 0 255	0 0 255	0 0 255	
0 0 255	0 0 255	0 0 255	0 0 255	0 0 255	0 0 255	0 0 255	0 0 255	0 0 255	0 0 255	0 0 255	0 0 255	0 0 255	0 0 255	0 0 255	0 0 255	0 0 255	0 0 255	0 0 255	0 0 255	0 0 255	0 0 255	0 0 255	0 0 255	0 0 255	0 0 255	0 0 255	0 0 255	0 0 255	0 0 255	0 0 255	0 0 255	0 0 255	0 0 255	0 0 255	0 0 255	0 0 255	0 0 255	0 0 255	0 0 255	0 0 255	0 0 255	0 0 255	0 0 255	0 0 255	0 0 255	0 0 255	0 0 255	0 0 255	0 0 255	0 0 255	0 0 255	0 0 255	0 0 255	0 0 255	0 0 255	0 0 255	0 0 255	0 0 255	0 0 255	0 0 255	0 0 255	0 0 255	0 0 255	0 0 255	0 0 255	0 0 255	0 0 255	0 0 255	0 0 255	0 0 255	0 0 255	0 0 255	0 0 255	0 0 255	0 0 255	0 0 255	0 0 255	0 0 255	0 0 255	0 0 255	0 0 255	0 0 255	0 0 255	0 0 255	0 0 255	0 0 255	0 0 255	0 0 255	0 0 255	0 0 255	0 0 255	0 0 255	0 0 255	0 0 255	0 0 255	0 0 255	0 0 255	0 0 255	0 0 255	0 0 255	0 0 255	0 0 255	0 0 255	0 0 255	0 0 255	0 0 255	0 0 255	0 0 255	0 0 255	0 0 255	0 0 255	0 0 255	0 0 255	0 0 255	0 0 255	0 0 255	0 0 255	0 0 255	0 0 255	0 0 255	0 0 255	0 0 255	0 0 255	0 0 255	0 0 255	0 10 51	0 3 51	0 9 51	0 15 51	0 19 51	0 23 51	0 26 51	0 29 51	0 32 51	0 35 51	0 37 51	5 39 25	8 41 25	9 43 25	10 44 25	10 46 25	0 57 10	0 58 10	0 60 10	0 61 10	0 62 10	0 63 10	0 64 10	0 65 10	0 65 10	0 66 10	0 66 10	0 66 10	0 67 10	0 67 10	0 67 10	0 67 10	0 66 10	0 66 10	0 66 10	0 65 10	0 65 10	0 64 10	0 64 10	0 63 10	0 62 10	0 61 10	0 60 10	0 59 10	0 58 10	0 57 10	0 56 10	0 54 10	0 53 10	0 52 10	0 50 10	0 49 10	0 47 10	0 45 10	0 44 10	0 42 10	0 40 10	0 38 10	0 36 10	0 34 10	0 32 10	0 30 10	0 27 10	0 21 51	0 19 51	0 17 51	0 14 51	0 12 51	0 10 51	0 7 51	0 5 51	0 2 51	0 5 51	0 10 51	0 10 51	0 10 51	0 10 51	0 10 51	0 10 51	0 10 51	0 10 51	0 0 255	0 0 255	0 0 255	0 0 255	0 0 255	0 0 255	0 0 255	0 0 255	0 0 255	0 0 255	0 0 255	0 0 255	0 0 255	0 0 255	0 0 255	0 0 255	0 0 255	0 0 255	0 0 255	0 0 255	0 0 255	0 0 255	0 0 255	0 0 255	0 0 255	0 0 255	0 0 255	0 0 255	0 0 255	0 0 255	0 0 255	0 0 255	0 0 255	0 0 255	0 0 255	0 0 255	0 0 255	0 0 255	0 0 255	0 0 255	0 0 255	0 0 255	0 0 255	0 0 255	0 0 255	0 0 255	0 0 255	0 0 255	0 0 255	
0 0 255	0 0 255	0 0 255	0 0 255	0 0 255	0 0 255	0 0 255	0 0 255	0 0 255	0 0 255	0 0 255	0 0 255	0 0 255	0 0 255	0 0 255	0 0 255	0 0 255	0 0 255	0 0 255	0 0 255	0 0 255	0 0 255	0 0 255	0 0 255	0 0 255	0 0 255	0 0 255	0 0 255	0 0 255	0 0 255	0 0 255	0 0 255	0 0 255	0 0 255	0 0 255	0 0 255	0 0 255	0 0 255	0 0 255	0 0 255	0 0 255	0 0 255	0 0 255	0 0 255	0 0 255	0 0 255	0 0 255	0 0 255	0 0 255	0 0 255	0 0 255	0 0 255	0 0 255	0 0 255	0 0 255	0 0 255	0 0 255	0 0 255	0 0 255	0 0 255	0 0 255	0 0 255	0 0 255	0 0 255	0 0 255	0 0 255	0 0 255	0 0 255	0 0 255	0 0 255	0 0 255	0 0 255	0 0 255	0 0 255	0 0 255	0 0 255	0 0 255	0 0 255	0 0 255	0 0 255	0 0 255	0 0 255	0 0 255	0 0 255	0 0 255	0 0 255	0 0 255	0 0 255	0 0 255	0 0 255	0 0 255	0 0 255	0 0 255	0 0 255	0 0 255	0 0 255	0 0 255	0 0 255	0 0 255	0 0 255	0 0 255	0 0 255	0 0 255	0 0 255	0 0 255	0 0 255	0 0 255	0 0 255	0 0 255	0 0 255	0 0 255	0 0 255	0 0 255	0 0 255	0 0 255	0 0 255	0 0 255	0 0 255	0 0 255	0 0 255	0 0 255	0 0 255	0 0 255	0 0 255	0 0 255	0 0 255	0 0 255	0 10 51	0 5 51	0 11 51	0 16 51	0 20 51	0 23 51	0 26 51	0 29 51	0 32 51	0 34 51	6 36 25	8 38 25	9 40 25	10 42 25	11 43 25	17 45 12	0 55 10	0 57 10	0 58 10	0 59 10	0 60 10	0 61 10	0 62 10	0 62 10	0 63 10	0 63 10	0 64 10	0 64 10	0 64 10	0 64 10	0 64 10	0 64 10	0 63 10	0 63 10	0 63 10	0 62 10	0 62 10	0 61 10	0 60 10	0 60 10	0 59 10	0 58 10	0 57 10	0 56 10	0 55 10	0 53 10	0 52 10	0 51 10	0 49 10	0 48 10	0 46 10	0 45 10	0 43 10	0 41 10	0 39 10	0 38 10	0 36 10	0 34 10	0 32 10	0 30 10	0 27 10	0 25 10	0 19 51	0 17 51	0 15 51	0 13 51	0 10 51	0 8 51	0 6 51	0 3 51	0 0 51	0 10 51	0 10 51	0 10 51	0 10 51	0 10 51	0 10 51	0 10 51	0 10 51	0 10 51	0 0 255	0 0 255	0 0 255	0 0 255	0 0 255	0 0 255	0 0 255	0 0 255	0 0 255	0 0 255	0 0 255	0 0 255	0 0 255	0 0 255	0 0 255	0 0 255	0 0 255	0 0 255	0 0 255	0 0 255	0 0 255	0 0 255	0 0 255	0 0 255	0 0 255	0 0 255	0 0 255	0 0 255	0 0 255	0 0 255	0 0 255	0 0 255	0 0 255	0 0 255	0 0 255	0 0 255	0 0 255	0 0 255	0 0 255	0 0 255	0 0 255	0 0 255	0 0 255	0 0 255	0 0 255	0 0 255	0 0 255	0 0 255	0 0 255	
0 0 255	0 0 255	0 0 255	0 0 255	0 0 255	0 0 255	0 0 255	0 0 255	0 0 255	0 0 255	0 0 255	0 0 255	0 0 255	0 0 255	0 0 255	0 0 255	0 0 255	0 0 255	0 0 255	0 0 255	0 0 255	0 0 255	0 0 255	0 0 255	0 0 255	0 0 255	0 0 255	0 0 255	0 0 255	0 0 255	0 0 255	0 0 255	0 0 255	0 0 255	0 0 255	0 0 255	0 0 255	0 0 255	0 0 255	0 0 255	0 0 255	0 0 255	0 0 255	0 0 255	0 0 255	0 0 255	0 0 255	0 0 255	0 0 255	0 0 255	0 0 255	0 0 255	0 0 255	0 0 255	0 0 255	0 0 255	0 0 255	0 0 255	0 0 255	0 0 255	0 0 255	0 0 255	0 0 255	0 0 255	0 0 255	0 0 255	0 0 255	0 0 255	0 0 255	0 0 255	0 0 255	0 0 255	0 0 255	0 0 255	0 0 255	0 0 255	0 0 255	0 0 255	0 0 255	0 0 255	0 0 255	0 0 255	0 0 255	0 0 255	0 0 255	0 0 255	0 0 255	0 0 255	0 0 255	0 0 255	0 0 255	0 0 255	0 0 255	0 0 255	0 0 255	0 0 255	0 0 255	0 0 255	0 0 255	0 0 255	0 0 255	0 0 255	0 0 255	0 0 255	0 0 255	0 0 255	0 0 255	0 0 255	0 0 255	0 0 255	0 0 255	0 0 255	0 0 255	0 0 255	0 0 255	0 0 255	0 0 255	0 0 255	0 0 255	0 0 255	0 0 255	0 0 255	0 0 255	0 0 255	0 0 255	0 0 255	0 0 255	0 10 51	0 0 51	0 7 51	0 12 51	0 16 51	0 20 51	0 23 51	0 26 51	0 29 51	0 31 51	7 34 25	9 36 25	10 37 25	10 39 25	11 41 25	17 42 12	18 43 12	0 54 10	0 55 10	0 56 10	0 57 10	0 58 10	0 59 10	0 59 10	0 60 10	0 60 10	0 61 10	0 61 10	0 61 10	0 61 10	0 61 10	0 61 10	0 61 10	0 60 10	0 60 10	0 60 10	0 59 10	0 58 10	0 58 10	0 57 10	0 56 10	0 55 10	0 54 10	0 53 10	0 52 10	0 51 10	0 50 10	0 48 10	0 47 10	0 45 10	0 44 10	0 42 10	0 41 10	0 39 10	0 37 10	0 35 10	0 33 10	0 31 10	0 29 10	0 27 10	0 25 10	0 19 51	0 17 51	0 15 51	0 13 51	0 11 51	0 9 51	0 6 51	0 4 51	0 1 51	0 10 51	0 10 51	0 10 51	0 10 51	0 10 51	0 10 51	0 10 51	0 10 51	0 10 51	0 0 255	0 0 255	0 0 255	0 0 255	0 0 255	0 0 255	0 0 255	0 0 255	0 0 255	0 0 255	0 0 255	0 0 255	0 0 255	0 0 255	0 0 255	0 0 255	0 0 255	0 0 255	0 0 255	0 0 255	0 0 255	0 0 255	0 0 255	0 0 255	0 0 255	0 0 255	0 0 255	0 0 255	0 0 255	0 0 255	0 0 255	0 0 255	0 0 255	0 0 255	0 0 255	0 0 255	0 0 255	0 0 255	0 0 255	0 0 255	0 0 255	0 0 255	0 0 255	0 0 255	0 0 255	0 0 255	0 0 255	0 0 255	0 0 255	0 0 255	
0 0 255	0 0 255	0 0 255	0 0 255	0 0 255	0 0 255	0 0 255	0 0 255	0 0 255	0 0 255	0 0 255	0 0 255	0 0 255	0 0 255	0 0 255	0 0 255	0 0 255	0 0 255	0 0 255	0 0 255	0 0 255	0 0 255	0 0 255	0 0 255	0 0 255	0 0 255	0 0 255	0 0 255	0 0 255	0 0 255	0 0 255	0 0 255	0 0 255	0 0 255	0 0 255	0 0 255	0 0 255	0 0 255	0 0 255	0 0 255	0 0 255	0 0 255	0 0 255	0 0 255	0 0 255	0 0 255	0 0 255	0 0 255	0 0 255	0 0 255	0 0 255	0 0 255	0 0 255	0 0 255	0 0 255	0 0 255	0 0 255	0 0 255	0 0 255	0 0 255	0 0 255	0 0 255	0 0 255	0 0 255	0 0 255	0 0 255	0 0 255	0 0 255	0 0 255	0 0 255	0 0 255	0 0 255	0 0 255	0 0 255	0 0 255	0 0 255	0 0 255	0 0 255	0 0 255	0 0 255	0 0 255	0 0 255	0 0 255	0 0 255	0 0 255	0 0 255	0 0 255	0 0 255	0 0 255	0 0 255	0 0 255	0 0 255	0 0 255	0 0 255	0 0 255	0 0 255	0 0 255	0 0 255	0 0 255	0 0 255	0 0 255	0 0 255	0 0 255	0 0 255	0 0 255	0 0 255	0 0 255	0 0 255	0 0 255	0 0 255	0 0 255	0 0 255	0 0 255	0 0 255	0 0 255	0 0 255	0 0 255	0 0 255	0 0 255	0 0 255	0 0 255	0 0 255	0 0 255	0 0 255	0 0 255	0 0 255	0 0 255	0 0 255	0 10 51	0 2 51	0 8 51	0 13 51	0 17 51	0 20 51	0 23 51	0 26 51	0 28 51	7 31 25	9 33 25	10 35 25	10 36 25	11 38 25	17 39 12	18 41 12	18 42 12	0 52 10	0 53 10	0 54 10	0 55 10	0 56 10	0 56 10	0 57 10	0 57 10	0 58 10	0 58 10	0 58 10	0 58 10	0 58 10	0 58 10	0 58 10	0 58 10	0 57 10	0 57 10	0 56 10	0 56 10	0 55 10	0 54 10	0 53 10	0 53 10	0 52 10	0 51 10	0 49 10	0 48 10	0 47 10	0 46 10	0 44 10	0 43 10	0 41 10	0 40 10	0 38 10	0 37 10	0 35 10	0 33 10	0 31 10	0 29 10	0 27 10	0 25 10	0 19 51	0 17 51	0 15 51	0 13 51	0 11 51	0 9 51	0 7 51	0 4 51	0 2 51	0 5 51	0 10 51	0 10 51	0 10 51	0 10 51	0 10 51	0 10 51	0 10 51	0 10 51	0 10 51	0 0 255	0 0 255	0 0 255	0 0 255	0 0 255	0 0 255	0 0 255	0 0 255	0 0 255	0 0 255	0 0 255	0 0 255	0 0 255	0 0 255	0 0 255	0 0 255	0 0 255	0 0 255	0 0 255	0 0 255	0 0 255	0 0 255	0 0 255	0 0 255	0 0 255	0 0 255	0 0 255	0 0 255	0 0 255	0 0 255	0 0 255	0 0 255	0 0 255	0 0 255	0 0 255	0 0 255	0 0 255	0 0 255	0 0 255	0 0 255	0 0 255	0 0 255	0 0 255	0 0 255	0 0 255	0 0 255	0 0 255	0 0 255	0 0 255	0 0 255	
0 0 255	0 0 255	0 0 255	0 0 255	0 0 255	0 0 255	0 0 255	0 0 255	0 0 255	0 0 255	0 0 255	0 0 255	0 0 255	0 0 255	0 0 255	0 0 255	0 0 255	0 0 255	0 0 255	0 0 255	0 0 255	0 0 255	0 0 255	0 0 255	0 0 255	0 0 255	0 0 255	0 0 255	0 0 255	0 0 255	0 0 255	0 0 255	0 0 255	0 0 255	0 0 255	0 0 255	0 0 255	0 0 255	0 0 255	0 0 255	0 0 255	0 0 255	0 0 255	0 0 255	0 0 255	0 0 255	0 0 255	0 0 255	0 0 255	0 0 255	0 0 255	0 0 255	0 0 255	0 0 255	0 0 255	0 0 255	0 0 255	0 0 255	0 0 255	0 0 255	0 0 255	0 0 255	0 0 255	0 0 255	0 0 255	0 0 255	0 0 255	0 0 255	0 0 255	0 0 255	0 0 255	0 0 255	0 0 255	0 0 255	0 0 255	0 0 255	0 0 255	0 0 255	0 0 255	0 0 255	0 0 255	0 0 255	0 0 255	0 0 255	0 0 255	0 0 255	0 0 255	0 0 255	0 0 255	0 0 255	0 0 255	0 0 255	0 0 255	0 0 255	0 0 255	0 0 255	0 0 255	0 0 255	0 0 255	0 0 255	0 0 255	0 0 255	0 0 255	0 0 255	0 0 255	0 0 255	0 0 255	0 0 255	0 0 255	0 0 255	0 0 255	0 0 255	0 0 255	0 0 255	0 0 255	0 0 255	0 0 255	0 0 255	0 0 255	0 0 255	0 0 255	0 0 255	0 0 255	0 0 255	0 0 255	0 0 255	0 0 255	0 0 255	0 10 51	0 10 51	0 3 51	0 9 51	0 13 51	0 17 51	0 20 51	0 23 51	0 25 51	7 28 25	9 30 25	10 32 25	11 34 25	11 35 25	17 37 12	18 38 12	18 39 12	18 40 12	0 50 10	0 51 10	0 52 10	0 53 10	0 53 10	0 54 10	0 54 10	0 55 10	0 55 10	0 55 10	0 55 10	0 55 10	0 55 10	0 55 10	0 55 10	0 55 10	0 54 10	0 54 10	0 53 10	0 52 10	0 52 10	0 51 10	0 50 10	0 49 10	0 48 10	0 47 10	0 46 10	0 45 10	0 43 10	0 42 10	0 40 10	0 39 10	0 37 10	0 36 10	0 34 10	0 32 10	0 31 10	0 29 10	0 27 10	0 25 10	0 19 51	0 17 51	0 15 51	0 13 51	0 11 51	0 9 51	0 7 51	0 5 51	0 2 51	0 0 51	0 10 51	0 10 51	0 10 51	0 10 51	0 10 51	0 10 51	0 10 51	0 10 51	0 10 51	0 0 255	0 0 255	0 0 255	0 0 255	0 0 255	0 0 255	0 0 255	0 0 255	0 0 255	0 0 255	0 0 255	0 0 255	0 0 255	0 0 255	0 0 255	0 0 255	0 0 255	0 0 255	0 0 255	0 0 255	0 0 255	0 0 255	0 0 255	0 0 255	0 0 255	0 0 255	0 0 255	0 0 255	0 0 255	0 0 255	0 0 255	0 0 255	0 0 255	0 0 255	0 0 255	0 0 255	0 0 255	0 0 255	0 0 255	0 0 255	0 0 255	0 0 255	0 0 255	0 0 255	0 0 255	0 0 255	0 0 255	0 0 255	0 0 255	0 0 255	0 0 255	
0 0 255	0 0 255	0 0 255	0 0 255	0 0 255	0 0 255	0 0 255	0 0 255	0 0 255	0 0 255	0 0 255	0 0 255	0 0 255	0 0 255	0 0 255	0 0 255	0 0 255	0 0 255	0 0 255	0 0 255	0 0 255	0 0 255	0 0 255	0 0 255	0 0 255	0 0 255	0 0 255	0 0 255	0 0 255	0 0 255	0 0 255	0 0 255	0 0 255	0 0 255	0 0 255	0 0 255	0 0 255	0 0 255	0 0 255	0 0 255	0 0 255	0 0 255	0 0 255	0 0 255	0 0 255	0 0 255	0 0 255	0 0 255	0 0 255	0 0 255	0 0 255	0 0 255	0 0 255	0 0 255	0 0 255	0 0 255	0 0 255	0 0 255	0 0 255	0 0 255	0 0 255	0 0 255	0 0 255	0 0 255	0 0 255	0 0 255	0 0 255	0 0 255	0 0 255	0 0 255	0 0 255	0 0 255	0 0 255	0 0 255	0 0 255	0 0 255	0 0 255	0 0 255	0 0 255	0 0 255	0 0 255	0 0 255	0 0 255	0 0 255	0 0 255	0 0 255	0 0 255	0 0 255	0 0 255	0 0 255	0 0 255	0 0 255	0 0 255	0 0 255	0 0 255	0 0 255	0 0 255	0 0 255	0 0 255	0 0 255	0 0 255	0 0 255	0 0 255	0 0 255	0 0 255	0 0 255	0 0 255	0 0 255	0 0 255	0 0 255	0 0 255	0 0 255	0 0 255	0 0 255	0 0 255	0 0 255	0 0 255	0 0 255	0 0 255	0 0 255	0 0 255	0 0 255	0 0 255	0 0 255	0 0 255	0 0 255	0 0 255	0 0 255	0 0 255	0 10 51	0 10 51	0 4 51	0 9 51	0 13 51	0 16 51	0 19 51	0 22 51	7 25 25	9 27 25	10 29 25	11 31 25	11 32 25	17 34 12	18 35 12	18 37 12	18 38 12	19 39 12	0 48 10	0 49 10	0 49 10	0 50 10	0 51 10	0 51 10	0 52 10	0 52 10	0 52 10	0 52 10	0 52 10	0 52 10	0 52 10	0 52 10	0 52 10	0 51 10	0 51 10	0 50 10	0 50 10	0 49 10	0 48 10	0 47 10	0 46 10	0 45 10	0 44 10	0 43 10	0 42 10	0 41 10	0 39 10	0 38 10	0 36 10	0 35 10	0 33 10	0 32 10	0 30 10	0 28 10	0 26 10	0 20 51	0 18 51	0 17 51	0 15 51	0 13 51	0 11 51	0 9 51	0 7 51	0 5 51	0 2 51	0 0 51	0 10 51	0 10 51	0 10 51	0 10 51	0 10 51	0 10 51	0 10 51	0 10 51	0 10 51	0 0 255	0 0 255	0 0 255	0 0 255	0 0 255	0 0 255	0 0 255	0 0 255	0 0 255	0 0 255	0 0 255	0 0 255	0 0 255	0 0 255	0 0 255	0 0 255	0 0 255	0 0 255	0 0 255	0 0 255	0 0 255	0 0 255	0 0 255	0 0 255	0 0 255	0 0 255	0 0 255	0 0 255	0 0 255	0 0 255	0 0 255	0 0 255	0 0 255	0 0 255	0 0 255	0 0 255	0 0 255	0 0 255	0 0 255	0 0 255	0 0 255	0 0 255	0 0 255	0 0 255	0 0 255	0 0 255	0 0 255	0 0 255	0 0 255	0 0 255	0 0 255	0 0 255	
0 0 255	0 0 255	0 0 255	0 0 255	0 0 255	0 0 255	0 0 255	0 0 255	0 0 255	0 0 255	0 0 255	0 0 255	0 0 255	0 0 255	0 0 255	0 0 255	0 0 255	0 0 255	0 0 255	0 0 255	0 0 255	0 0 255	0 0 255	0 0 255	0 0 255	0 0 255	0 0 255	0 0 255	0 0 255	0 0 255	0 0 255	0 0 255	0 0 255	0 0 255	0 0 255	0 0 255	0 0 255	0 0 255	0 0 255	0 0 255	0 0 255	0 0 255	0 0 255	0 0 255	0 0 255	0 0 255	0 0 255	0 0 255	0 0 255	0 0 255	0 0 255	0 0 255	0 0 255	0 0 255	0 0 255	0 0 255	0 0 255	0 0 255	0 0 255	0 0 255	0 0 255	0 0 255	0 0 255	0 0 255	0 0 255	0 0 255	0 0 255	0 0 255	0 0 255	0 0 255	0 0 255	0 0 255	0 0 255	0 0 255	0 0 255	0 0 255	0 0 255	0 0 255	0 0 255	0 0 255	0 0 255	0 0 255	0 0 255	0 0 255	0 0 255	0 0 255	0 0 255	0 0 255	0 0 255	0 0 255	0 0 255	0 0 255	0 0 255	0 0 255	0 0 255	0 0 255	0 0 255	0 0 255	0 0 255	0 0 255	0 0 255	0 0 255	0 0 255	0 0 255	0 0 255	0 0 255	0 0 255	0 0 255	0 0 255	0 0 255	0 0 255	0 0 255	0 0 255	0 0 255	0 0 255	0 0 255	0 0 255	0 0 255	0 0 255	0 0 255	0 0 255	0 0 255	0 0 255	0 0 255	0 0 255	0 0 255	0 0 255	0 0 255	0 0 255	0 0 255	0 10 51	0 5 51	0 5 51	0 9 51	0 13 51	0 16 51	0 19 51	7 21 25	9 24 25	10 26 25	11 28 25	11 29 25	17 31 12	18 32 12	18 34 12	18 35 12	19 36 12	19 37 12	22 38 6	0 46 10	0 47 10	0 48 10	0 48 10	0 49 10	0 49 10	0 49 10	0 49 10	0 49 10	0 49 10	0 49 10	0 49 10	0 49 10	0 48 10	0 48 10	0 47 10	0 47 10	0 46 10	0 45 10	0 44 10	0 44 10	0 43 10	0 42 10	0 40 10	0 39 10	0 38 10	0 37 10	0 35 10	0 34 10	0 32 10	0 31 10	0 29 10	0 27 10	0 26 10	0 20 51	0 18 51	0 16 51	0 15 51	0 13 51	0 11 51	0 9 51	0 7 51	0 5 51	0 3 51	0 0 51	0 10 51	0 10 51	0 10 51	0 10 51	0 10 51	0 10 51	0 10 51	0 10 51	0 10 51	0 10 51	0 0 255	0 0 255	0 0 255	0 0 255	0 0 255	0 0 255	0 0 255	0 0 255	0 0 255	0 0 255	0 0 255	0 0 255	0 0 255	0 0 255	0 0 255	0 0 255	0 0 255	0 0 255	0 0 255	0 0 255	0 0 255	0 0 255	0 0 255	0 0 255	0 0 255	0 0 255	0 0 255	0 0 255	0 0 255	0 0 255	0 0 255	0 0 255	0 0 255	0 0 255	0 0 255	0 0 255	0 0 255	0 0 255	0 0 255	0 0 255	0 0 255	0 0 255	0 0 255	0 0 255	0 0 255	0 0 255	0 0 255	0 0 255	0 0 255	0 0 255	0 0 255	0 0 255	
0 0 255	0 0 255	0 0 255	0 0 255	0 0 255	0 0 255	0 0 255	0 0 255	0 0 255	0 0 255	0 0 255	0 0 255	0 0 255	0 0 255	0 0 255	0 0 255	0 0 255	0 0 255	0 0 255	0 0 255	0 0 255	0 0 255	0 0 255	0 0 255	0 0 255	0 0 255	0 0 255	0 0 255	0 0 255	0 0 255	0 0 255	0 0 255	0 0 255	0 0 255	0 0 255	0 0 255	0 0 255	0 0 255	0 0 255	0 0 255	0 0 255	0 0 255	0 0 255	0 0 255	0 0 255	0 0 255	0 0 255	0 0 255	0 0 255	0 0 255	0 0 255	0 0 255	0 0 255	0 0 255	0 0 255	0 0 255	0 0 255	0 0 255	0 0 255	0 0 255	0 0 255	0 0 255	0 0 255	0 0 255	0 0 255	0 0 255	0 0 255	0 0 255	0 0 255	0 0 255	0 0 255	0 0 255	0 0 255	0 0 255	0 0 255	0 0 255	0 0 255	0 0 255	0 0 255	0 0 255	0 0 255	0 0 255	0 0 255	0 0 255	0 0 255	0 0 255	0 0 255	0 0 255	0 0 255	0 0 255	0 0 255	0 0 255	0 0 255	0 0 255	0 0 255	0 0 255	0 0 255	0 0 255	0 0 255	0 0 255	0 0 255	0 0 255	0 0 255	0 0 255	0 0 255	0 0 255	0 0 255	0 0 255	0 0 255	0 0 255	0 0 255	0 0 255	0 0 255	0 0 255	0 0 255	0 0 255	0 0 255	0 0 255	0 0 255	0 0 255	0 0 255	0 0 255	0 0 255	0 0 255	0 0 255	0 0 255	0 0 255	0 0 255	0 0 255	0 0 255	0 0 255	0 10 51	0 0 51	0 5 51	0 9 51	0 12 51	0 15 51	7 18 25	9 20 25	10 23 25	11 25 25	11 26 25	11 28 25	18 29 12	18 31 12	18 32 12	18 33 12	18 34 12	22 35 6	22 36 6	21 36 6	0 44 10	0 45 10	0 45 10	0 46 10	0 46 10	0 46 10	0 46 10	0 46 10	0 46 10	0 46 10	0 46 10	0 45 10	0 45 10	0 44 10	0 44 10	0 43 10	0 42 10	0 42 10	0 41 10	0 40 10	0 39 10	0 38 10	0 37 10	0 35 10	0 34 10	0 33 10	0 31 10	0 30 10	0 28 10	0 26 10	0 21 51	0 19 51	0 18 51	0 16 51	0 14 51	0 12 51	0 11 51	0 9 51	0 7 51	0 5 51	0 3 51	0 0 51	0 10 51	0 10 51	0 10 51	0 10 51	0 10 51	0 10 51	0 10 51	0 10 51	0 10 51	0 10 51	0 0 255	0 0 255	0 0 255	0 0 255	0 0 255	0 0 255	0 0 255	0 0 255	0 0 255	0 0 255	0 0 255	0 0 255	0 0 255	0 0 255	0 0 255	0 0 255	0 0 255	0 0 255	0 0 255	0 0 255	0 0 255	0 0 255	0 0 255	0 0 255	0 0 255	0 0 255	0 0 255	0 0 255	0 0 255	0 0 255	0 0 255	0 0 255	0 0 255	0 0 255	0 0 255	0 0 255	0 0 255	0 0 255	0 0 255	0 0 255	0 0 255	0 0 255	0 0 255	0 0 255	0 0 255	0 0 255	0 0 255	0 0 255	0 0 255	0 0 255	0 0 255	0 0 255	0 0 255	
0 0 255	0 0 255	0 0 255	0 0 255	0 0 255	0 0 255	0 0 255	0 0 255	0 0 255	0 0 255	0 0 255	0 0 255	0 0 255	0 0 255	0 0 255	0 0 255	0 0 255	0 0 255	0 0 255	0 0 255	0 0 255	0 0 255	0 0 255	0 0 255	0 0 255	0 0 255	0 0 255	0 0 255	0 0 255	0 0 255	0 0 255	0 0 255	0 0 255	0 0 255	0 0 255	0 0 255	0 0 255	0 0 255	0 0 255	0 0 255	0 0 255	0 0 255	0 0 255	0 0 255	0 0 255	0 0 255	0 0 255	0 0 255	0 0 255	0 0 255	0 0 255	0 0 255	0 0 255	0 0 255	0 0 255	0 0 255	0 0 255	0 0 255	0 0 255	0 0 255	0 0 255	0 0 255	0 0 255	0 0 255	0 0 255	0 0 255	0 0 255	0 0 255	0 0 255	0 0 255	0 0 255	0 0 255	0 0 255	0 0 255	0 0 255	0 0 255	0 0 255	0 0 255	0 0 255	0 0 255	0 0 255	0 0 255	0 0 255	0 0 255	0 0 255	0 0 255	0 0 255	0 0 255	0 0 255	0 0 255	0 0 255	0 0 255	0 0 255	0 0 255	0 0 255	0 0 255	0 0 255	0 0 255	0 0 255	0 0 255	0 0 255	0 0 255	0 0 255	0 0 255	0 0 255	0 0 255	0 0 255	0 0 255	0 0 255	0 0 255	0 0 255	0 0 255	0 0 255	0 0 255	0 0 255	0 0 255	0 0 255	0 0 255	0 0 255	0 0 255	0 0 255	0 0 255	0 0 255	0 0 255	6 0 127	6 0 127	6 0 127	6 0 127	6 0 127	6 0 127	6 0 127	0 10 51	0 10 51	0 0 51	0 4 51	0 8 51	0 11 51	0 14 51	9 17 25	10 19 25	10 21 25	11 23 25	11 25 25	18 26 12	18 28 12	18 29 12	18 30 12	18 31 12	18 32 12	21 33 6	21 34 6	21 34 6	0 42 10	0 42 10	0 43 10	0 43 10	0 43 10	0 43 10	0 43 10	0 43 10	0 43 10	0 43 10	0 42 10	0 42 10	0 41 10	0 41 10	0 40 10	0 40 10	0 39 10	0 38 10	0 37 10	0 36 10	0 35 10	0 34 10	0 32 10	0 31 10	0 30 10	0 28 10	0 27 10	0 25 10	0 20 51	0 18 51	0 17 51	0 15 51	0 14 51	0 12 51	0 10 51	0 8 51	0 7 51	0 5 51	0 2 51	0 0 51	0 10 51	0 10 51	0 10 51	0 10 51	0 10 51	0 10 51	0 10 51	0 10 51	0 10 51	0 10 51	0 0 255	0 0 255	0 0 255	0 0 255	0 0 255	0 0 255	0 0 255	0 0 255	0 0 255	0 0 255	0 0 255	0 0 255	0 0 255	0 0 255	0 0 255	0 0 255	0 0 255	0 0 255	0 0 255	0 0 255	0 0 255	0 0 255	0 0 255	0 0 255	0 0 255	0 0 255	0 0 255	0 0 255	0 0 255	0 0 255	0 0 255	0 0 255	0 0 255	0 0 255	0 0 255	0 0 255	0 0 255	0 0 255	0 0 255	0 0 255	0 0 255	0 0 255	0 0 255	0 0 255	0 0 255	0 0 255	0 0 255	0 0 255	0 0 255	0 0 255	0 0 255	0 0 255	0 0 255	0 0 255	
0 0 255	0 0 255	0 0 255	0 0 255	0 0 255	0 0 255	0 0 255	0 0 255	0 0 255	0 0 255	0 0 255	0 0 255	0 0 255	0 0 255	0 0 255	0 0 255	0 0 255	0 0 255	0 0 255	0 0 255	0 0 255	0 0 255	0 0 255	0 0 255	0 0 255	0 0 255	0 0 255	0 0 255	0 0 255	0 0 255	0 0 255	0 0 255	0 0 255	0 0 255	0 0 255	0 0 255	0 0 255	0 0 255	0 0 255	0 0 255	0 0 255	0 0 255	0 0 255	0 0 255	0 0 255	0 0 255	0 0 255	0 0 255	0 0 255	0 0 255	0 0 255	0 0 255	0 0 255	0 0 255	0 0 255	0 0 255	0 0 255	0 0 255	0 0 255	0 0 255	0 0 255	0 0 255	0 0 255	0 0 255	0 0 255	0 0 255	0 0 255	0 0 255	0 0 255	0 0 255	0 0 255	0 0 255	0 0 255	0 0 255	0 0 255	0 0 255	0 0 255	0 0 255	0 0 255	0 0 255	0 0 255	0 0 255	0 0 255	0 0 255	0 0 255	0 0 255	0 0 255	0 0 255	0 0 255	0 0 255	0 0 255	0 0 255	0 0 255	0 0 255	0 0 255	0 0 255	0 0 255	0 0 255	0 0 255	0 0 255	0 0 255	0 0 255	0 0 255	0 0 255	0 0 255	0 0 255	0 0 255	0 0 255	0 0 255	0 0 255	0 0 255	0 0 255	0 0 255	0 0 255	0 0 255	0 0 255	0 0 255	0 0 255	20 0 127	23 0 127	24 0 127	26 0 127	6 0 127	6 0 127	6 0 127	6 0 127	6 0 127	6 0 127	6 0 127	6 0 127	6 0 127	6 0 127	0 10 51	0 10 51	0 5 51	0 4 51	0 7 51	0 11 51	8 13 25	9 16 25	10 18 25	11 20 25	11 22 25	11 23 25	18 25 12	18 26 12	18 27 12	18 28 12	18 29 12	18 30 12	21 31 6	21 31 6	21 32 6	20 32 6	20 33 6	0 40 10	0 40 10	0 40 10	0 40 10	0 40 10	0 40 10	0 40 10	0 39 10	0 39 10	0 38 10	0 38 10	0 37 10	0 37 10	0 36 10	0 35 10	0 34 10	0 33 10	0 32 10	0 31 10	0 30 10	0 28 10	0 27 10	0 21 51	0 20 51	0 19 51	0 17 51	0 16 51	0 14 51	0 13 51	0 11 51	0 10 51	0 8 51	0 6 51	0 4 51	0 2 51	0 0 51	0 10 51	0 10 51	0 10 51	0 10 51	0 10 51	0 10 51	0 10 51	0 10 51	0 10 51	0 10 51	0 10 51	0 0 255	0 0 255	0 0 255	0 0 255	0 0 255	0 0 255	0 0 255	0 0 255	0 0 255	0 0 255	0 0 255	0 0 255	0 0 255	0 0 255	0 0 255	0 0 255	0 0 255	0 0 255	0 0 255	0 0 255	0 0 255	0 0 255	0 0 255	0 0 255	0 0 255	0 0 255	0 0 255	0 0 255	0 0 255	0 0 255	0 0 255	0 0 255	0 0 255	0 0 255	0 0 255	0 0 255	0 0 255	0 0 255	0 0 255	0 0 255	0 0 255	0 0 255	0 0 255	0 0 255	0 0 255	0 0 255	0 0 255	0 0 255	0 0 255	0 0 255	0 0 255	0 0 255	0 0 255	0 0 255	
0 0 255	0 0 255	0 0 255	0 0 255	0 0 255	0 0 255	0 0 255	0 0 255	0 0 255	0 0 255	0 0 255	0 0 255	0 0 255	0 0 255	0 0 255	0 0 255	0 0 255	0 0 255	0 0 255	0 0 255	0 0 255	0 0 255	0 0 255	0 0 255	0 0 255	0 0 255	0 0 255	0 0 255	0 0 255	0 0 255	0 0 255	0 0 255	0 0 255	0 0 255	0 0 255	0 0 255	0 0 255	0 0 255	0 0 255	0 0 255	0 0 255	0 0 255	0 0 255	0 0 255	0 0 255	0 0 255	0 0 255	0 0 255	0 0 255	0 0 255	0 0 255	0 0 255	0 0 255	0 0 255	0 0 255	0 0 255	0 0 255	0 0 255	0 0 255	0 0 255	0 0 255	0 0 255	0 0 255	0 0 255	0 0 255	0 0 255	0 0 255	0 0 255	0 0 255	0 0 255	0 0 255	0 0 255	0 0 255	0 0 255	0 0 255	0 0 255	0 0 255	0 0 255	0 0 255	0 0 255	0 0 255	0 0 255	0 0 255	0 0 255	0 0 255	0 0 255	0 0 255	0 0 255	0 0 255	0 0 255	0 0 255	0 0 255	0 0 255	0 0 255	0 0 255	0 0 255	0 0 255	0 0 255	0 0 255	0 0 255	0 0 255	0 0 255	0 0 255	0 0 255	0 0 255	0 0 255	0 0 255	0 0 255	0 0 255	0 0 255	0 0 255	0 0 255	0 0 255	0 0 255	19 0 127	23 0 127	25 0 127	27 0 127	29 0 127	30 0 127	31 0 127	32 0 127	32 0 127	6 0 127	6 0 127	6 0 127	6 0 127	6 0 127	6 0 127	6 0 127	6 0 127	6 0 127	6 0 127	0 10 51	0 10 51	0 10 51	0 3 51	0 6 51	7 9 25	9 12 25	10 14 25	11 16 25	11 18 25	11 20 25	18 22 12	18 23 12	18 24 12	18 25 12	18 26 12	18 27 12	18 28 12	18 28 12	17 29 12	17 30 12	17 30 12	16 30 12	16 30 12	16 31 12	0 37 10	0 37 10	0 37 10	0 36 10	0 36 10	0 36 10	0 35 10	0 35 10	0 34 10	0 34 10	0 33 10	0 32 10	0 31 10	0 30 10	0 29 10	0 28 10	0 22 51	0 21 51	0 20 51	0 19 51	0 18 51	0 16 51	0 15 51	0 14 51	0 12 51	0 11 51	0 9 51	0 7 51	0 5 51	0 4 51	0 2 51	0 0 51	0 10 51	0 10 51	0 10 51	0 10 51	0 10 51	0 10 51	0 10 51	0 10 51	0 10 51	0 10 51	0 10 51	0 0 255	0 0 255	0 0 255	0 0 255	0 0 255	0 0 255	0 0 255	0 0 255	0 0 255	0 0 255	0 0 255	0 0 255	0 0 255	0 0 255	0 0 255	0 0 255	0 0 255	0 0 255	0 0 255	0 0 255	0 0 255	0 0 255	0 0 255	0 0 255	0 0 255	0 0 255	0 0 255	0 0 255	0 0 255	0 0 255	0 0 255	0 0 255	0 0 255	0 0 255	0 0 255	0 0 255	0 0 255	0 0 255	0 0 255	0 0 255	0 0 255	0 0 255	0 0 255	0 0 255	0 0 255	0 0 255	0 0 255	0 0 255	0 0 255	0 0 255	0 0 255	0 0 255	0 0 255	0 0 255	0 0 255	
0 0 255	0 0 255	0 0 255	0 0 255	0 0 255	0 0 255	0 0 255	0 0 255	0 0 255	0 0 255	0 0 255	0 0 255	0 0 255	0 0 255	0 0 255	0 0 255	0 0 255	0 0 255	0 0 255	0 0 255	0 0 255	0 0 255	0 0 255	0 0 255	0 0 255	0 0 255	0 0 255	0 0 255	0 0 255	0 0 255	0 0 255	0 0 255	0 0 255	0 0 255	0 0 255	0 0 255	0 0 255	0 0 255	0 0 255	0 0 255	0 0 255	0 0 255	0 0 255	0 0 255	0 0 255	0 0 255	0 0 255	0 0 255	0 0 255	0 0 255	0 0 255	0 0 255	0 0 255	0 0 255	0 0 255	0 0 255	0 0 255	0 0 255	0 0 255	0 0 255	0 0 255	0 0 255	0 0 255	0 0 255	0 0 255	0 0 255	0 0 255	0 0 255	0 0 255	0 0 255	0 0 255	0 0 255	0 0 255	0 0 255	0 0 255	0 0 255	0 0 255	0 0 255	0 0 255	0 0 255	0 0 255	0 0 255	0 0 255	0 0 255	0 0 255	0 0 255	0 0 255	0 0 255	0 0 255	0 0 255	0 0 255	0 0 255	0 0 255	0 0 255	0 0 255	0 0 255	0 0 255	0 0 255	0 0 255	0 0 255	0 0 255	0 0 255	0 0 255	0 0 255	0 0 255	0 0 255	0 0 255	0 0 255	0 0 255	0 0 255	0 0 255	17 0 127	22 0 127	25 0 127	28 0 127	29 0 127	31 0 127	32 0 127	33 0 127	34 0 127	35 0 127	36 0 127	36 0 127	37 0 127	6 0 127	6 0 127	6 0 127	6 0 127	6 0 127	6 0 127	6 0 127	6 0 127	6 0 127	6 0 127	0 10 51	0 10 51	0 10 51	0 2 51	0 5 51	9 8 25	10 11 25	10 13 25	11 15 25	11 17 25	11 18 25	18 20 12	18 21 12	18 22 12	18 23 12	18 24 12	18 25 12	17 25 12	17 26 12	17 27 12	17 27 12	16 27 12	16 28 12	15 28 12	15 28 12	14 28 12	13 28 12	12 28 12	8 27 25	0 33 10	0 32 10	0 32 10	0 31 10	0 30 10	0 30 10	0 24 51	0 23 51	0 22 51	0 22 51	0 21 51	0 20 51	0 19 51	0 18 51	0 16 51	0 15 51	0 14 51	0 13 51	0 11 51	0 10 51	0 8 51	0 6 51	0 5 51	0 3 51	0 1 51	0 5 51	0 10 51	0 10 51	0 10 51	0 10 51	0 10 51	0 10 51	0 10 51	0 10 51	0 10 51	0 10 51	0 10 51	0 0 255	0 0 255	0 0 255	0 0 255	0 0 255	0 0 255	0 0 255	0 0 255	0 0 255	0 0 255	0 0 255	0 0 255	0 0 255	0 0 255	0 0 255	0 0 255	0 0 255	0 0 255	0 0 255	0 0 255	0 0 255	0 0 255	0 0 255	0 0 255	0 0 255	0 0 255	0 0 255	0 0 255	0 0 255	0 0 255	0 0 255	0 0 255	0 0 255	0 0 255	0 0 255	0 0 255	0 0 255	0 0 255	0 0 255	0 0 255	0 0 255	0 0 255	0 0 255	0 0 255	0 0 255	0 0 255	0 0 255	0 0 255	0 0 255	0 0 255	0 0 255	0 0 255	0 0 255	0 0 255	0 0 255	0 0 255	
0 0 255	0 0 255	0 0 255	0 0 255	0 0 255	0 0 255	0 0 255	0 0 255	0 0 255	0 0 255	0 0 255	0 0 255	0 0 255	0 0 255	0 0 255	0 0 255	0 0 255	0 0 255	0 0 255	0 0 255	0 0 255	0 0 255	0 0 255	0 0 255	0 0 255	0 0 255	0 0 255	0 0 255	0 0 255	0 0 255	0 0 255	0 0 255	0 0 255	0 0 255	0 0 255	0 0 255	0 0 255	0 0 255	0 0 255	0 0 255	0 0 255	0 0 255	0 0 255	0 0 255	0 0 255	0 0 255	0 0 255	0 0 255	0 0 255	0 0 255	0 0 255	0 0 255	0 0 255	0 0 255	0 0 255	0 0 255	0 0 255	0 0 255	0 0 255	0 0 255	0 0 255	0 0 255	0 0 255	0 0 255	0 0 255	0 0 255	0 0 255	0 0 255	0 0 255	0 0 255	0 0 255	0 0 255	0 0 255	0 0 255	0 0 255	0 0 255	0 0 255	0 0 255	0 0 255	0 0 255	0 0 255	0 0 255	0 0 255	0 0 255	0 0 255	0 0 255	0 0 255	0 0 255	0 0 255	0 0 255	0 0 255	0 0 255	0 0 255	0 0 255	0 0 255	0 0 255	0 0 255	0 0 255	0 0 255	0 0 255	0 0 255	0 0 255	0 0 255	0 0 255	0 0 255	0 0 255	0 0 255	0 0 255	0 0 255	19 0 127	24 0 127	27 0 127	29 0 127	31 0 127	32 0 127	34 0 127	35 0 127	36 0 127	37 0 127	38 0 127	39 0 127	39 0 127	40 0 127	40 0 127	40 0 127	6 0 127	6 0 127	6 0 127	6 0 127	6 0 127	6 0 127	6 0 127	6 0 127	6 0 127	6 0 127	0 10 51	0 10 51	0 10 51	0 1 51	7 4 25	9 7 25	10 9 25	11 11 25	11 13 25	11 15 25	11 16 25	17 18 12	17 19 12	17 20 12	17 21 12	17 22 12	17 22 12	17 23 12	17 24 12	16 24 12	16 24 12	15 25 12	15 25 12	14 25 12	14 25 12	13 25 12	8 25 25	7 25 25	7 24 25	6 24 25	5 24 25	3 23 25	0 23 25	0 22 51	0 21 51	0 21 51	0 20 51	0 19 51	0 18 51	0 17 51	0 16 51	0 15 51	0 14 51	0 13 51	0 11 51	0 10 51	0 9 51	0 7 51	0 6 51	0 4 51	0 2 51	0 0 51	0 10 51	0 10 51	0 10 51	0 10 51	0 10 51	0 10 51	0 10 51	0 10 51	0 10 51	0 10 51	0 10 51	0 10 51	0 0 255	0 0 255	0 0 255	0 0 255	0 0 255	0 0 255	0 0 255	0 0 255	0 0 255	0 0 255	0 0 255	0 0 255	0 0 255	0 0 255	0 0 255	0 0 255	0 0 255	0 0 255	0 0 255	0 0 255	0 0 255	0 0 255	0 0 255	0 0 255	0 0 255	0 0 255	0 0 255	0 0 255	0 0 255	0 0 255	0 0 255	0 0 255	0 0 255	0 0 255	0 0 255	0 0 255	0 0 255	0 0 255	0 0 255	0 0 255	0 0 255	0 0 255	0 0 255	0 0 255	0 0 255	0 0 255	0 0 255	0 0 255	0 0 255	0 0 255	0 0 255	0 0 255	0 0 255	0 0 255	0 0 255	0 0 255	0 0 255	
0 0 255	0 0 255	0 0 255	0 0 255	0 0 255	0 0 255	0 0 255	0 0 255	0 0 255	0 0 255	0 0 255	0 0 255	0 0 255	0 0 255	0 0 255	0 0 255	0 0 255	0 0 255	0 0 255	0 0 255	0 0 255	0 0 255	0 0 255	0 0 255	0 0 255	0 0 255	0 0 255	0 0 255	0 0 255	0 0 255	0 0 255	0 0 255	0 0 255	0 0 255	0 0 255	0 0 255	0 0 255	0 0 255	0 0 255	0 0 255	0 0 255	0 0 255	0 0 255	0 0 255	0 0 255	0 0 255	0 0 255	0 0 255	0 0 255	0 0 255	0 0 255	0 0 255	0 0 255	0 0 255	0 0 255	0 0 255	0 0 255	0 0 255	0 0 255	0 0 255	0 0 255	0 0 255	0 0 255	0 0 255	0 0 255	0 0 255	0 0 255	0 0 255	0 0 255	0 0 255	0 0 255	0 0 255	0 0 255	0 0 255	0 0 255	0 0 255	0 0 255	0 0 255	0 0 255	0 0 255	0 0 255	0 0 255	0 0 255	0 0 255	0 0 255	0 0 255	0 0 255	0 0 255	0 0 255	0 0 255	0 0 255	0 0 255	0 0 255	0 0 255	0 0 255	0 0 255	0 0 255	0 0 255	0 0 255	0 0 255	0 0 255	0 0 255	0 0 255	0 0 255	0 0 255	0 0 255	0 0 255	20 0 127	24 0 127	27 0 127	29 0 127	31 0 127	33 0 127	35 0 127	36 0 127	37 0 127	38 0 127	39 0 127	40 0 127	41 0 127	41 0 127	42 0 127	42 0 127	43 0 127	43 0 127	6 0 127	6 0 127	6 0 127	6 0 127	6 0 127	6 0 127	6 0 127	6 0 127	6 0 127	6 0 127	6 0 127	0 10 51	0 10 51	0 10 51	0 5 51	8 2 25	10 5 25	10 7 25	11 9 25	11 11 25	11 13 25	11 14 25	17 15 12	17 17 12	17 18 12	17 18 12	17 19 12	17 20 12	16 20 12	16 21 12	16 21 12	15 22 12	15 22 12	14 22 12	13 22 12	8 22 25	8 22 25	7 22 25	6 22 25	5 21 25	4 21 25	2 20 25	0 20 51	0 19 51	0 19 51	0 18 51	0 17 51	0 16 51	0 15 51	0 14 51	0 13 51	0 12 51	0 11 51	0 10 51	0 9 51	0 7 51	0 6 51	0 4 51	0 3 51	0 1 51	0 5 51	0 10 51	0 10 51	0 10 51	0 10 51	0 10 51	0 10 51	0 10 51	0 10 51	0 10 51	0 10 51	0 10 51	0 10 51	0 0 255	0 0 255	0 0 255	0 0 255	0 0 255	0 0 255	0 0 255	0 0 255	0 0 255	0 0 255	0 0 255	0 0 255	0 0 255	0 0 255	0 0 255	0 0 255	0 0 255	0 0 255	0 0 255	0 0 255	0 0 255	0 0 255	0 0 255	0 0 255	0 0 255	0 0 255	0 0 255	0 0 255	0 0 255	0 0 255	0 0 255	0 0 255	0 0 255	0 0 255	0 0 255	0 0 255	0 0 255	0 0 255	0 0 255	0 0 255	0 0 255	0 0 255	0 0 255	0 0 255	0 0 255	0 0 255	0 0 255	0 0 255	0 0 255	0 0 255	0 0 255	0 0 255	0 0 255	0 0 255	0 0 255	0 0 255	0 0 255	0 0 255	
0 0 255	0 0 255	0 0 255	0 0 255	0 0 255	0 0 255	0 0 255	0 0 255	0 0 255	0 0 255	0 0 255	0 0 255	0 0 255	0 0 255	0 0 255	0 0 255	0 0 255	0 0 255	0 0 255	0 0 255	0 0 255	0 0 255	0 0 255	0 0 255	0 0 255	0 0 255	0 0 255	0 0 255	0 0 255	0 0 255	0 0 255	0 0 255	0 0 255	0 0 255	0 0 255	0 0 255	0 0 255	0 0 255	0 0 255	0 0 255	0 0 255	0 0 255	0 0 255	0 0 255	0 0 255	0 0 255	0 0 255	0 0 255	0 0 255	0 0 255	0 0 255	0 0 255	0 0 255	0 0 255	0 0 255	0 0 255	0 0 255	0 0 255	0 0 255	0 0 255	0 0 255	0 0 255	0 0 255	0 0 255	0 0 255	0 0 255	0 0 255	0 0 255	0 0 255	0 0 255	0 0 255	0 0 255	0 0 255	0 0 255	0 0 255	0 0 255	0 0 255	0 0 255	0 0 255	0 0 255	0 0 255	0 0 255	0 0 255	0 0 255	0 0 255	0 0 255	0 0 255	0 0 255	0 0 255	0 0 255	0 0 255	0 0 255	0 0 255	0 0 255	0 0 255	0 0 255	0 0 255	0 0 255	0 0 255	0 0 255	0 0 255	0 0 255	0 0 255	0 0 255	0 0 255	18 0 127	23 0 127	26 0 127	29 0 127	31 0 127	33 0 127	35 0 127	36 0 127	38 0 127	39 0 127	40 0 127	41 0 127	42 0 127	43 0 127	43 0 127	44 0 127	44 0 127	45 0 127	45 0 127	45 0 127	46 0 127	6 0 127	6 0 127	6 0 127	6 0 127	6 0 127	6 0 127	6 0 127	6 0 127	6 0 127	6 0 127	6 0 127	0 10 51	0 10 51	0 10 51	0 10 51	9 0 25	10 3 25	10 5 25	11 7 25	11 9 25	11 10 25	11 12 25	11 13 25	17 14 12	17 15 12	16 16 12	16 17 12	16 17 12	16 18 12	15 18 12	15 19 12	14 19 12	14 19 12	8 19 25	8 19 25	7 19 25	7 19 25	6 19 25	5 18 25	3 18 25	1 18 25	0 17 51	0 16 51	0 16 51	0 15 51	0 14 51	0 14 51	0 13 51	0 12 51	0 11 51	0 10 51	0 8 51	0 7 51	0 6 51	0 5 51	0 3 51	0 2 51	0 0 51	0 10 51	0 10 51	0 10 51	0 10 51	0 10 51	0 10 51	0 10 51	0 10 51	0 10 51	0 10 51	0 10 51	0 10 51	0 10 51	0 0 255	0 0 255	0 0 255	0 0 255	0 0 255	0 0 255	0 0 255	0 0 255	0 0 255	0 0 255	0 0 255	0 0 255	0 0 255	0 0 255	0 0 255	0 0 255	0 0 255	0 0 255	0 0 255	0 0 255	0 0 255	0 0 255	0 0 255	0 0 255	0 0 255	0 0 255	0 0 255	0 0 255	0 0 255	0 0 255	0 0 255	0 0 255	0 0 255	0 0 255	0 0 255	0 0 255	0 0 255	0 0 255	0 0 255	0 0 255	0 0 255	0 0 255	0 0 255	0 0 255	0 0 255	0 0 255	0 0 255	0 0 255	0 0 255	0 0 255	0 0 255	0 0 255	0 0 255	0 0 255	0 0 255	0 0 255	0 0 255	0 0 255	0 0 255	
0 0 255	0 0 255	0 0 255	0 0 255	0 0 255	0 0 255	0 0 255	0 0 255	0 0 255	0 0 255	0 0 255	0 0 255	0 0 255	0 0 255	0 0 255	0 0 255	0 0 255	0 0 255	0 0 255	0 0 255	0 0 255	0 0 255	0 0 255	0 0 255	0 0 255	0 0 255	0 0 255	0 0 255	0 0 255	0 0 255	0 0 255	0 0 255	0 0 255	0 0 255	0 0 255	0 0 255	0 0 255	0 0 255	0 0 255	0 0 255	0 0 255	0 0 255	0 0 255	0 0 255	0 0 255	0 0 255	0 0 255	0 0 255	0 0 255	0 0 255	0 0 255	0 0 255	0 0 255	0 0 255	0 0 255	0 0 255	0 0 255	0 0 255	0 0 255	0 0 255	0 0 255	0 0 255	0 0 255	0 0 255	0 0 255	0 0 255	0 0 255	0 0 255	0 0 255	0 0 255	0 0 255	0 0 255	0 0 255	0 0 255	0 0 255	0 0 255	0 0 255	0 0 255	0 0 255	0 0 255	0 0 255	0 0 255	0 0 255	0 0 255	0 0 255	0 0 255	0 0 255	0 0 255	0 0 255	0 0 255	0 0 255	0 0 255	0 0 255	0 0 255	0 0 255	0 0 255	0 0 255	0 0 255	0 0 255	0 0 255	0 0 255	0 0 255	0 0 255	15 0 127	22 0 127	25 0 127	28 0 127	31 0 127	33 0 127	35 0 127	36 0 127	38 0 127	39 0 127	40 0 127	41 0 127	42 0 127	43 0 127	44 0 127	45 0 127	45 0 127	46 0 127	46 0 127	47 0 127	47 0 127	47 0 127	48 0 127	48 0 127	6 0 127	6 0 127	6 0 127	6 0 127	6 0 127	6 0 127	6 0 127	6 0 127	6 0 127	6 0 127	6 0 127	0 10 51	0 10 51	0 10 51	7 10 25	9 10 25	10 1 25	10 3 25	10 5 25	11 7 25	11 8 25	11 9 25	11 11 25	11 12 25	16 12 12	16 13 12	15 14 12	15 15 12	15 15 12	9 15 25	9 16 25	9 16 25	8 16 25	8 16 25	7 16 25	6 16 25	5 16 25	4 15 25	2 15 25	0 15 51	0 14 51	0 14 51	0 13 51	0 12 51	0 12 51	0 11 51	0 10 51	0 9 51	0 8 51	0 7 51	0 6 51	0 4 51	0 3 51	0 2 51	0 0 51	0 10 51	0 10 51	0 10 51	0 10 51	0 10 51	0 10 51	0 10 51	0 10 51	0 10 51	0 10 51	0 10 51	0 10 51	0 10 51	0 10 51	0 0 255	0 0 255	0 0 255	0 0 255	0 0 255	0 0 255	0 0 255	0 0 255	0 0 255	0 0 255	0 0 255	0 0 255	0 0 255	0 0 255	0 0 255	0 0 255	0 0 255	0 0 255	0 0 255	0 0 255	0 0 255	0 0 255	0 0 255	0 0 255	0 0 255	0 0 255	0 0 255	0 0 255	0 0 255	0 0 255	0 0 255	0 0 255	0 0 255	0 0 255	0 0 255	0 0 255	0 0 255	0 0 255	0 0 255	0 0 255	0 0 255	0 0 255	0 0 255	0 0 255	0 0 255	0 0 255	0 0 255	0 0 255	0 0 255	0 0 255	0 0 255	0 0 255	0 0 255	0 0 255	0 0 255	0 0 255	0 0 255	0 0 255	0 0 255	0 0 255	
0 0 255	0 0 255	0 0 255	0 0 255	0 0 255	0 0 255	0 0 255	0 0 255	0 0 255	0 0 255	0 0 255	0 0 255	0 0 255	0 0 255	0 0 255	0 0 255	0 0 255	0 0 255	0 0 255	0 0 255	0 0 255	0 0 255	0 0 255	0 0 255	0 0 255	0 0 255	0 0 255	0 0 255	0 0 255	0 0 255	0 0 255	0 0 255	0 0 255	0 0 255	0 0 255	0 0 255	0 0 255	0 0 255	0 0 255	0 0 255	0 0 255	0 0 255	0 0 255	0 0 255	0 0 255	0 0 255	0 0 255	0 0 255	0 0 255	0 0 255	0 0 255	0 0 255	0 0 255	0 0 255	0 0 255	0 0 255	0 0 255	0 0 255	0 0 255	0 0 255	0 0 255	0 0 255	0 0 255	0 0 255	0 0 255	0 0 255	0 0 255	0 0 255	0 0 255	0 0 255	0 0 255	0 0 255	0 0 255	0 0 255	0 0 255	0 0 255	0 0 255	0 0 255	0 0 255	0 0 255	0 0 255	0 0 255	0 0 255	0 0 255	0 0 255	0 0 255	0 0 255	0 0 255	0 0 255	0 0 255	0 0 255	0 0 255	0 0 255	0 0 255	0 0 255	0 0 255	0 0 255	0 0 255	0 0 255	0 0 255	0 0 255	0 0 255	19 0 127	24 0 127	27 0 127	30 0 127	32 0 127	34 0 127	36 0 127	37 0 127	39 0 127	40 0 127	42 0 127	43 0 127	44 0 127	45 0 127	45 0 127	46 0 127	47 0 127	47 0 127	48 0 127	48 0 127	49 0 127	49 0 127	49 0 127	49 0 127	49 0 127	50 0 127	6 0 127	6 0 127	6 0 127	6 0 127	6 0 127	6 0 127	6 0 127	6 0 127	6 0 127	6 0 127	6 0 127	0 10 51	0 10 51	0 10 51	7 10 25	9 10 25	10 10 25	10 0 25	10 2 25	10 4 25	10 5 25	10 7 25	10 8 25	10 9 25	10 10 25	10 10 25	10 11 25	9 12 25	9 12 25	9 12 25	8 13 25	8 13 25	7 13 25	6 13 25	6 13 25	4 13 25	3 12 25	0 12 51	0 12 51	0 11 51	0 11 51	0 10 51	0 9 51	0 9 51	0 8 51	0 7 51	0 6 51	0 5 51	0 4 51	0 3 51	0 1 51	0 0 51	0 10 51	0 10 51	0 10 51	0 10 51	0 10 51	0 10 51	0 10 51	0 10 51	0 10 51	0 10 51	0 10 51	0 10 51	0 10 51	0 10 51	0 10 51	0 0 255	0 0 255	0 0 255	0 0 255	0 0 255	0 0 255	0 0 255	0 0 255	0 0 255	0 0 255	0 0 255	0 0 255	0 0 255	0 0 255	0 0 255	0 0 255	0 0 255	0 0 255	0 0 255	0 0 255	0 0 255	0 0 255	0 0 255	0 0 255	0 0 255	0 0 255	0 0 255	0 0 255	0 0 255	0 0 255	0 0 255	0 0 255	0 0 255	0 0 255	0 0 255	0 0 255	0 0 255	0 0 255	0 0 255	0 0 255	0 0 255	0 0 255	0 0 255	0 0 255	0 0 255	0 0 255	0 0 255	0 0 255	0 0 255	0 0 255	0 0 255	0 0 255	0 0 255	0 0 255	0 0 255	0 0 255	0 0 255	0 0 255	0 0 255	0 0 255	0 0 255	
0 0 255	0 0 255	0 0 255	0 0 255	0 0 255	0 0 255	0 0 255	0 0 255	0 0 255	0 0 255	0 0 255	0 0 255	0 0 255	0 0 255	0 0 255	0 0 255	0 0 255	0 0 255	0 0 255	0 0 255	0 0 255	0 0 255	0 0 255	0 0 255	0 0 255	0 0 255	0 0 255	0 0 255	0 0 255	0 0 255	0 0 255	0 0 255	0 0 255	0 0 255	0 0 255	0 0 255	0 0 255	0 0 255	0 0 255	0 0 255	0 0 255	0 0 255	0 0 255	0 0 255	0 0 255	0 0 255	0 0 255	0 0 255	0 0 255	0 0 255	0 0 255	0 0 255	0 0 255	0 0 255	0 0 255	0 0 255	0 0 255	0 0 255	0 0 255	0 0 255	0 0 255	0 0 255	0 0 255	0 0 255	0 0 255	0 0 255	0 0 255	0 0 255	0 0 255	0 0 255	0 0 255	0 0 255	0 0 255	0 0 255	0 0 255	0 0 255	0 0 255	0 0 255	0 0 255	0 0 255	0 0 255	0 0 255	0 0 255	0 0 255	0 0 255	0 0 255	0 0 255	0 0 255	0 0 255	0 0 255	0 0 255	0 0 255	0 0 255	0 0 255	0 0 255	0 0 255	0 0 255	0 0 255	0 0 255	0 0 255	13 0 127	21 0 127	25 0 127	28 0 127	31 0 127	33 0 127	35 0 127	37 0 127	38 0 127	40 0 127	41 0 127	42 0 127	44 0 127	45 0 127	46 0 127	46 0 127	47 0 127	48 0 127	49 0 127	49 0 127	50 0 127	50 0 127	50 0 127	51 0 127	51 0 127	51 0 127	51 0 127	51 0 127	51 0 127	6 0 127	6 0 127	6 0 127	6 0 127	6 0 127	6 0 127	6 0 127	6 0 127	6 0 127	6 0 127	6 0 127	6 0 127	0 10 51	0 10 51	0 10 51	9 10 25	9 10 25	10 10 25	10 0 25	10 1 25	10 3 25	10 4 25	10 5 25	10 6 25	9 7 25	9 7 25	9 8 25	9 9 25	8 9 25	8 9 25	7 9 25	6 9 25	6 10 25	5 9 25	3 9 25	0 9 51	0 9 51	0 8 51	0 8 51	0 7 51	0 7 51	0 6 51	0 5 51	0 5 51	0 4 51	0 3 51	0 2 51	0 1 51	0 0 51	0 10 51	0 10 51	0 10 51	0 10 51	0 10 51	0 10 51	0 10 51	0 10 51	0 10 51	0 10 51	0 10 51	0 10 51	0 10 51	0 10 51	0 10 51	0 10 51	0 0 255	0 0 255	0 0 255	0 0 255	0 0 255	0 0 255	0 0 255	0 0 255	0 0 255	0 0 255	0 0 255	0 0 255	0 0 255	0 0 255	0 0 255	0 0 255	0 0 255	0 0 255	0 0 255	0 0 255	0 0 255	0 0 255	0 0 255	0 0 255	0 0 255	0 0 255	0 0 255	0 0 255	0 0 255	0 0 255	0 0 255	0 0 255	0 0 255	0 0 255	0 0 255	0 0 255	0 0 255	0 0 255	0 0 255	0 0 255	0 0 255	0 0 255	0 0 255	0 0 255	0 0 255	0 0 255	0 0 255	0 0 255	0 0 255	0 0 255	0 0 255	0 0 255	0 0 255	0 0 255	0 0 255	0 0 255	0 0 255	0 0 255	0 0 255	0 0 255	0 0 255	0 0 255	
0 0 255	0 0 255	0 0 255	0 0 255	0 0 255	0 0 255	0 0 255	0 0 255	0 0 255	0 0 255	0 0 255	0 0 255	0 0 255	0 0 255	0 0 255	0 0 255	0 0 255	0 0 255	0 0 255	0 0 255	0 0 255	0 0 255	0 0 255	0 0 255	0 0 255	0 0 255	0 0 255	0 0 255	0 0 255	0 0 255	0 0 255	0 0 255	0 0 255	0 0 255	0 0 255	0 0 255	0 0 255	0 0 255	0 0 255	0 0 255	0 0 255	0 0 255	0 0 255	0 0 255	0 0 255	0 0 255	0 0 255	0 0 255	0 0 255	0 0 255	0 0 255	0 0 255	0 0 255	0 0 255	0 0 255	0 0 255	0 0 255	0 0 255	0 0 255	0 0 255	0 0 255	0 0 255	0 0 255	0 0 255	0 0 255	0 0 255	0 0 255	0 0 255	0 0 255	0 0 255	0 0 255	0 0 255	0 0 255	0 0 255	0 0 255	0 0 255	0 0 255	0 0 255	0 0 255	0 0 255	0 0 255	0 0 255	0 0 255	0 0 255	0 0 255	0 0 255	0 0 255	0 0 255	0 0 255	0 0 255	0 0 255	0 0 255	0 0 255	0 0 255	0 0 255	0 0 255	0 0 255	0 0 255	0 0 255	16 0 127	22 0 127	26 0 127	29 0 127	31 0 127	34 0 127	36 0 127	37 0 127	39 0 127	41 0 127	42 0 127	43 0 127	44 0 127	45 0 127	46 0 127	47 0 127	48 0 127	49 0 127	49 0 127	50 0 127	51 0 127	51 0 127	51 0 127	52 0 127	52 0 127	52 0 127	52 0 127	53 0 127	53 0 127	53 0 127	6 0 127	6 0 127	6 0 127	6 0 127	6 0 127	6 0 127	6 0 127	6 0 127	6 0 127	6 0 127	6 0 127	6 0 127	6 0 127	0 10 51	0 10 51	0 10 51	8 10 25	9 10 25	9 10 25	9 10 25	9 10 25	9 0 25	9 1 25	9 2 25	9 3 25	9 4 25	8 4 25	8 5 25	8 5 25	7 6 25	6 6 25	6 6 25	5 6 25	3 6 25	0 6 51	0 6 51	0 5 51	0 5 51	0 5 51	0 4 51	0 4 51	0 3 51	0 2 51	0 1 51	0 1 51	0 0 51	0 10 51	0 10 51	0 10 51	0 10 51	0 10 51	0 10 51	0 10 51	0 10 51	0 10 51	0 10 51	0 10 51	0 10 51	0 10 51	0 10 51	0 10 51	0 10 51	0 10 51	0 0 255	0 0 255	0 0 255	0 0 255	0 0 255	0 0 255	0 0 255	0 0 255	0 0 255	0 0 255	0 0 255	0 0 255	0 0 255	0 0 255	0 0 255	0 0 255	0 0 255	0 0 255	0 0 255	0 0 255	0 0 255	0 0 255	0 0 255	0 0 255	0 0 255	0 0 255	0 0 255	0 0 255	0 0 255	0 0 255	0 0 255	0 0 255	0 0 255	0 0 255	0 0 255	0 0 255	0 0 255	0 0 255	0 0 255	0 0 255	0 0 255	0 0 255	0 0 255	0 0 255	0 0 255	0 0 255	0 0 255	0 0 255	0 0 255	0 0 255	0 0 255	0 0 255	0 0 255	0 0 255	0 0 255	0 0 255	0 0 255	0 0 255	0 0 255	0 0 255	0 0 255	0 0 255	0 0 255	0 0 255	
0 0 255	0 0 255	0 0 255	0 0 255	0 0 255	0 0 255	0 0 255	0 0 255	0 0 255	0 0 255	0 0 255	0 0 255	0 0 255	0 0 255	0 0 255	0 0 255	0 0 255	0 0 255	0 0 255	0 0 255	0 0 255	0 0 255	0 0 255	0 0 255	0 0 255	0 0 255	0 0 255	0 0 255	0 0 255	0 0 255	0 0 255	0 0 255	0 0 255	0 0 255	0 0 255	0 0 255	0 0 255	0 0 255	0 0 255	0 0 255	0 0 255	0 0 255	0 0 255	0 0 255	0 0 255	0 0 255	0 0 255	0 0 255	0 0 255	0 0 255	0 0 255	0 0 255	0 0 255	0 0 255	0 0 255	0 0 255	0 0 255	0 0 255	0 0 255	0 0 255	0 0 255	0 0 255	0 0 255	0 0 255	0 0 255	0 0 255	0 0 255	0 0 255	0 0 255	0 0 255	0 0 255	0 0 255	0 0 255	0 0 255	0 0 255	0 0 255	0 0 255	0 0 255	0 0 255	0 0 255	0 0 255	0 0 255	0 0 255	0 0 255	0 0 255	0 0 255	0 0 255	0 0 255	0 0 255	0 0 255	0 0 255	0 0 255	0 0 255	0 0 255	0 0 255	0 0 255	0 0 255	0 0 255	18 0 127	23 0 127	26 0 127	29 0 127	32 0 127	34 0 127	36 0 127	38 0 127	40 0 127	41 0 127	42 0 127	44 0 127	45 0 127	46 0 127	47 0 127	48 0 127	49 0 127	50 0 127	50 0 127	51 0 127	51 0 127	52 0 127	52 0 127	53 0 127	53 0 127	53 0 127	54 0 127	54 0 127	54 0 127	54 0 127	54 0 127	54 0 127	6 0 127	6 0 127	6 0 127	6 0 127	6 0 127	6 0 127	6 0 127	6 0 127	6 0 127	6 0 127	6 0 127	6 0 127	6 0 127	6 0 127	0 10 51	0 10 51	0 10 51	8 10 25	8 10 25	9 10 25	9 10 25	9 10 25	8 10 25	8 10 25	8 0 25	8 0 25	7 1 25	7 1 25	6 2 25	5 2 25	4 2 25	2 2 25	0 2 51	0 2 51	0 2 51	0 2 51	0 2 51	0 1 51	0 1 51	0 0 51	0 5 51	0 10 51	0 10 51	0 10 51	0 10 51	0 10 51	0 10 51	0 10 51	0 10 51	0 10 51	0 10 51	0 10 51	0 10 51	0 10 51	0 10 51	0 10 51	0 10 51	0 10 51	0 10 51	0 10 51	0 10 51	0 0 255	0 0 255	0 0 255	0 0 255	0 0 255	0 0 255	0 0 255	0 0 255	0 0 255	0 0 255	0 0 255	0 0 255	0 0 255	0 0 255	0 0 255	0 0 255	0 0 255	0 0 255	0 0 255	0 0 255	0 0 255	0 0 255	0 0 255	0 0 255	0 0 255	0 0 255	0 0 255	0 0 255	0 0 255	0 0 255	0 0 255	0 0 255	0 0 255	0 0 255	0 0 255	0 0 255	0 0 255	0 0 255	0 0 255	0 0 255	0 0 255	0 0 255	0 0 255	0 0 255	0 0 255	0 0 255	0 0 255	0 0 255	0 0 255	0 0 255	0 0 255	0 0 255	0 0 255	0 0 255	0 0 255	0 0 255	0 0 255	0 0 255	0 0 255	0 0 255	0 0 255	0 0 255	0 0 255	0 0 255	0 0 255	
0 0 255	0 0 255	0 0 255	0 0 255	0 0 255	0 0 255	0 0 255	0 0 255	0 0 255	0 0 255	0 0 255	0 0 255	0 0 255	0 0 255	0 0 255	0 0 255	0 0 255	0 0 255	0 0 255	0 0 255	0 0 255	0 0 255	0 0 255	0 0 255	0 0 255	0 0 255	0 0 255	0 0 255	0 0 255	0 0 255	0 0 255	0 0 255	0 0 255	0 0 255	0 0 255	0 0 255	0 0 255	0 0 255	0 0 255	0 0 255	0 0 255	0 0 255	0 0 255	0 0 255	0 0 255	0 0 255	0 0 255	0 0 255	0 0 255	0 0 255	0 0 255	0 0 255	0 0 255	0 0 255	0 0 255	0 0 255	0 0 255	0 0 255	0 0 255	0 0 255	0 0 255	0 0 255	0 0 255	0 0 255	0 0 255	0 0 255	0 0 255	0 0 255	0 0 255	0 0 255	0 0 255	0 0 255	0 0 255	0 0 255	0 0 255	0 0 255	0 0 255	0 0 255	0 0 255	0 0 255	0 0 255	0 0 255	0 0 255	0 0 255	0 0 255	0 0 255	0 0 255	0 0 255	0 0 255	0 0 255	0 0 255	0 0 255	0 0 255	0 0 255	0 0 255	0 0 255	0 0 255	18 0 127	23 0 127	27 0 127	30 0 127	32 0 127	34 0 127	36 0 127	38 0 127	40 0 127	41 0 127	43 0 127	44 0 127	45 0 127	46 0 127	48 0 127	48 0 127	49 0 127	50 0 127	51 0 127	52 0 127	52 0 127	53 0 127	53 0 127	54 0 127	54 0 127	54 0 127	55 0 127	55 0 127	55 0 127	55 0 127	55 0 127	55 0 127	55 0 127	55 0 127	6 0 127	6 0 127	6 0 127	6 0 127	6 0 127	6 0 127	6 0 127	6 0 127	6 0 127	6 0 127	6 0 127	6 0 127	6 0 127	6 0 127	0 10 51	0 10 51	0 10 51	0 10 51	7 10 25	7 10 25	7 10 25	7 10 25	7 10 25	7 10 25	7 10 25	6 10 25	5 10 25	5 10 25	0 10 51	0 10 51	0 10 51	0 10 51	0 10 51	0 10 51	0 10 51	0 10 51	0 10 51	0 10 51	0 10 51	0 10 51	0 10 51	0 10 51	0 10 51	0 10 51	0 10 51	0 10 51	0 10 51	0 10 51	0 10 51	0 10 51	0 10 51	0 10 51	0 10 51	0 10 51	0 10 51	0 10 51	0 10 51	0 10 51	0 0 255	0 0 255	0 0 255	0 0 255	0 0 255	0 0 255	0 0 255	0 0 255	0 0 255	0 0 255	0 0 255	0 0 255	0 0 255	0 0 255	0 0 255	0 0 255	0 0 255	0 0 255	0 0 255	0 0 255	0 0 255	0 0 255	0 0 255	0 0 255	0 0 255	0 0 255	0 0 255	0 0 255	0 0 255	0 0 255	0 0 255	0 0 255	0 0 255	0 0 255	0 0 255	0 0 255	0 0 255	0 0 255	0 0 255	0 0 255	0 0 255	0 0 255	0 0 255	0 0 255	0 0 255	0 0 255	0 0 255	0 0 255	0 0 255	0 0 255	0 0 255	0 0 255	0 0 255	0 0 255	0 0 255	0 0 255	0 0 255	0 0 255	0 0 255	0 0 255	0 0 255	0 0 255	0 0 255	0 0 255	0 0 255	0 0 255	0 0 255	
0 0 255	0 0 255	0 0 255	0 0 255	0 0 255	0 0 255	0 0 255	0 0 255	0 0 255	0 0 255	0 0 255	0 0 255	0 0 255	0 0 255	0 0 255	0 0 255	0 0 255	0 0 255	0 0 255	0 0 255	0 0 255	0 0 255	0 0 255	0 0 255	0 0 255	0 0 255	0 0 255	0 0 255	0 0 255	0 0 255	0 0 255	0 0 255	0 0 255	0 0 255	0 0 255	0 0 255	0 0 255	0 0 255	0 0 255	0 0 255	0 0 255	0 0 255	0 0 255	0 0 255	0 0 255	0 0 255	0 0 255	0 0 255	0 0 255	0 0 255	0 0 255	0 0 255	0 0 255	0 0 255	0 0 255	0 0 255	0 0 255	0 0 255	0 0 255	0 0 255	0 0 255	0 0 255	0 0 255	0 0 255	0 0 255	0 0 255	0 0 255	0 0 255	0 0 255	0 0 255	0 0 255	0 0 255	0 0 255	0 0 255	0 0 255	0 0 255	0 0 255	0 0 255	0 0 255	0 0 255	0 0 255	0 0 255	0 0 255	0 0 255	0 0 255	0 0 255	0 0 255	0 0 255	0 0 255	0 0 255	0 0 255	0 0 255	0 0 255	0 0 255	0 0 255	0 0 255	18 0 127	23 0 127	27 0 127	30 0 127	32 0 127	34 0 127	36 0 127	38 0 127	40 0 127	42 0 127	43 0 127	44 0 127	46 0 127	47 0 127	48 0 127	49 0 127	50 0 127	51 0 127	51 0 127	52 0 127	53 0 127	53 0 127	54 0 127	54 0 127	55 0 127	55 0 127	55 0 127	56 0 127	56 0 127	56 0 127	56 0 127	56 0 127	56 0 127	56 0 127	56 0 127	56 0 127	6 0 127	6 0 127	6 0 127	6 0 127	6 0 127	6 0 127	6 0 127	6 0 127	6 0 127	6 0 127	6 0 127	6 0 127	6 0 127	6 0 127	6 0 127	0 10 51	0 10 51	0 10 51	0 10 51	0 10 51	0 10 51	0 10 51	0 10 51	0 10 51	0 10 51	0 10 51	0 10 51	0 10 51	0 10 51	0 10 51	0 10 51	0 10 51	0 10 51	0 10 51	0 10 51	0 10 51	0 10 51	0 10 51	0 10 51	0 10 51	0 10 51	0 10 51	0 10 51	0 10 51	0 10 51	0 10 51	0 10 51	0 10 51	0 10 51	0 10 51	0 10 51	0 10 51	0 10 51	0 10 51	0 10 51	0 10 51	0 0 255	0 0 255	0 0 255	0 0 255	0 0 255	0 0 255	0 0 255	0 0 255	0 0 255	0 0 255	0 0 255	0 0 255	0 0 255	0 0 255	0 0 255	0 0 255	0 0 255	0 0 255	0 0 255	0 0 255	0 0 255	0 0 255	0 0 255	0 0 255	0 0 255	0 0 255	0 0 255	0 0 255	0 0 255	0 0 255	0 0 255	0 0 255	0 0 255	0 0 255	0 0 255	0 0 255	0 0 255	0 0 255	0 0 255	0 0 255	0 0 255	0 0 255	0 0 255	0 0 255	0 0 255	0 0 255	0 0 255	0 0 255	0 0 255	0 0 255	0 0 255	0 0 255	0 0 255	0 0 255	0 0 255	0 0 255	0 0 255	0 0 255	0 0 255	0 0 255	0 0 255	0 0 255	0 0 255	0 0 255	0 0 255	0 0 255	0 0 255	0 0 255	
0 0 255	0 0 255	0 0 255	0 0 255	0 0 255	0 0 255	0 0 255	0 0 255	0 0 255	0 0 255	0 0 255	0 0 255	0 0 255	0 0 255	0 0 255	0 0 255	0 0 255	0 0 255	0 0 255	0 0 255	0 0 255	0 0 255	0 0 255	0 0 255	0 0 255	0 0 255	0 0 255	0 0 255	0 0 255	0 0 255	0 0 255	0 0 255	0 0 255	0 0 255	0 0 255	0 0 255	0 0 255	0 0 255	0 0 255	0 0 255	0 0 255	0 0 255	0 0 255	0 0 255	0 0 255	0 0 255	0 0 255	0 0 255	0 0 255	0 0 255	0 0 255	0 0 255	0 0 255	0 0 255	0 0 255	0 0 255	0 0 255	0 0 255	0 0 255	0 0 255	0 0 255	0 0 255	0 0 255	0 0 255	0 0 255	0 0 255	0 0 255	0 0 255	0 0 255	0 0 255	0 0 255	0 0 255	0 0 255	0 0 255	0 0 255	0 0 255	0 0 255	0 0 255	0 0 255	0 0 255	0 0 255	0 0 255	0 0 255	0 0 255	0 0 255	0 0 255	0 0 255	0 0 255	0 0 255	0 0 255	0 0 255	0 0 255	0 0 255	0 0 255	0 0 255	18 0 127	23 0 127	27 0 127	30 0 127	32 0 127	34 0 127	36 0 127	38 0 127	40 0 127	42 0 127	43 0 127	44 0 127	46 0 127	47 0 127	48 0 127	49 0 127	50 0 127	51 0 127	52 0 127	53 0 127	53 0 127	54 0 127	54 0 127	55 0 127	55 0 127	56 0 127	56 0 127	56 0 127	57 0 127	57 0 127	57 0 127	57 0 127	57 0 127	57 0 127	57 0 127	57 0 127	57 0 127	56 0 127	6 0 127	6 0 127	6 0 127	6 0 127	6 0 127	6 0 127	6 0 127	6 0 127	6 0 127	6 0 127	6 0 127	6 0 127	6 0 127	6 0 127	6 0 127	6 0 127	0 10 51	0 10 51	0 10 51	0 10 51	0 10 51	0 10 51	0 10 51	0 10 51	0 10 51	0 10 51	0 10 51	0 10 51	0 10 51	0 10 51	0 10 51	0 10 51	0 10 51	0 10 51	0 10 51	0 10 51	0 10 51	0 10 51	0 10 51	0 10 51	0 10 51	0 10 51	0 10 51	0 10 51	0 10 51	0 10 51	0 10 51	0 10 51	0 10 51	0 10 51	0 10 51	0 10 51	0 0 255	0 0 255	0 0 255	0 0 255	0 0 255	0 0 255	0 0 255	0 0 255	0 0 255	0 0 255	0 0 255	0 0 255	0 0 255	0 0 255	0 0 255	0 0 255	0 0 255	0 0 255	0 0 255	0 0 255	0 0 255	0 0 255	0 0 255	0 0 255	0 0 255	0 0 255	0 0 255	0 0 255	0 0 255	0 0 255	0 0 255	0 0 255	0 0 255	0 0 255	0 0 255	0 0 255	0 0 255	0 0 255	0 0 255	0 0 255	0 0 255	0 0 255	0 0 255	0 0 255	0 0 255	0 0 255	0 0 255	0 0 255	0 0 255	0 0 255	0 0 255	0 0 255	0 0 255	0 0 255	0 0 255	0 0 255	0 0 255	0 0 255	0 0 255	0 0 255	0 0 255	0 0 255	0 0 255	0 0 255	0 0 255	0 0 255	0 0 255	0 0 255	0 0 255	0 0 255	0 0 255	
0 0 255	0 0 255	0 0 255	0 0 255	0 0 255	0 0 255	0 0 255	0 0 255	0 0 255	0 0 255	0 0 255	0 0 255	0 0 255	0 0 255	0 0 255	0 0 255	0 0 255	0 0 255	0 0 255	0 0 255	0 0 255	0 0 255	0 0 255	0 0 255	0 0 255	0 0 255	0 0 255	0 0 255	0 0 255	0 0 255	0 0 255	0 0 255	0 0 255	0 0 255	0 0 255	0 0 255	0 0 255	0 0 255	0 0 255	0 0 255	0 0 255	0 0 255	0 0 255	0 0 255	0 0 255	0 0 255	0 0 255	0 0 255	0 0 255	0 0 255	0 0 255	0 0 255	0 0 255	0 0 255	0 0 255	0 0 255	0 0 255	0 0 255	0 0 255	0 0 255	0 0 255	0 0 255	0 0 255	0 0 255	0 0 255	0 0 255	0 0 255	0 0 255	0 0 255	0 0 255	0 0 255	0 0 255	0 0 255	0 0 255	0 0 255	0 0 255	0 0 255	0 0 255	0 0 255	0 0 255	0 0 255	0 0 255	0 0 255	0 0 255	0 0 255	0 0 255	0 0 255	0 0 255	0 0 255	0 0 255	0 0 255	0 0 255	0 0 255	0 0 255	18 0 127	23 0 127	26 0 127	29 0 127	32 0 127	34 0 127	36 0 127	38 0 127	40 0 127	42 0 127	43 0 127	44 0 127	46 0 127	47 0 127	48 0 127	49 0 127	50 0 127	51 0 127	52 0 127	53 0 127	54 0 127	54 0 127	55 0 127	55 0 127	56 0 127	56 0 127	57 0 127	57 0 127	86 0 63	87 0 63	87 0 63	87 2 12	87 2 12	87 2 12	87 2 12	87 2 12	87 2 12	87 2 12	86 3 2	57 0 127	6 0 127	6 0 127	6 0 127	6 0 127	6 0 127	6 0 127	6 0 127	6 0 127	6 0 127	6 0 127	6 0 127	6 0 127	6 0 127	6 0 127	6 0 127	6 0 127	6 0 127	6 0 127	0 10 51	0 10 51	0 10 51	0 10 51	0 10 51	0 10 51	0 10 51	0 10 51	0 10 51	0 10 51	0 10 51	0 10 51	0 10 51	0 10 51	0 10 51	0 10 51	0 10 51	0 10 51	0 10 51	0 10 51	0 10 51	0 10 51	0 10 51	0 10 51	0 10 51	0 10 51	0 10 51	0 10 51	0 10 51	0 10 51	0 10 51	0 0 255	0 0 255	0 0 255	0 0 255	0 0 255	0 0 255	0 0 255	0 0 255	0 0 255	0 0 255	0 0 255	0 0 255	0 0 255	0 0 255	0 0 255	0 0 255	0 0 255	0 0 255	0 0 255	0 0 255	0 0 255	0 0 255	0 0 255	0 0 255	0 0 255	0 0 255	0 0 255	0 0 255	0 0 255	0 0 255	0 0 255	0 0 255	0 0 255	0 0 255	0 0 255	0 0 255	0 0 255	0 0 255	0 0 255	0 0 255	0 0 255	0 0 255	0 0 255	0 0 255	0 0 255	0 0 255	0 0 255	0 0 255	0 0 255	0 0 255	0 0 255	0 0 255	0 0 255	0 0 255	0 0 255	0 0 255	0 0 255	0 0 255	0 0 255	0 0 255	0 0 255	0 0 255	0 0 255	0 0 255	0 0 255	0 0 255	0 0 255	0 0 255	0 0 255	0 0 255	0 0 255	0 0 255	0 0 255	
0 0 255	0 0 255	0 0 255	0 0 255	0 0 255	0 0 255	0 0 255	0 0 255	0 0 255	0 0 255	0 0 255	0 0 255	0 0 255	0 0 255	0 0 255	0 0 255	0 0 255	0 0 255	0 0 255	0 0 255	0 0 255	0 0 255	0 0 255	0 0 255	0 0 255	0 0 255	0 0 255	0 0 255	0 0 255	0 0 255	0 0 255	0 0 255	0 0 255	0 0 255	0 0 255	0 0 255	0 0 255	0 0 255	0 0 255	0 0 255	0 0 255	0 0 255	0 0 255	0 0 255	0 0 255	0 0 255	0 0 255	0 0 255	0 0 255	0 0 255	0 0 255	0 0 255	0 0 255	0 0 255	0 0 255	0 0 255	0 0 255	0 0 255	0 0 255	0 0 255	0 0 255	0 0 255	0 0 255	0 0 255	0 0 255	0 0 255	0 0 255	0 0 255	0 0 255	0 0 255	0 0 255	0 0 255	0 0 255	0 0 255	0 0 255	0 0 255	0 0 255	0 0 255	0 0 255	0 0 255	0 0 255	0 0 255	0 0 255	0 0 255	0 0 255	0 0 255	0 0 255	0 0 255	0 0 255	0 0 255	0 0 255	0 0 255	0 0 255	17 0 127	22 0 127	26 0 127	29 0 127	31 0 127	34 0 127	36 0 127	38 0 127	40 0 127	41 0 127	43 0 127	44 0 127	46 0 127	47 0 127	48 0 127	49 0 127	50 0 127	51 0 127	52 0 127	53 0 127	54 0 127	54 0 127	55 0 127	56 0 127	56 0 127	85 0 63	86 0 63	87 0 63	87 0 63	87 0 63	88 0 63	88 0 63	88 2 12	88 2 12	88 2 12	88 2 12	88 2 12	88 2 12	88 3 2	87 3 2	87 3 2	87 3 2	9 3 2	9 3 2	6 0 127	6 0 127	6 0 127	6 0 127	6 0 127	6 0 127	6 0 127	6 0 127	6 0 127	6 0 127	6 0 127	6 0 127	6 0 127	6 0 127	6 0 127	6 0 127	6 0 127	6 0 127	0 10 51	0 10 51	0 10 51	0 10 51	0 10 51	0 10 51	0 10 51	0 10 51	0 10 51	0 10 51	0 10 51	0 10 51	0 10 51	0 10 51	0 10 51	0 10 51	0 10 51	0 10 51	0 10 51	0 10 51	0 10 51	0 10 51	0 10 51	0 10 51	0 10 51	0 0 255	0 0 255	0 0 255	0 0 255	0 0 255	0 0 255	0 0 255	0 0 255	0 0 255	0 0 255	0 0 255	0 0 255	0 0 255	0 0 255	0 0 255	0 0 255	0 0 255	0 0 255	0 0 255	0 0 255	0 0 255	0 0 255	0 0 255	0 0 255	0 0 255	0 0 255	0 0 255	0 0 255	0 0 255	0 0 255	0 0 255	0 0 255	0 0 255	0 0 255	0 0 255	0 0 255	0 0 255	0 0 255	0 0 255	0 0 255	0 0 255	0 0 255	0 0 255	0 0 255	0 0 255	0 0 255	0 0 255	0 0 255	0 0 255	0 0 255	0 0 255	0 0 255	0 0 255	0 0 255	0 0 255	0 0 255	0 0 255	0 0 255	0 0 255	0 0 255	0 0 255	0 0 255	0 0 255	0 0 255	0 0 255	0 0 255	0 0 255	0 0 255	0 0 255	0 0 255	0 0 255	0 0 255	0 0 255	0 0 255	0 0 255	0 0 255	
0 0 255	0 0 255	0 0 255	0 0 255	0 0 255	0 0 255	0 0 255	0 0 255	0 0 255	0 0 255	0 0 255	0 0 255	0 0 255	0 0 255	0 0 255	0 0 255	0 0 255	0 0 255	0 0 255	0 0 255	0 0 255	0 0 255	0 0 255	0 0 255	0 0 255	0 0 255	0 0 255	0 0 255	0 0 255	0 0 255	0 0 255	0 0 255	0 0 255	0 0 255	0 0 255	0 0 255	0 0 255	0 0 255	0 0 255	0 0 255	0 0 255	0 0 255	0 0 255	0 0 255	0 0 255	0 0 255	0 0 255	0 0 255	0 0 255	0 0 255	0 0 255	0 0 255	0 0 255	0 0 255	0 0 255	0 0 255	0 0 255	0 0 255	0 0 255	0 0 255	0 0 255	0 0 255	0 0 255	0 0 255	0 0 255	0 0 255	0 0 255	0 0 255	0 0 255	0 0 255	0 0 255	0 0 255	0 0 255	0 0 255	0 0 255	0 0 255	0 0 255	0 0 255	0 0 255	0 0 255	0 0 255	0 0 255	0 0 255	0 0 255	0 0 255	0 0 255	0 0 255	0 0 255	0 0 255	0 0 255	0 0 255	0 0 255	16 0 127	21 0 127	25 0 127	28 0 127	31 0 127	33 0 127	36 0 127	38 0 127	39 0 127	41 0 127	43 0 127	44 0 127	46 0 127	47 0 127	48 0 127	49 0 127	50 0 127	51 0 127	52 0 127	53 0 127	54 0 127	55 0 127	55 0 127	56 0 127	85 0 63	86 0 63	86 0 63	87 0 63	88 0 63	88 0 63	89 0 63	89 0 63	89 0 63	89 2 12	89 2 12	89 2 12	89 2 12	89 2 12	89 3 2	89 3 2	89 3 2	88 3 2	88 3 2	87 3 2	9 3 2	9 3 2	9 3 2	6 0 127	6 0 127	6 0 127	6 0 127	6 0 127	6 0 127	6 0 127	6 0 127	6 0 127	6 0 127	6 0 127	6 0 127	6 0 127	6 0 127	6 0 127	6 0 127	6 0 127	6 0 127	6 0 127	6 0 127	0 10 51	0 10 51	0 10 51	0 10 51	0 10 51	0 10 51	0 10 51	0 10 51	0 10 51	0 10 51	0 10 51	0 10 51	0 10 51	0 10 51	0 10 51	0 10 51	0 10 51	0 0 255	0 0 255	0 0 255	0 0 255	0 0 255	0 0 255	0 0 255	0 0 255	0 0 255	0 0 255	0 0 255	0 0 255	0 0 255	0 0 255	0 0 255	0 0 255	0 0 255	0 0 255	0 0 255	0 0 255	0 0 255	0 0 255	0 0 255	0 0 255	0 0 255	0 0 255	0 0 255	0 0 255	0 0 255	0 0 255	0 0 255	0 0 255	0 0 255	0 0 255	0 0 255	0 0 255	0 0 255	0 0 255	0 0 255	0 0 255	0 0 255	0 0 255	0 0 255	0 0 255	0 0 255	0 0 255	0 0 255	0 0 255	0 0 255	0 0 255	0 0 255	0 0 255	0 0 255	0 0 255	0 0 255	0 0 255	0 0 255	0 0 255	0 0 255	0 0 255	0 0 255	0 0 255	0 0 255	0 0 255	0 0 255	0 0 255	0 0 255	0 0 255	0 0 255	0 0 255	0 0 255	0 0 255	0 0 255	0 0 255	0 0 255	0 0 255	0 0 255	0 0 255	0 0 255	0 0 255	
0 0 255	0 0 255	0 0 255	0 0 255	0 0 255	0 0 255	0 0 255	0 0 255	0 0 255	0 0 255	0 0 255	0 0 255	0 0 255	0 0 255	0 0 255	0 0 255	0 0 255	0 0 255	0 0 255	0 0 255	0 0 255	0 0 255	0 0 255	0 0 255	0 0 255	0 0 255	0 0 255	0 0 255	0 0 255	0 0 255	0 0 255	0 0 255	0 0 255	0 0 255	0 0 255	0 0 255	0 0 255	0 0 255	0 0 255	0 0 255	0 0 255	0 0 255	0 0 255	0 0 255	0 0 255	0 0 255	0 0 255	0 0 255	0 0 255	0 0 255	0 0 255	0 0 255	0 0 255	0 0 255	0 0 255	0 0 255	0 0 255	0 0 255	0 0 255	0 0 255	0 0 255	0 0 255	0 0 255	0 0 255	0 0 255	0 0 255	0 0 255	0 0 255	0 0 255	0 0 255	0 0 255	0 0 255	0 0 255	0 0 255	0 0 255	0 0 255	0 0 255	0 0 255	0 0 255	0 0 255	0 0 255	0 0 255	0 0 255	0 0 255	0 0 255	0 0 255	0 0 255	0 0 255	0 0 255	0 0 255	0 0 255	15 0 127	20 0 127	24 0 127	27 0 127	30 0 127	33 0 127	35 0 127	37 0 127	39 0 127	41 0 127	42 0 127	44 0 127	45 0 127	47 0 127	48 0 127	49 0 127	50 0 127	51 0 127	52 0 127	53 0 127	54 0 127	55 0 127	83 0 63	84 0 63	85 0 63	86 0 63	87 0 63	87 0 63	88 0 63	89 0 63	89 0 63	89 0 63	90 0 63	90 0 63	90 2 12	90 2 12	90 2 12	90 2 12	90 2 12	90 3 2	90 3 2	89 3 2	89 3 2	89 3 2	88 3 2	87 3 2	9 3 2	9 3 0	9 3 0	9 3 2	9 3 2	6 0 127	6 0 127	6 0 127	6 0 127	6 0 127	6 0 127	6 0 127	6 0 127	6 0 127	6 0 127	6 0 127	6 0 127	6 0 127	6 0 127	6 0 127	6 0 127	6 0 127	6 0 127	6 0 127	6 0 127	6 0 127	6 0 127	0 0 255	0 0 255	0 0 255	0 0 255	0 0 255	0 0 255	0 0 255	0 0 255	0 0 255	0 0 255	0 0 255	0 0 255	0 0 255	0 0 255	0 0 255	0 0 255	0 0 255	0 0 255	0 0 255	0 0 255	0 0 255	0 0 255	0 0 255	0 0 255	0 0 255	0 0 255	0 0 255	0 0 255	0 0 255	0 0 255	0 0 255	0 0 255	0 0 255	0 0 255	0 0 255	0 0 255	0 0 255	0 0 255	0 0 255	0 0 255	0 0 255	0 0 255	0 0 255	0 0 255	0 0 255	0 0 255	0 0 255	0 0 255	0 0 255	0 0 255	0 0 255	0 0 255	0 0 255	0 0 255	0 0 255	0 0 255	0 0 255	0 0 255	0 0 255	0 0 255	0 0 255	0 0 255	0 0 255	0 0 255	0 0 255	0 0 255	0 0 255	0 0 255	0 0 255	0 0 255	0 0 255	0 0 255	0 0 255	0 0 255	0 0 255	0 0 255	0 0 255	0 0 255	0 0 255	0 0 255	0 0 255	0 0 255	0 0 255	0 0 255	0 0 255	0 0 255	0 0 255	0 0 255	0 0 255	0 0 255	0 0 255	0 0 255	
0 0 255	0 0 255	0 0 255	0 0 255	0 0 255	0 0 255	0 0 255	0 0 255	0 0 255	0 0 255	0 0 255	0 0 255	0 0 255	0 0 255	0 0 255	0 0 255	0 0 255	0 0 255	0 0 255	0 0 255	0 0 255	0 0 255	0 0 255	0 0 255	0 0 255	0 0 255	0 0 255	0 0 255	0 0 255	0 0 255	0 0 255	0 0 255	0 0 255	0 0 255	0 0 255	0 0 255	0 0 255	0 0 255	0 0 255	0 0 255	0 0 255	0 0 255	0 0 255	0 0 255	0 0 255	0 0 255	0 0 255	0 0 255	0 0 255	0 0 255	0 0 255	0 0 255	0 0 255	0 0 255	0 0 255	0 0 255	0 0 255	0 0 255	0 0 255	0 0 255	0 0 255	0 0 255	0 0 255	0 0 255	0 0 255	0 0 255	0 0 255	0 0 255	0 0 255	0 0 255	0 0 255	0 0 255	0 0 255	0 0 255	0 0 255	0 0 255	0 0 255	0 0 255	0 0 255	0 0 255	0 0 255	0 0 255	0 0 255	0 0 255	0 0 255	0 0 255	0 0 255	0 0 255	0 0 255	0 0 255	13 0 127	19 0 127	23 0 127	27 0 127	29 0 127	32 0 127	34 0 127	36 0 127	38 0 127	40 0 127	42 0 127	43 0 127	45 0 127	46 0 127	47 0 127	49 0 127	50 0 127	51 0 127	52 0 127	53 0 127	54 0 127	55 0 127	83 0 63	84 0 63	85 0 63	86 0 63	87 0 63	88 0 63	88 0 63	89 0 63	89 0 63	90 0 63	90 0 63	91 0 63	91 0 63	91 2 12	91 2 12	91 2 12	91 2 12	91 2 12	91 3 2	91 3 2	90 3 2	90 3 2	89 3 2	89 3 2	89 3 0	88 3 0	87 3 0	9 3 0	9 3 0	9 3 0	9 3 0	6 0 127	6 0 127	6 0 127	6 0 127	6 0 127	6 0 127	6 0 127	6 0 127	6 0 127	6 0 127	6 0 127	6 0 127	6 0 127	6 0 127	6 0 127	6 0 127	6 0 127	6 0 127	6 0 127	6 0 127	6 0 127	6 0 127	0 0 255	0 0 255	0 0 255	0 0 255	0 0 255	0 0 255	0 0 255	0 0 255	0 0 255	0 0 255	0 0 255	0 0 255	0 0 255	0 0 255	0 0 255	0 0 255	0 0 255	0 0 255	0 0 255	0 0 255	0 0 255	0 0 255	0 0 255	0 0 255	0 0 255	0 0 255	0 0 255	0 0 255	0 0 255	0 0 255	0 0 255	0 0 255	0 0 255	0 0 255	0 0 255	0 0 255	0 0 255	0 0 255	0 0 255	0 0 255	0 0 255	0 0 255	0 0 255	0 0 255	0 0 255	0 0 255	0 0 255	0 0 255	0 0 255	0 0 255	0 0 255	0 0 255	0 0 255	0 0 255	0 0 255	0 0 255	0 0 255	0 0 255	0 0 255	0 0 255	0 0 255	0 0 255	0 0 255	0 0 255	0 0 255	0 0 255	0 0 255	0 0 255	0 0 255	0 0 255	0 0 255	0 0 255	0 0 255	0 0 255	0 0 255	0 0 255	0 0 255	0 0 255	0 0 255	0 0 255	0 0 255	0 0 255	0 0 255	0 0 255	0 0 255	0 0 255	0 0 255	0 0 255	0 0 255	0 0 255	0 0 255	
0 0 255	0 0 255	0 0 255	0 0 255	0 0 255	0 0 255	0 0 255	0 0 255	0 0 255	0 0 255	0 0 255	0 0 255	0 0 255	0 0 255	0 0 255	0 0 255	0 0 255	0 0 255	0 0 255	0 0 255	0 0 255	0 0 255	0 0 255	0 0 255	0 0 255	0 0 255	0 0 255	0 0 255	0 0 255	0 0 255	0 0 255	0 0 255	0 0 255	0 0 255	0 0 255	0 0 255	0 0 255	0 0 255	0 0 255	0 0 255	0 0 255	0 0 255	0 0 255	0 0 255	0 0 255	0 0 255	0 0 255	0 0 255	0 0 255	0 0 255	0 0 255	0 0 255	0 0 255	0 0 255	0 0 255	0 0 255	0 0 255	0 0 255	0 0 255	0 0 255	0 0 255	0 0 255	0 0 255	0 0 255	0 0 255	0 0 255	0 0 255	0 0 255	0 0 255	0 0 255	0 0 255	0 0 255	0 0 255	0 0 255	0 0 255	0 0 255	0 0 255	0 0 255	0 0 255	0 0 255	0 0 255	0 0 255	0 0 255	0 0 255	0 0 255	0 0 255	0 0 255	0 0 255	0 0 255	10 0 127	18 0 127	22 0 127	26 0 127	29 0 127	31 0 127	34 0 127	36 0 127	38 0 127	40 0 127	41 0 127	43 0 127	44 0 127	46 0 127	47 0 127	48 0 127	49 0 127	51 0 127	52 0 127	53 0 127	53 0 127	82 0 63	83 0 63	84 0 63	85 0 63	86 0 63	87 0 63	88 0 63	89 0 63	89 0 63	90 0 63	90 0 63	91 0 63	91 0 63	91 0 63	92 0 63	92 2 12	92 2 12	92 2 12	92 2 12	92 2 12	92 3 2	91 3 2	91 3 2	91 3 2	90 3 2	90 3 0	89 3 0	89 3 0	88 3 0	87 3 0	9 3 0	9 3 0	9 3 0	9 3 0	9 3 2	6 0 127	6 0 127	6 0 127	6 0 127	6 0 127	6 0 127	6 0 127	6 0 127	6 0 127	6 0 127	6 0 127	6 0 127	6 0 127	6 0 127	6 0 127	6 0 127	6 0 127	6 0 127	6 0 127	6 0 127	6 0 127	0 0 255	0 0 255	0 0 255	0 0 255	0 0 255	0 0 255	0 0 255	0 0 255	0 0 255	0 0 255	0 0 255	0 0 255	0 0 255	0 0 255	0 0 255	0 0 255	0 0 255	0 0 255	0 0 255	0 0 255	0 0 255	0 0 255	0 0 255	0 0 255	0 0 255	0 0 255	0 0 255	0 0 255	0 0 255	0 0 255	0 0 255	0 0 255	0 0 255	0 0 255	0 0 255	0 0 255	0 0 255	0 0 255	0 0 255	0 0 255	0 0 255	0 0 255	0 0 255	0 0 255	0 0 255	0 0 255	0 0 255	0 0 255	0 0 255	0 0 255	0 0 255	0 0 255	0 0 255	0 0 255	0 0 255	0 0 255	0 0 255	0 0 255	0 0 255	0 0 255	0 0 255	0 0 255	0 0 255	0 0 255	0 0 255	0 0 255	0 0 255	0 0 255	0 0 255	0 0 255	0 0 255	0 0 255	0 0 255	0 0 255	0 0 255	0 0 255	0 0 255	0 0 255	0 0 255	0 0 255	0 0 255	0 0 255	0 0 255	0 0 255	0 0 255	0 0 255	0 0 255	0 0 255	0 0 255	0 0 255	
0 0 255	0 0 255	0 0 255	0 0 255	0 0 255	0 0 255	0 0 255	0 0 255	0 0 255	0 0 255	0 0 255	0 0 255	0 0 255	0 0 255	0 0 255	0 0 255	0 0 255	0 0 255	0 0 255	0 0 255	0 0 255	0 0 255	0 0 255	0 0 255	0 0 255	0 0 255	0 0 255	0 0 255	0 0 255	0 0 255	0 0 255	0 0 255	0 0 255	0 0 255	0 0 255	0 0 255	0 0 255	0 0 255	0 0 255	0 0 255	0 0 255	0 0 255	0 0 255	0 0 255	0 0 255	0 0 255	0 0 255	0 0 255	0 0 255	0 0 255	0 0 255	0 0 255	0 0 255	0 0 255	0 0 255	0 0 255	0 0 255	0 0 255	0 0 255	0 0 255	0 0 255	0 0 255	0 0 255	0 0 255	0 0 255	0 0 255	0 0 255	0 0 255	0 0 255	0 0 255	0 0 255	0 0 255	0 0 255	0 0 255	0 0 255	0 0 255	0 0 255	0 0 255	0 0 255	0 0 255	0 0 255	0 0 255	0 0 255	0 0 255	0 0 255	0 0 255	0 0 255	0 0 255	0 0 255	16 0 127	21 0 127	24 0 127	28 0 127	30 0 127	33 0 127	35 0 127	37 0 127	39 0 127	41 0 127	42 0 127	44 0 127	45 0 127	47 0 127	48 0 127	49 0 127	50 0 127	51 0 127	52 0 127	53 0 127	81 0 63	83 0 63	84 0 63	85 0 63	86 0 63	87 0 63	88 0 63	89 0 63	89 0 63	90 0 63	90 0 63	91 0 63	91 0 63	92 0 63	92 0 63	92 0 63	92 2 12	93 2 12	93 2 12	93 2 12	92 2 12	92 3 2	92 3 2	92 3 2	91 3 2	91 3 2	91 3 0	90 3 0	89 3 0	89 3 0	88 3 0	87 3 0	9 3 0	9 3 0	9 3 0	9 3 0	9 3 2	6 0 127	6 0 127	6 0 127	6 0 127	6 0 127	6 0 127	6 0 127	6 0 127	6 0 127	6 0 127	6 0 127	6 0 127	6 0 127	6 0 127	6 0 127	6 0 127	6 0 127	6 0 127	6 0 127	6 0 127	0 0 255	0 0 255	0 0 255	0 0 255	0 0 255	0 0 255	0 0 255	0 0 255	0 0 255	0 0 255	0 0 255	0 0 255	0 0 255	0 0 255	0 0 255	0 0 255	0 0 255	0 0 255	0 0 255	0 0 255	0 0 255	0 0 255	0 0 255	0 0 255	0 0 255	0 0 255	0 0 255	0 0 255	0 0 255	0 0 255	0 0 255	0 0 255	0 0 255	0 0 255	0 0 255	0 0 255	0 0 255	0 0 255	0 0 255	0 0 255	0 0 255	0 0 255	0 0 255	0 0 255	0 0 255	0 0 255	0 0 255	0 0 255	0 0 255	0 0 255	0 0 255	0 0 255	0 0 255	0 0 255	0 0 255	0 0 255	0 0 255	0 0 255	0 0 255	0 0 255	0 0 255	0 0 255	0 0 255	0 0 255	0 0 255	0 0 255	0 0 255	0 0 255	0 0 255	0 0 255	0 0 255	0 0 255	0 0 255	0 0 255	0 0 255	0 0 255	0 0 255	0 0 255	0 0 255	0 0 255	0 0 255	0 0 255	0 0 255	0 0 255	0 0 255	0 0 255	0 0 255	0 0 255	0 0 255	0 0 255	
0 0 255	0 0 255	0 0 255	0 0 255	0 0 255	0 0 255	0 0 255	0 0 255	0 0 255	0 0 255	0 0 255	0 0 255	0 0 255	0 0 255	0 0 255	0 0 255	0 0 255	0 0 255	0 0 255	0 0 255	0 0 255	0 0 255	0 0 255	0 0 255	0 0 255	0 0 255	0 0 255	0 0 255	0 0 255	0 0 255	0 0 255	0 0 255	0 0 255	0 0 255	0 0 255	0 0 255	0 0 255	0 0 255	0 0 255	0 0 255	0 0 255	0 0 255	0 0 255	0 0 255	0 0 255	0 0 255	0 0 255	0 0 255	0 0 255	0 0 255	0 0 255	0 0 255	0 0 255	0 0 255	0 0 255	0 0 255	0 0 255	0 0 255	0 0 255	0 0 255	0 0 255	0 0 255	0 0 255	0 0 255	0 0 255	0 0 255	0 0 255	0 0 255	0 0 255	0 0 255	0 0 255	0 0 255	0 0 255	0 0 255	0 0 255	0 0 255	0 0 255	0 0 255	0 0 255	0 0 255	0 0 255	0 0 255	0 0 255	0 0 255	0 0 255	0 0 255	0 0 255	0 0 255	14 0 127	19 0 127	23 0 127	26 0 127	29 0 127	32 0 127	34 0 127	36 0 127	38 0 127	40 0 127	41 0 127	43 0 127	45 0 127	46 0 127	47 0 127	49 0 127	50 0 127	51 0 127	52 0 127	79 0 63	81 0 63	82 0 63	83 0 63	85 0 63	86 0 63	87 0 63	88 0 63	88 0 63	89 0 63	90 0 63	91 0 63	91 0 63	92 0 63	92 0 63	92 0 63	93 0 63	93 0 63	93 0 63	93 2 12	93 2 12	93 2 12	93 2 12	93 3 1	93 3 2	92 3 2	92 3 2	92 3 2	91 3 0	91 3 0	90 3 0	89 3 0	88 3 0	88 3 0	87 3 0	9 3 0	9 3 0	9 3 0	9 3 0	9 3 2	9 3 2	6 0 127	6 0 127	6 0 127	6 0 127	6 0 127	6 0 127	6 0 127	6 0 127	6 0 127	6 0 127	6 0 127	6 0 127	6 0 127	6 0 127	6 0 127	6 0 127	6 0 127	6 0 127	6 0 127	0 0 255	0 0 255	0 0 255	0 0 255	0 0 255	0 0 255	0 0 255	0 0 255	0 0 255	0 0 255	0 0 255	0 0 255	0 0 255	0 0 255	0 0 255	0 0 255	0 0 255	0 0 255	0 0 255	0 0 255	0 0 255	0 0 255	0 0 255	0 0 255	0 0 255	0 0 255	0 0 255	0 0 255	0 0 255	0 0 255	0 0 255	0 0 255	0 0 255	0 0 255	0 0 255	0 0 255	0 0 255	0 0 255	0 0 255	0 0 255	0 0 255	0 0 255	0 0 255	0 0 255	0 0 255	0 0 255	0 0 255	0 0 255	0 0 255	0 0 255	0 0 255	0 0 255	0 0 255	0 0 255	0 0 255	0 0 255	0 0 255	0 0 255	0 0 255	0 0 255	0 0 255	0 0 255	0 0 255	0 0 255	0 0 255	0 0 255	0 0 255	0 0 255	0 0 255	0 0 255	0 0 255	0 0 255	0 0 255	0 0 255	0 0 255	0 0 255	0 0 255	0 0 255	0 0 255	0 0 255	0 0 255	0 0 255	0 0 255	0 0 255	0 0 255	0 0 255	0 0 255	0 0 255	0 0 255	
0 0 255	0 0 255	0 0 255	0 0 255	0 0 255	0 0 255	0 0 255	0 0 255	0 0 255	0 0 255	0 0 255	0 0 255	0 0 255	0 0 255	0 0 255	0 0 255	0 0 255	0 0 255	0 0 255	0 0 255	0 0 255	0 0 255	0 0 255	0 0 255	0 0 255	0 0 255	0 0 255	0 0 255	0 0 255	0 0 255	0 0 255	0 0 255	0 0 255	0 0 255	0 0 255	0 0 255	0 0 255	0 0 255	0 0 255	0 0 255	0 0 255	0 0 255	0 0 255	0 0 255	0 0 255	0 0 255	0 0 255	0 0 255	0 0 255	0 0 255	0 0 255	0 0 255	0 0 255	0 0 255	0 0 255	0 0 255	0 0 255	0 0 255	0 0 255	0 0 255	0 0 255	0 0 255	0 0 255	0 0 255	0 0 255	0 0 255	0 0 255	0 0 255	0 0 255	0 0 255	0 0 255	0 0 255	0 0 255	0 0 255	0 0 255	0 0 255	0 0 255	0 0 255	0 0 255	0 0 255	0 0 255	0 0 255	0 0 255	0 0 255	0 0 255	0 0 255	0 0 255	11 0 127	17 0 127	22 0 127	25 0 127	28 0 127	31 0 127	33 0 127	35 0 127	37 0 127	39 0 127	41 0 127	42 0 127	44 0 127	45 0 127	47 0 127	48 0 127	49 0 127	50 0 127	51 0 127	79 0 63	80 0 63	82 0 63	83 0 63	84 0 63	85 0 63	86 0 63	87 0 63	88 0 63	89 0 63	90 0 63	90 0 63	91 0 63	92 0 63	92 0 63	93 0 63	93 0 63	93 0 63	93 0 63	94 0 63	94 2 12	94 2 12	94 2 12	94 2 12	93 2 12	93 3 2	93 3 2	93 3 2	92 3 2	92 3 0	91 3 0	90 3 0	90 3 0	89 3 0	88 3 0	87 3 0	86 3 0	60 3 0	9 3 0	9 3 0	9 3 2	9 3 2	9 3 2	6 0 127	6 0 127	6 0 127	6 0 127	6 0 127	6 0 127	6 0 127	6 0 127	6 0 127	6 0 127	6 0 127	6 0 127	6 0 127	6 0 127	6 0 127	6 0 127	6 0 127	6 0 127	6 0 127	0 0 255	0 0 255	0 0 255	0 0 255	0 0 255	0 0 255	0 0 255	0 0 255	0 0 255	0 0 255	0 0 255	0 0 255	0 0 255	0 0 255	0 0 255	0 0 255	0 0 255	0 0 255	0 0 255	0 0 255	0 0 255	0 0 255	0 0 255	0 0 255	0 0 255	0 0 255	0 0 255	0 0 255	0 0 255	0 0 255	0 0 255	0 0 255	0 0 255	0 0 255	0 0 255	0 0 255	0 0 255	0 0 255	0 0 255	0 0 255	0 0 255	0 0 255	0 0 255	0 0 255	0 0 255	0 0 255	0 0 255	0 0 255	0 0 255	0 0 255	0 0 255	0 0 255	0 0 255	0 0 255	0 0 255	0 0 255	0 0 255	0 0 255	0 0 255	0 0 255	0 0 255	0 0 255	0 0 255	0 0 255	0 0 255	0 0 255	0 0 255	0 0 255	0 0 255	0 0 255	0 0 255	0 0 255	0 0 255	0 0 255	0 0 255	0 0 255	0 0 255	0 0 255	0 0 255	0 0 255	0 0 255	0 0 255	0 0 255	0 0 255	0 0 255	0 0 255	0 0 255	0 0 255	
0 0 255	0 0 255	0 0 255	0 0 255	0 0 255	0 0 255	0 0 255	0 0 255	0 0 255	0 0 255	0 0 255	0 0 255	0 0 255	0 0 255	0 0 255	0 0 255	0 0 255	0 0 255	0 0 255	0 0 255	0 0 255	0 0 255	0 0 255	0 0 255	0 0 255	0 0 255	0 0 255	0 0 255	0 0 255	0 0 255	0 0 255	0 0 255	0 0 255	0 0 255	0 0 255	0 0 255	0 0 255	0 0 255	0 0 255	0 0 255	0 0 255	0 0 255	0 0 255	0 0 255	0 0 255	0 0 255	0 0 255	0 0 255	0 0 255	0 0 255	0 0 255	0 0 255	0 0 255	0 0 255	0 0 255	0 0 255	0 0 255	0 0 255	0 0 255	0 0 255	0 0 255	0 0 255	0 0 255	0 0 255	0 0 255	0 0 255	0 0 255	0 0 255	0 0 255	0 0 255	0 0 255	0 0 255	0 0 255	0 0 255	0 0 255	0 0 255	0 0 255	0 0 255	0 0 255	0 0 255	0 0 255	0 0 255	0 0 255	0 0 255	0 0 255	0 0 255	5 0 127	15 0 127	20 0 127	23 0 127	27 0 127	29 0 127	32 0 127	34 0 127	36 0 127	38 0 127	40 0 127	41 0 127	43 0 127	45 0 127	46 0 127	47 0 127	49 0 127	50 0 127	51 0 127	78 0 63	80 0 63	81 0 63	82 0 63	84 0 63	85 0 63	86 0 63	87 0 63	88 0 63	89 0 63	89 0 63	90 0 63	91 0 63	92 0 63	92 0 63	93 0 63	93 0 63	93 0 63	94 0 63	94 0 63	94 0 63	94 2 12	94 2 12	94 2 12	94 2 12	94 2 12	94 3 1	93 3 2	93 3 2	93 3 2	92 3 2	92 3 0	91 3 0	90 3 0	89 3 0	89 3 0	88 3 0	87 3 0	86 3 0	85 3 0	9 3 0	9 3 0	9 3 2	9 3 2	9 3 2	6 0 127	6 0 127	6 0 127	6 0 127	6 0 127	6 0 127	6 0 127	6 0 127	6 0 127	6 0 127	6 0 127	6 0 127	6 0 127	6 0 127	6 0 127	6 0 127	6 0 127	6 0 127	6 0 127	0 0 255	0 0 255	0 0 255	0 0 255	0 0 255	0 0 255	0 0 255	0 0 255	0 0 255	0 0 255	0 0 255	0 0 255	0 0 255	0 0 255	0 0 255	0 0 255	0 0 255	0 0 255	0 0 255	0 0 255	0 0 255	0 0 255	0 0 255	0 0 255	0 0 255	0 0 255	0 0 255	0 0 255	0 0 255	0 0 255	0 0 255	0 0 255	0 0 255	0 0 255	0 0 255	0 0 255	0 0 255	0 0 255	0 0 255	0 0 255	0 0 255	0 0 255	0 0 255	0 0 255	0 0 255	0 0 255	0 0 255	0 0 255	0 0 255	0 0 255	0 0 255	0 0 255	0 0 255	0 0 255	0 0 255	0 0 255	0 0 255	0 0 255	0 0 255	0 0 255	0 0 255	0 0 255	0 0 255	0 0 255	0 0 255	0 0 255	0 0 255	0 0 255	0 0 255	0 0 255	0 0 255	0 0 255	0 0 255	0 0 255	0 0 255	0 0 255	0 0 255	0 0 255	0 0 255	0 0 255	0 0 255	0 0 255	0 0 255	0 0 255	0 0 255	0 0 255	0 0 255	
0 0 255	0 0 255	0 0 255	0 0 255	0 0 255	0 0 255	0 0 255	0 0 255	0 0 255	0 0 255	0 0 255	0 0 255	0 0 255	0 0 255	0 0 255	0 0 255	0 0 255	0 0 255	0 0 255	0 0 255	0 0 255	0 0 255	0 0 255	0 0 255	0 0 255	0 0 255	0 0 255	0 0 255	0 0 255	0 0 255	0 0 255	0 0 255	0 0 255	0 0 255	0 0 255	0 0 255	0 0 255	0 0 255	0 0 255	0 0 255	0 0 255	0 0 255	0 0 255	0 0 255	0 0 255	0 0 255	0 0 255	0 0 255	0 0 255	0 0 255	0 0 255	0 0 255	0 0 255	0 0 255	0 0 255	0 0 255	0 0 255	0 0 255	0 0 255	0 0 255	0 0 255	0 0 255	0 0 255	0 0 255	0 0 255	0 0 255	0 0 255	0 0 255	0 0 255	0 0 255	0 0 255	0 0 255	0 0 255	0 0 255	0 0 255	0 0 255	0 0 255	0 0 255	0 0 255	0 0 255	0 0 255	0 0 255	0 0 255	0 0 255	0 0 255	0 0 255	12 0 127	18 0 127	22 0 127	25 0 127	28 0 127	31 0 127	33 0 127	35 0 127	37 0 127	39 0 127	41 0 127	42 0 127	44 0 127	45 0 127	47 0 127	48 0 127	49 0 127	50 0 127	77 0 63	79 0 63	80 0 63	82 0 63	83 0 63	84 0 63	85 0 63	86 0 63	87 0 63	88 0 63	89 0 63	90 0 63	91 0 63	91 0 63	92 0 63	92 0 63	93 0 63	93 0 63	94 0 63	94 0 63	94 0 63	94 0 63	94 0 63	94 2 12	94 2 12	94 2 12	94 2 12	94 3 1	94 3 1	93 3 2	93 3 2	92 3 2	92 3 0	91 3 0	91 3 0	90 3 0	89 3 0	88 3 0	87 3 0	86 3 0	85 3 0	84 3 0	9 3 0	9 3 2	9 3 2	9 3 2	9 3 2	6 0 127	6 0 127	6 0 127	6 0 127	6 0 127	6 0 127	6 0 127	6 0 127	6 0 127	6 0 127	6 0 127	6 0 127	6 0 127	6 0 127	6 0 127	6 0 127	6 0 127	6 0 127	0 0 255	0 0 255	0 0 255	0 0 255	0 0 255	0 0 255	0 0 255	0 0 255	0 0 255	0 0 255	0 0 255	0 0 255	0 0 255	0 0 255	0 0 255	0 0 255	0 0 255	0 0 255	0 0 255	0 0 255	0 0 255	0 0 255	0 0 255	0 0 255	0 0 255	0 0 255	0 0 255	0 0 255	0 0 255	0 0 255	0 0 255	0 0 255	0 0 255	0 0 255	0 0 255	0 0 255	0 0 255	0 0 255	0 0 255	0 0 255	0 0 255	0 0 255	0 0 255	0 0 255	0 0 255	0 0 255	0 0 255	0 0 255	0 0 255	0 0 255	0 0 255	0 0 255	0 0 255	0 0 255	0 0 255	0 0 255	0 0 255	0 0 255	0 0 255	0 0 255	0 0 255	0 0 255	0 0 255	0 0 255	0 0 255	0 0 255	0 0 255	0 0 255	0 0 255	0 0 255	0 0 255	0 0 255	0 0 255	0 0 255	0 0 255	0 0 255	0 0 255	0 0 255	0 0 255	0 0 255	0 0 255	0 0 255	0 0 255	0 0 255	0 0 255	0 0 255	0 0 255	
0 0 255	0 0 255	0 0 255	0 0 255	0 0 255	0 0 255	0 0 255	0 0 255	0 0 255	0 0 255	0 0 255	0 0 255	0 0 255	0 0 255	0 0 255	0 0 255	0 0 255	0 0 255	0 0 255	0 0 255	0 0 255	0 0 255	0 0 255	0 0 255	0 0 255	0 0 255	0 0 255	0 0 255	0 0 255	0 0 255	0 0 255	0 0 255	0 0 255	0 0 255	0 0 255	0 0 255	0 0 255	0 0 255	0 0 255	0 0 255	0 0 255	0 0 255	0 0 255	0 0 255	0 0 255	0 0 255	0 0 255	0 0 255	0 0 255	0 0 255	0 0 255	0 0 255	0 0 255	0 0 255	0 0 255	0 0 255	0 0 255	0 0 255	0 0 255	0 0 255	0 0 255	0 0 255	0 0 255	0 0 255	0 0 255	0 0 255	0 0 255	0 0 255	0 0 255	0 0 255	0 0 255	0 0 255	0 0 255	0 0 255	0 0 255	0 0 255	0 0 255	0 0 255	0 0 255	0 0 255	0 0 255	0 0 255	0 0 255	0 0 255	0 0 255	8 0 127	15 0 127	20 0 127	23 0 127	27 0 127	29 0 127	32 0 127	34 0 127	36 0 127	38 0 127	40 0 127	41 0 127	43 0 127	44 0 127	46 0 127	47 0 127	48 0 127	49 0 127	76 0 63	78 0 63	79 0 63	81 0 63	82 0 63	83 0 63	85 0 63	86 0 63	87 0 63	88 0 63	89 0 63	89 0 63	90 0 63	91 0 63	92 0 63	92 0 63	93 0 63	93 0 63	94 0 63	94 0 63	94 0 63	94 0 63	95 0 63	95 0 63	95 2 12	95 2 12	95 2 12	94 2 12	94 2 12	94 3 1	94 3 1	94 3 1	93 3 2	92 3 2	92 3 0	91 3 0	90 3 0	89 3 0	89 3 0	88 3 0	87 3 0	86 3 0	85 3 0	83 3 2	82 3 2	9 3 2	9 3 2	9 3 2	9 3 2	6 0 127	6 0 127	6 0 127	6 0 127	6 0 127	6 0 127	6 0 127	6 0 127	6 0 127	6 0 127	6 0 127	6 0 127	6 0 127	6 0 127	6 0 127	6 0 127	6 0 127	6 0 127	0 0 255	0 0 255	0 0 255	0 0 255	0 0 255	0 0 255	0 0 255	0 0 255	0 0 255	0 0 255	0 0 255	0 0 255	0 0 255	0 0 255	0 0 255	0 0 255	0 0 255	0 0 255	0 0 255	0 0 255	0 0 255	0 0 255	0 0 255	0 0 255	0 0 255	0 0 255	0 0 255	0 0 255	0 0 255	0 0 255	0 0 255	0 0 255	0 0 255	0 0 255	0 0 255	0 0 255	0 0 255	0 0 255	0 0 255	0 0 255	0 0 255	0 0 255	0 0 255	0 0 255	0 0 255	0 0 255	0 0 255	0 0 255	0 0 255	0 0 255	0 0 255	0 0 255	0 0 255	0 0 255	0 0 255	0 0 255	0 0 255	0 0 255	0 0 255	0 0 255	0 0 255	0 0 255	0 0 255	0 0 255	0 0 255	0 0 255	0 0 255	0 0 255	0 0 255	0 0 255	0 0 255	0 0 255	0 0 255	0 0 255	0 0 255	0 0 255	0 0 255	0 0 255	0 0 255	0 0 255	0 0 255	0 0 255	0 0 255	0 0 255	0 0 255	0 0 255	
0 0 255	0 0 255	0 0 255	0 0 255	0 0 255	0 0 255	0 0 255	0 0 255	0 0 255	0 0 255	0 0 255	0 0 255	0 0 255	0 0 255	0 0 255	0 0 255	0 0 255	0 0 255	0 0 255	0 0 255	0 0 255	0 0 255	0 0 255	0 0 255	0 0 255	0 0 255	0 0 255	0 0 255	0 0 255	0 0 255	0 0 255	0 0 255	0 0 255	0 0 255	0 0 255	0 0 255	0 0 255	0 0 255	0 0 255	0 0 255	0 0 255	0 0 255	0 0 255	0 0 255	0 0 255	0 0 255	0 0 255	0 0 255	0 0 255	0 0 255	0 0 255	0 0 255	0 0 255	0 0 255	0 0 255	0 0 255	0 0 255	0 0 255	0 0 255	0 0 255	0 0 255	0 0 255	0 0 255	0 0 255	0 0 255	0 0 255	0 0 255	0 0 255	0 0 255	0 0 255	0 0 255	0 0 255	0 0 255	0 0 255	0 0 255	0 0 255	0 0 255	0 0 255	0 0 255	0 0 255	0 0 255	0 0 255	0 0 255	0 0 255	0 0 255	13 0 127	18 0 127	22 0 127	25 0 127	28 0 127	30 0 127	33 0 127	35 0 127	37 0 127	39 0 127	40 0 127	42 0 127	43 0 127	45 0 127	46 0 127	47 0 127	49 0 127	75 0 63	77 0 63	78 0 63	80 0 63	81 0 63	82 0 63	84 0 63	85 0 63	86 0 63	87 0 63	88 0 63	89 0 63	90 0 63	91 0 63	91 0 63	92 0 63	92 0 63	93 0 63	93 0 63	94 0 63	94 0 63	94 0 63	95 0 63	95 0 63	95 0 63	95 0 63	95 2 12	95 2 12	95 2 12	94 2 12	94 2 12	95 3 0	93 3 1	93 3 1	92 3 1	92 3 2	91 3 0	91 3 0	90 3 0	89 3 0	88 3 0	87 3 0	86 3 0	85 3 0	84 3 2	82 3 2	81 3 2	9 3 2	9 3 2	9 3 2	9 2 12	6 0 127	6 0 127	6 0 127	6 0 127	6 0 127	6 0 127	6 0 127	6 0 127	6 0 127	6 0 127	6 0 127	6 0 127	6 0 127	6 0 127	6 0 127	6 0 127	6 0 127	0 0 255	0 0 255	0 0 255	0 0 255	0 0 255	0 0 255	0 0 255	0 0 255	0 0 255	0 0 255	0 0 255	0 0 255	0 0 255	0 0 255	0 0 255	0 0 255	0 0 255	0 0 255	0 0 255	0 0 255	0 0 255	0 0 255	0 0 255	0 0 255	0 0 255	0 0 255	0 0 255	0 0 255	0 0 255	0 0 255	0 0 255	0 0 255	0 0 255	0 0 255	0 0 255	0 0 255	0 0 255	0 0 255	0 0 255	0 0 255	0 0 255	0 0 255	0 0 255	0 0 255	0 0 255	0 0 255	0 0 255	0 0 255	0 0 255	0 0 255	0 0 255	0 0 255	0 0 255	0 0 255	0 0 255	0 0 255	0 0 255	0 0 255	0 0 255	0 0 255	0 0 255	0 0 255	0 0 255	0 0 255	0 0 255	0 0 255	0 0 255	0 0 255	0 0 255	0 0 255	0 0 255	0 0 255	0 0 255	0 0 255	0 0 255	0 0 255	0 0 255	0 0 255	0 0 255	0 0 255	0 0 255	0 0 255	0 0 255	0 0 255	0 0 255	0 0 255	
0 0 255	0 0 255	0 0 255	0 0 255	0 0 255	0 0 255	0 0 255	0 0 255	0 0 255	0 0 255	0 0 255	0 0 255	0 0 255	0 0 255	0 0 255	0 0 255	0 0 255	0 0 255	0 0 255	0 0 255	0 0 255	0 0 255	0 0 255	0 0 255	0 0 255	0 0 255	0 0 255	0 0 255	0 0 255	0 0 255	0 0 255	0 0 255	0 0 255	0 0 255	0 0 255	0 0 255	0 0 255	0 0 255	0 0 255	0 0 255	0 0 255	0 0 255	0 0 255	0 0 255	0 0 255	0 0 255	0 0 255	0 0 255	0 0 255	0 0 255	0 0 255	0 0 255	0 0 255	0 0 255	0 0 255	0 0 255	0 0 255	0 0 255	0 0 255	0 0 255	0 0 255	0 0 255	0 0 255	0 0 255	0 0 255	0 0 255	0 0 255	0 0 255	0 0 255	0 0 255	0 0 255	0 0 255	0 0 255	0 0 255	0 0 255	0 0 255	0 0 255	0 0 255	0 0 255	0 0 255	0 0 255	0 0 255	0 0 255	0 0 255	9 0 127	15 0 127	20 0 127	23 0 127	26 0 127	29 0 127	31 0 127	33 0 127	35 0 127	37 0 127	39 0 127	41 0 127	42 0 127	44 0 127	45 0 127	47 0 127	48 0 127	74 0 63	76 0 63	77 0 63	79 0 63	80 0 63	82 0 63	83 0 63	84 0 63	85 0 63	86 0 63	87 0 63	88 0 63	89 0 63	90 0 63	91 0 63	91 0 63	92 0 63	93 0 63	93 0 63	94 0 63	94 0 63	94 0 63	95 0 63	95 0 63	95 0 63	95 0 63	95 0 63	95 0 63	95 2 12	95 2 12	95 2 12	94 2 12	94 3 0	94 3 0	93 3 0	93 3 1	92 3 1	91 3 2	91 3 2	90 3 0	89 3 0	88 3 0	87 3 0	86 3 0	85 3 2	84 3 2	83 3 2	82 3 2	80 3 2	9 3 2	9 3 2	9 2 12	9 2 12	6 0 127	6 0 127	6 0 127	6 0 127	6 0 127	6 0 127	6 0 127	6 0 127	6 0 127	6 0 127	6 0 127	6 0 127	6 0 127	6 0 127	6 0 127	6 0 127	6 0 127	0 0 255	0 0 255	0 0 255	0 0 255	0 0 255	0 0 255	0 0 255	0 0 255	0 0 255	0 0 255	0 0 255	0 0 255	0 0 255	0 0 255	0 0 255	0 0 255	0 0 255	0 0 255	0 0 255	0 0 255	0 0 255	0 0 255	0 0 255	0 0 255	0 0 255	0 0 255	0 0 255	0 0 255	0 0 255	0 0 255	0 0 255	0 0 255	0 0 255	0 0 255	0 0 255	0 0 255	0 0 255	0 0 255	0 0 255	0 0 255	0 0 255	0 0 255	0 0 255	0 0 255	0 0 255	0 0 255	0 0 255	0 0 255	0 0 255	0 0 255	0 0 255	0 0 255	0 0 255	0 0 255	0 0 255	0 0 255	0 0 255	0 0 255	0 0 255	0 0 255	0 0 255	0 0 255	0 0 255	0 0 255	0 0 255	0 0 255	0 0 255	0 0 255	0 0 255	0 0 255	0 0 255	0 0 255	0 0 255	0 0 255	0 0 255	0 0 255	0 0 255	0 0 255	0 0 255	0 0 255	0 0 255	0 0 255	0 0 255	0 0 255	0 0 255	
0 0 255	0 0 255	0 0 255	0 0 255	0 0 255	0 0 255	0 0 255	0 0 255	0 0 255	0 0 255	0 0 255	0 0 255	0 0 255	0 0 255	0 0 255	0 0 255	0 0 255	0 0 255	0 0 255	0 0 255	0 0 255	0 0 255	0 0 255	0 0 255	0 0 255	0 0 255	0 0 255	0 0 255	0 0 255	0 0 255	0 0 255	0 0 255	0 0 255	0 0 255	0 0 255	0 0 255	0 0 255	0 0 255	0 0 255	0 0 255	0 0 255	0 0 255	0 0 255	0 0 255	0 0 255	0 0 255	0 0 255	0 0 255	0 0 255	0 0 255	0 0 255	0 0 255	0 0 255	0 0 255	0 0 255	0 0 255	0 0 255	0 0 255	0 0 255	0 0 255	0 0 255	0 0 255	0 0 255	0 0 255	0 0 255	0 0 255	0 0 255	0 0 255	0 0 255	0 0 255	0 0 255	0 0 255	0 0 255	0 0 255	0 0 255	0 0 255	0 0 255	0 0 255	0 0 255	0 0 255	0 0 255	0 0 255	0 0 255	0 0 255	12 0 127	17 0 127	21 0 127	24 0 127	27 0 127	30 0 127	32 0 127	34 0 127	36 0 127	38 0 127	40 0 127	41 0 127	43 0 127	44 0 127	46 0 127	47 0 127	48 0 127	74 0 63	76 0 63	78 0 63	79 0 63	80 0 63	82 0 63	83 0 63	84 0 63	85 0 63	87 0 63	88 0 63	88 0 63	89 0 63	90 0 63	91 0 63	92 0 63	92 0 63	93 0 63	93 0 63	94 0 63	94 0 63	94 0 63	95 0 63	95 0 63	95 0 63	95 0 63	95 0 63	95 0 63	95 0 63	95 2 12	95 2 12	94 2 12	94 2 12	94 3 0	93 3 0	93 3 0	92 3 0	92 3 1	91 3 1	90 3 2	89 3 2	88 3 2	88 3 2	87 3 2	85 3 2	84 3 2	83 3 2	82 3 2	80 3 2	79 3 2	78 3 2	9 2 12	9 2 12	6 0 127	6 0 127	6 0 127	6 0 127	6 0 127	6 0 127	6 0 127	6 0 127	6 0 127	6 0 127	6 0 127	6 0 127	6 0 127	6 0 127	6 0 127	6 0 127	6 0 127	0 0 255	0 0 255	0 0 255	0 0 255	0 0 255	0 0 255	0 0 255	0 0 255	0 0 255	0 0 255	0 0 255	0 0 255	0 0 255	0 0 255	0 0 255	0 0 255	0 0 255	0 0 255	0 0 255	0 0 255	0 0 255	0 0 255	0 0 255	0 0 255	0 0 255	0 0 255	0 0 255	0 0 255	0 0 255	0 0 255	0 0 255	0 0 255	0 0 255	0 0 255	0 0 255	0 0 255	0 0 255	0 0 255	0 0 255	0 0 255	0 0 255	0 0 255	0 0 255	0 0 255	0 0 255	0 0 255	0 0 255	0 0 255	0 0 255	0 0 255	0 0 255	0 0 255	0 0 255	0 0 255	0 0 255	0 0 255	0 0 255	0 0 255	0 0 255	0 0 255	0 0 255	0 0 255	0 0 255	0 0 255	0 0 255	0 0 255	0 0 255	0 0 255	0 0 255	0 0 255	0 0 255	0 0 255	0 0 255	0 0 255	0 0 255	0 0 255	0 0 255	0 0 255	0 0 255	0 0 255	0 0 255	0 0 255	0 0 255	0 0 255	0 0 255	
0 0 255	0 0 255	0 0 255	0 0 255	0 0 255	0 0 255	0 0 255	0 0 255	0 0 255	0 0 255	0 0 255	0 0 255	0 0 255	0 0 255	0 0 255	0 0 255	0 0 255	0 0 255	0 0 255	0 0 255	0 0 255	0 0 255	0 0 255	0 0 255	0 0 255	0 0 255	0 0 255	0 0 255	0 0 255	0 0 255	0 0 255	0 0 255	0 0 255	0 0 255	0 0 255	0 0 255	0 0 255	0 0 255	0 0 255	0 0 255	0 0 255	0 0 255	0 0 255	0 0 255	0 0 255	0 0 255	0 0 255	0 0 255	0 0 255	0 0 255	0 0 255	0 0 255	0 0 255	0 0 255	0 0 255	0 0 255	0 0 255	0 0 255	0 0 255	0 0 255	0 0 255	0 0 255	0 0 255	0 0 255	0 0 255	0 0 255	0 0 255	0 0 255	0 0 255	0 0 255	0 0 255	0 0 255	0 0 255	0 0 255	0 0 255	0 0 255	0 0 255	0 0 255	0 0 255	0 0 255	0 0 255	0 0 255	0 0 255	8 0 127	15 0 127	19 0 127	22 0 127	25 0 127	28 0 127	31 0 127	33 0 127	35 0 127	37 0 127	38 0 127	40 0 127	42 0 127	43 0 127	45 0 127	46 0 127	47 0 127	73 0 63	75 0 63	76 0 63	78 0 63	79 0 63	81 0 63	82 0 63	83 0 63	84 0 63	86 0 63	87 0 63	88 0 63	89 0 63	89 0 63	90 0 63	91 0 63	92 0 63	92 0 63	93 0 63	93 0 63	94 0 63	94 0 63	94 0 63	95 0 63	95 0 63	95 0 63	95 0 63	95 0 63	95 0 63	95 0 63	95 2 12	95 2 12	94 2 12	94 2 12	94 2 12	93 2 12	93 3 0	92 3 0	92 3 0	91 3 0	90 3 1	89 3 1	89 3 2	88 3 2	87 3 2	86 3 2	84 3 2	83 3 2	82 3 2	81 3 2	79 3 2	78 2 12	76 2 12	9 2 12	9 2 12	6 0 127	6 0 127	6 0 127	6 0 127	6 0 127	6 0 127	6 0 127	6 0 127	6 0 127	6 0 127	6 0 127	6 0 127	6 0 127	6 0 127	6 0 127	6 0 127	6 0 127	0 0 255	0 0 255	0 0 255	0 0 255	0 0 255	0 0 255	0 0 255	0 0 255	0 0 255	0 0 255	0 0 255	0 0 255	0 0 255	0 0 255	0 0 255	0 0 255	0 0 255	0 0 255	0 0 255	0 0 255	0 0 255	0 0 255	0 0 255	0 0 255	0 0 255	0 0 255	0 0 255	0 0 255	0 0 255	0 0 255	0 0 255	0 0 255	0 0 255	0 0 255	0 0 255	0 0 255	0 0 255	0 0 255	0 0 255	0 0 255	0 0 255	0 0 255	0 0 255	0 0 255	0 0 255	0 0 255	0 0 255	0 0 255	0 0 255	0 0 255	0 0 255	0 0 255	0 0 255	0 0 255	0 0 255	0 0 255	0 0 255	0 0 255	0 0 255	0 0 255	0 0 255	0 0 255	0 0 255	0 0 255	0 0 255	0 0 255	0 0 255	0 0 255	0 0 255	0 0 255	0 0 255	0 0 255	0 0 255	0 0 255	0 0 255	0 0 255	0 0 255	0 0 255	0 0 255	0 0 255	0 0 255	0 0 255	0 0 255	0 0 255	
0 0 255	0 0 255	0 0 255	0 0 255	0 0 255	0 0 255	0 0 255	0 0 255	0 0 255	0 0 255	0 0 255	0 0 255	0 0 255	0 0 255	0 0 255	0 0 255	0 0 255	0 0 255	0 0 255	0 0 255	0 0 255	0 0 255	0 0 255	0 0 255	0 0 255	0 0 255	0 0 255	0 0 255	0 0 255	0 0 255	0 0 255	0 0 255	0 0 255	0 0 255	0 0 255	0 0 255	0 0 255	0 0 255	0 0 255	0 0 255	0 0 255	0 0 255	0 0 255	0 0 255	0 0 255	0 0 255	0 0 255	0 0 255	0 0 255	0 0 255	0 0 255	0 0 255	0 0 255	0 0 255	0 0 255	0 0 255	0 0 255	0 0 255	0 0 255	0 0 255	0 0 255	0 0 255	0 0 255	0 0 255	0 0 255	0 0 255	0 0 255	0 0 255	0 0 255	0 0 255	0 0 255	0 0 255	0 0 255	0 0 255	0 0 255	0 0 255	0 0 255	0 0 255	0 0 255	0 0 255	0 0 255	0 0 255	0 0 255	11 0 127	17 0 127	20 0 127	24 0 127	26 0 127	29 0 127	31 0 127	33 0 127	35 0 127	37 0 127	39 0 127	41 0 127	42 0 127	44 0 127	45 0 127	46 0 127	71 0 63	73 0 63	75 0 63	77 0 63	78 0 63	80 0 63	81 0 63	82 0 63	83 0 63	85 0 63	86 0 63	87 0 63	88 0 63	89 0 63	89 0 63	90 0 63	91 0 63	92 0 63	92 0 63	93 0 63	93 0 63	94 0 63	94 0 63	94 0 63	95 0 63	95 0 63	95 0 63	95 0 63	95 0 63	95 0 63	95 0 63	95 0 63	95 2 12	94 2 12	94 2 12	94 2 12	93 2 12	93 2 12	92 3 0	92 3 0	91 3 0	90 3 0	90 3 1	89 3 1	88 3 1	87 3 2	86 3 2	85 3 2	83 3 2	82 3 2	81 3 2	80 2 12	78 2 12	77 2 12	75 2 12	73 2 12	9 2 12	6 0 127	6 0 127	6 0 127	6 0 127	6 0 127	6 0 127	6 0 127	6 0 127	6 0 127	6 0 127	6 0 127	6 0 127	6 0 127	6 0 127	6 0 127	6 0 127	0 0 255	0 0 255	0 0 255	0 0 255	0 0 255	0 0 255	0 0 255	0 0 255	0 0 255	0 0 255	0 0 255	0 0 255	0 0 255	0 0 255	0 0 255	0 0 255	0 0 255	0 0 255	0 0 255	0 0 255	0 0 255	0 0 255	0 0 255	0 0 255	0 0 255	0 0 255	0 0 255	0 0 255	0 0 255	0 0 255	0 0 255	0 0 255	0 0 255	0 0 255	0 0 255	0 0 255	0 0 255	0 0 255	0 0 255	0 0 255	0 0 255	0 0 255	0 0 255	0 0 255	0 0 255	0 0 255	0 0 255	0 0 255	0 0 255	0 0 255	0 0 255	0 0 255	0 0 255	0 0 255	0 0 255	0 0 255	0 0 255	0 0 255	0 0 255	0 0 255	0 0 255	0 0 255	0 0 255	0 0 255	0 0 255	0 0 255	0 0 255	0 0 255	0 0 255	0 0 255	0 0 255	0 0 255	0 0 255	0 0 255	0 0 255	0 0 255	0 0 255	0 0 255	0 0 255	0 0 255	0 0 255	0 0 255	0 0 255	0 0 255	
0 0 255	0 0 255	0 0 255	0 0 255	0 0 255	0 0 255	0 0 255	0 0 255	0 0 255	0 0 255	0 0 255	0 0 255	0 0 255	0 0 255	0 0 255	0 0 255	0 0 255	0 0 255	0 0 255	0 0 255	0 0 255	0 0 255	0 0 255	0 0 255	0 0 255	0 0 255	0 0 255	0 0 255	0 0 255	0 0 255	0 0 255	0 0 255	0 0 255	0 0 255	0 0 255	0 0 255	0 0 255	0 0 255	0 0 255	0 0 255	0 0 255	0 0 255	0 0 255	0 0 255	0 0 255	0 0 255	0 0 255	0 0 255	0 0 255	0 0 255	0 0 255	0 0 255	0 0 255	0 0 255	0 0 255	0 0 255	0 0 255	0 0 255	0 0 255	0 0 255	0 0 255	0 0 255	0 0 255	0 0 255	0 0 255	0 0 255	0 0 255	0 0 255	0 0 255	0 0 255	0 0 255	0 0 255	0 0 255	0 0 255	0 0 255	0 0 255	0 0 255	0 0 255	0 0 255	0 0 255	0 0 255	0 0 255	7 0 127	14 0 127	18 0 127	22 0 127	25 0 127	27 0 127	30 0 127	32 0 127	34 0 127	36 0 127	38 0 127	39 0 127	41 0 127	42 0 127	44 0 127	45 0 127	46 0 127	72 0 63	74 0 63	75 0 63	77 0 63	78 0 63	80 0 63	81 0 63	82 0 63	84 0 63	85 0 63	86 0 63	87 0 63	88 0 63	89 0 63	89 0 63	90 0 63	91 0 63	92 0 63	92 0 63	93 0 63	93 0 63	94 0 63	94 0 63	94 0 63	95 0 63	111 0 31	111 0 31	111 0 31	111 0 31	111 0 31	111 0 31	111 0 31	95 0 63	95 2 6	94 2 12	94 2 12	93 2 12	93 2 12	92 2 12	92 2 12	91 3 0	90 3 0	90 3 0	89 3 0	88 3 1	87 3 1	86 3 1	85 3 1	84 3 1	82 2 12	81 2 12	80 2 12	78 2 12	77 2 12	75 2 12	74 2 12	72 2 12	6 0 127	6 0 127	6 0 127	6 0 127	6 0 127	6 0 127	6 0 127	6 0 127	6 0 127	6 0 127	6 0 127	6 0 127	6 0 127	6 0 127	6 0 127	6 0 127	6 0 127	0 0 255	0 0 255	0 0 255	0 0 255	0 0 255	0 0 255	0 0 255	0 0 255	0 0 255	0 0 255	0 0 255	0 0 255	0 0 255	0 0 255	0 0 255	0 0 255	0 0 255	0 0 255	0 0 255	0 0 255	0 0 255	0 0 255	0 0 255	0 0 255	0 0 255	0 0 255	0 0 255	0 0 255	0 0 255	0 0 255	0 0 255	0 0 255	0 0 255	0 0 255	0 0 255	0 0 255	0 0 255	0 0 255	0 0 255	0 0 255	0 0 255	0 0 255	0 0 255	0 0 255	0 0 255	0 0 255	0 0 255	0 0 255	0 0 255	0 0 255	0 0 255	0 0 255	0 0 255	0 0 255	0 0 255	0 0 255	0 0 255	0 0 255	0 0 255	0 0 255	0 0 255	0 0 255	0 0 255	0 0 255	0 0 255	0 0 255	0 0 255	0 0 255	0 0 255	0 0 255	0 0 255	0 0 255	0 0 255	0 0 255	0 0 255	0 0 255	0 0 255	0 0 255	0 0 255	0 0 255	0 0 255	0 0 255	0 0 255	
0 0 255	0 0 255	0 0 255	0 0 255	0 0 255	0 0 255	0 0 255	0 0 255	0 0 255	0 0 255	0 0 255	0 0 255	0 0 255	0 0 255	0 0 255	0 0 255	0 0 255	0 0 255	0 0 255	0 0 255	0 0 255	0 0 255	0 0 255	0 0 255	0 0 255	0 0 255	0 0 255	0 0 255	0 0 255	0 0 255	0 0 255	0 0 255	0 0 255	0 0 255	0 0 255	0 0 255	0 0 255	0 0 255	0 0 255	0 0 255	0 0 255	0 0 255	0 0 255	0 0 255	0 0 255	0 0 255	0 0 255	0 0 255	0 0 255	0 0 255	0 0 255	0 0 255	0 0 255	0 0 255	0 0 255	0 0 255	0 0 255	0 0 255	0 0 255	0 0 255	0 0 255	0 0 255	0 0 255	0 0 255	0 0 255	0 0 255	0 0 255	0 0 255	0 0 255	0 0 255	0 0 255	0 0 255	0 0 255	0 0 255	0 0 255	0 0 255	0 0 255	0 0 255	0 0 255	0 0 255	0 0 255	0 0 255	10 0 127	15 0 127	19 0 127	23 0 127	25 0 127	28 0 127	30 0 127	32 0 127	34 0 127	36 0 127	38 0 127	40 0 127	41 0 127	43 0 127	44 0 127	45 0 127	70 0 63	72 0 63	74 0 63	75 0 63	77 0 63	78 0 63	80 0 63	81 0 63	82 0 63	84 0 63	85 0 63	86 0 63	87 0 63	88 0 63	89 0 63	89 0 63	90 0 63	91 0 63	92 0 63	92 0 63	93 0 63	93 0 63	94 0 63	110 0 31	110 0 31	110 0 31	110 0 31	111 0 31	111 0 31	111 0 31	111 0 31	111 0 31	110 0 31	110 0 31	110 0 31	110 0 31	94 2 6	93 2 6	93 2 12	92 2 12	92 2 12	91 2 12	90 2 12	89 2 12	89 2 12	88 2 12	87 2 12	86 2 12	85 2 12	84 2 12	82 2 12	81 2 12	80 2 12	78 2 12	77 2 12	75 2 12	74 2 12	72 2 12	70 2 12	45 0 127	6 0 127	6 0 127	6 0 127	6 0 127	6 0 127	6 0 127	6 0 127	6 0 127	6 0 127	6 0 127	6 0 127	6 0 127	6 0 127	6 0 127	6 0 127	0 0 255	0 0 255	0 0 255	0 0 255	0 0 255	0 0 255	0 0 255	0 0 255	0 0 255	0 0 255	0 0 255	0 0 255	0 0 255	0 0 255	0 0 255	0 0 255	0 0 255	0 0 255	0 0 255	0 0 255	0 0 255	0 0 255	0 0 255	0 0 255	0 0 255	0 0 255	0 0 255	0 0 255	0 0 255	0 0 255	0 0 255	0 0 255	0 0 255	0 0 255	0 0 255	0 0 255	0 0 255	0 0 255	0 0 255	0 0 255	0 0 255	0 0 255	0 0 255	0 0 255	0 0 255	0 0 255	0 0 255	0 0 255	0 0 255	0 0 255	0 0 255	0 0 255	0 0 255	0 0 255	0 0 255	0 0 255	0 0 255	0 0 255	0 0 255	0 0 255	0 0 255	0 0 255	0 0 255	0 0 255	0 0 255	0 0 255	0 0 255	0 0 255	0 0 255	0 0 255	0 0 255	0 0 255	0 0 255	0 0 255	0 0 255	0 0 255	0 0 255	0 0 255	0 0 255	0 0 255	0 0 255	0 0 255	0 0 255	
0 0 255	0 0 255	0 0 255	0 0 255	0 0 255	0 0 255	0 0 255	0 0 255	0 0 255	0 0 255	0 0 255	0 0 255	0 0 255	0 0 255	0 0 255	0 0 255	0 0 255	0 0 255	0 0 255	0 0 255	0 0 255	0 0 255	0 0 255	0 0 255	0 0 255	0 0 255	0 0 255	0 0 255	0 0 255	0 0 255	0 0 255	0 0 255	0 0 255	0 0 255	0 0 255	0 0 255	0 0 255	0 0 255	0 0 255	0 0 255	0 0 255	0 0 255	0 0 255	0 0 255	0 0 255	0 0 255	0 0 255	0 0 255	0 0 255	0 0 255	0 0 255	0 0 255	0 0 255	0 0 255	0 0 255	0 0 255	0 0 255	0 0 255	0 0 255	0 0 255	0 0 255	0 0 255	0 0 255	0 0 255	0 0 255	0 0 255	0 0 255	0 0 255	0 0 255	0 0 255	0 0 255	0 0 255	0 0 255	0 0 255	0 0 255	0 0 255	0 0 255	0 0 255	0 0 255	0 0 255	0 0 255	5 0 127	12 0 127	17 0 127	20 0 127	23 0 127	26 0 127	29 0 127	31 0 127	33 0 127	35 0 127	37 0 127	38 0 127	40 0 127	41 0 127	43 0 127	44 0 127	69 0 63	70 0 63	72 0 63	74 0 63	75 0 63	77 0 63	78 0 63	80 0 63	81 0 63	82 0 63	84 0 63	85 0 63	86 0 63	87 0 63	88 0 63	88 0 63	89 0 63	90 0 63	91 0 63	91 0 63	92 0 63	92 0 63	109 0 31	109 0 31	109 0 31	110 0 31	110 0 31	110 0 31	110 0 31	111 0 31	111 0 31	111 0 31	110 0 31	110 2 6	110 2 6	110 0 31	109 0 31	109 0 31	109 0 31	93 2 6	92 2 12	91 2 12	91 2 12	90 2 12	89 2 12	88 2 12	88 2 12	87 2 12	86 2 12	85 2 12	84 2 12	82 2 12	81 2 12	80 2 12	78 2 12	77 2 12	75 2 12	74 2 12	72 2 12	70 0 63	69 0 63	44 0 127	43 0 127	6 0 127	6 0 127	6 0 127	6 0 127	6 0 127	6 0 127	6 0 127	6 0 127	6 0 127	6 0 127	6 0 127	6 0 127	6 0 127	6 0 127	0 0 255	0 0 255	0 0 255	0 0 255	0 0 255	0 0 255	0 0 255	0 0 255	0 0 255	0 0 255	0 0 255	0 0 255	0 0 255	0 0 255	0 0 255	0 0 255	0 0 255	0 0 255	0 0 255	0 0 255	0 0 255	0 0 255	0 0 255	0 0 255	0 0 255	0 0 255	0 0 255	0 0 255	0 0 255	0 0 255	0 0 255	0 0 255	0 0 255	0 0 255	0 0 255	0 0 255	0 0 255	0 0 255	0 0 255	0 0 255	0 0 255	0 0 255	0 0 255	0 0 255	0 0 255	0 0 255	0 0 255	0 0 255	0 0 255	0 0 255	0 0 255	0 0 255	0 0 255	0 0 255	0 0 255	0 0 255	0 0 255	0 0 255	0 0 255	0 0 255	0 0 255	0 0 255	0 0 255	0 0 255	0 0 255	0 0 255	0 0 255	0 0 255	0 0 255	0 0 255	0 0 255	0 0 255	0 0 255	0 0 255	0 0 255	0 0 255	0 0 255	0 0 255	0 0 255	0 0 255	0 0 255	0 0 255	
0 0 255	0 0 255	0 0 255	0 0 255	0 0 255	0 0 255	0 0 255	0 0 255	0 0 255	0 0 255	0 0 255	0 0 255	0 0 255	0 0 255	0 0 255	0 0 255	0 0 255	0 0 255	0 0 255	0 0 255	0 0 255	0 0 255	0 0 255	0 0 255	0 0 255	0 0 255	0 0 255	0 0 255	0 0 255	0 0 255	0 0 255	0 0 255	0 0 255	0 0 255	0 0 255	0 0 255	0 0 255	0 0 255	0 0 255	0 0 255	0 0 255	0 0 255	0 0 255	0 0 255	0 0 255	0 0 255	0 0 255	0 0 255	0 0 255	0 0 255	0 0 255	0 0 255	0 0 255	0 0 255	0 0 255	0 0 255	0 0 255	0 0 255	0 0 255	0 0 255	0 0 255	0 0 255	0 0 255	0 0 255	0 0 255	0 0 255	0 0 255	0 0 255	0 0 255	0 0 255	0 0 255	0 0 255	0 0 255	0 0 255	0 0 255	0 0 255	0 0 255	0 0 255	0 0 255	0 0 255	0 0 255	8 0 127	14 0 127	18 0 127	21 0 127	24 0 127	27 0 127	29 0 127	31 0 127	33 0 127	35 0 127	37 0 127	39 0 127	40 0 127	42 0 127	43 0 127	44 0 127	69 0 63	71 0 63	72 0 63	74 0 63	76 0 63	77 0 63	78 0 63	80 0 63	81 0 63	82 0 63	83 0 63	85 0 63	86 0 63	87 0 63	87 0 63	88 0 63	89 0 63	90 0 63	91 0 63	91 0 63	107 0 31	108 0 31	108 0 31	109 0 31	109 0 31	109 0 31	110 0 31	110 0 31	110 0 31	110 0 31	110 3 6	110 0 6	110 1 6	110 1 6	110 1 6	109 1 6	109 1 6	109 0 6	108 0 31	108 0 31	107 0 31	91 2 12	91 2 12	90 2 12	89 2 12	88 2 12	87 2 12	87 2 12	86 2 12	85 2 12	83 2 12	82 2 12	81 2 12	80 2 12	78 2 12	77 2 12	76 2 12	74 2 12	72 0 63	71 0 63	69 0 63	44 0 127	43 0 127	42 0 127	6 0 127	6 0 127	6 0 127	6 0 127	6 0 127	6 0 127	6 0 127	6 0 127	6 0 127	6 0 127	6 0 127	6 0 127	6 0 127	0 0 255	0 0 255	0 0 255	0 0 255	0 0 255	0 0 255	0 0 255	0 0 255	0 0 255	0 0 255	0 0 255	0 0 255	0 0 255	0 0 255	0 0 255	0 0 255	0 0 255	0 0 255	0 0 255	0 0 255	0 0 255	0 0 255	0 0 255	0 0 255	0 0 255	0 0 255	0 0 255	0 0 255	0 0 255	0 0 255	0 0 255	0 0 255	0 0 255	0 0 255	0 0 255	0 0 255	0 0 255	0 0 255	0 0 255	0 0 255	0 0 255	0 0 255	0 0 255	0 0 255	0 0 255	0 0 255	0 0 255	0 0 255	0 0 255	0 0 255	0 0 255	0 0 255	0 0 255	0 0 255	0 0 255	0 0 255	0 0 255	0 0 255	0 0 255	0 0 255	0 0 255	0 0 255	0 0 255	0 0 255	0 0 255	0 0 255	0 0 255	0 0 255	0 0 255	0 0 255	0 0 255	0 0 255	0 0 255	0 0 255	0 0 255	0 0 255	0 0 255	0 0 255	0 0 255	0 0 255	0 0 255	0 0 255	
0 0 255	0 0 255	0 0 255	0 0 255	0 0 255	0 0 255	0 0 255	0 0 255	0 0 255	0 0 255	0 0 255	0 0 255	0 0 255	0 0 255	0 0 255	0 0 255	0 0 255	0 0 255	0 0 255	0 0 255	0 0 255	0 0 255	0 0 255	0 0 255	0 0 255	0 0 255	0 0 255	0 0 255	0 0 255	0 0 255	0 0 255	0 0 255	0 0 255	0 0 255	0 0 255	0 0 255	0 0 255	0 0 255	0 0 255	0 0 255	0 0 255	0 0 255	0 0 255	0 0 255	0 0 255	0 0 255	0 0 255	0 0 255	0 0 255	0 0 255	0 0 255	0 0 255	0 0 255	0 0 255	0 0 255	0 0 255	0 0 255	0 0 255	0 0 255	0 0 255	0 0 255	0 0 255	0 0 255	0 0 255	0 0 255	0 0 255	0 0 255	0 0 255	0 0 255	0 0 255	0 0 255	0 0 255	0 0 255	0 0 255	0 0 255	0 0 255	0 0 255	0 0 255	0 0 255	0 0 255	1 0 127	10 0 127	15 0 127	19 0 127	22 0 127	25 0 127	27 0 127	30 0 127	32 0 127	34 0 127	35 0 127	37 0 127	39 0 127	40 0 127	42 0 127	43 0 127	67 0 63	69 0 63	71 0 63	72 0 63	74 0 63	76 0 63	77 0 63	78 0 63	80 0 63	81 0 63	82 0 63	83 0 63	84 0 63	85 0 63	86 0 63	87 0 63	88 0 63	89 0 63	90 0 63	90 0 63	106 0 31	107 0 31	107 0 31	108 0 31	108 0 31	109 0 31	109 0 31	109 0 31	110 0 31	110 0 31	110 0 31	110 1 6	110 1 6	110 1 6	110 1 1	109 1 1	109 1 1	109 1 6	108 1 6	108 1 6	107 1 6	107 0 31	106 0 31	91 2 6	90 2 12	89 2 12	88 2 12	87 2 12	86 2 12	85 2 12	84 2 12	83 2 12	82 2 12	81 2 12	80 2 12	78 2 12	77 2 12	76 0 63	74 0 63	72 0 63	71 0 63	69 0 63	67 0 63	43 0 127	42 0 127	40 0 127	39 0 127	6 0 127	6 0 127	6 0 127	6 0 127	6 0 127	6 0 127	6 0 127	6 0 127	6 0 127	6 0 127	6 0 127	6 0 127	0 0 255	0 0 255	0 0 255	0 0 255	0 0 255	0 0 255	0 0 255	0 0 255	0 0 255	0 0 255	0 0 255	0 0 255	0 0 255	0 0 255	0 0 255	0 0 255	0 0 255	0 0 255	0 0 255	0 0 255	0 0 255	0 0 255	0 0 255	0 0 255	0 0 255	0 0 255	0 0 255	0 0 255	0 0 255	0 0 255	0 0 255	0 0 255	0 0 255	0 0 255	0 0 255	0 0 255	0 0 255	0 0 255	0 0 255	0 0 255	0 0 255	0 0 255	0 0 255	0 0 255	0 0 255	0 0 255	0 0 255	0 0 255	0 0 255	0 0 255	0 0 255	0 0 255	0 0 255	0 0 255	0 0 255	0 0 255	0 0 255	0 0 255	0 0 255	0 0 255	0 0 255	0 0 255	0 0 255	0 0 255	0 0 255	0 0 255	0 0 255	0 0 255	0 0 255	0 0 255	0 0 255	0 0 255	0 0 255	0 0 255	0 0 255	0 0 255	0 0 255	0 0 255	0 0 255	0 0 255	0 0 255	
0 0 255	0 0 255	0 0 255	0 0 255	0 0 255	0 0 255	0 0 255	0 0 255	0 0 255	0 0 255	0 0 255	0 0 255	0 0 255	0 0 255	0 0 255	0 0 255	0 0 255	0 0 255	0 0 255	0 0 255	0 0 255	0 0 255	0 0 255	0 0 255	0 0 255	0 0 255	0 0 255	0 0 255	0 0 255	0 0 255	0 0 255	0 0 255	0 0 255	0 0 255	0 0 255	0 0 255	0 0 255	0 0 255	0 0 255	0 0 255	0 0 255	0 0 255	0 0 255	0 0 255	0 0 255	0 0 255	0 0 255	0 0 255	0 0 255	0 0 255	0 0 255	0 0 255	0 0 255	0 0 255	0 0 255	0 0 255	0 0 255	0 0 255	0 0 255	0 0 255	0 0 255	0 0 255	0 0 255	0 0 255	0 0 255	0 0 255	0 0 255	0 0 255	0 0 255	0 0 255	0 0 255	0 0 255	0 0 255	0 0 255	0 0 255	0 0 255	0 0 255	0 0 255	0 0 255	0 0 255	5 0 127	12 0 127	16 0 127	20 0 127	23 0 127	25 0 127	28 0 127	30 0 127	32 0 127	34 0 127	36 0 127	37 0 127	39 0 127	40 0 127	42 0 127	43 0 127	67 0 63	69 0 63	71 0 63	72 0 63	74 0 63	75 0 63	77 0 63	78 0 63	80 0 63	81 0 63	82 0 63	83 0 63	84 0 63	85 0 63	86 0 63	87 0 63	88 0 63	89 0 63	89 0 63	105 0 31	106 0 31	107 0 31	107 0 31	108 0 31	108 0 31	108 0 31	109 0 31	109 0 31	109 0 31	109 0 31	110 1 6	110 1 6	110 1 6	109 1 1	109 1 1	109 1 1	109 1 1	108 1 1	108 1 1	108 1 6	107 1 6	107 0 6	106 0 31	105 0 31	89 0 63	89 0 63	88 0 63	87 2 12	86 2 12	85 2 12	84 2 12	83 2 12	82 2 12	81 0 63	80 0 63	78 0 63	77 0 63	75 0 63	74 0 63	72 0 63	71 0 63	69 0 63	67 0 63	43 0 127	42 0 127	40 0 127	39 0 127	37 0 127	6 0 127	6 0 127	6 0 127	6 0 127	6 0 127	6 0 127	6 0 127	6 0 127	6 0 127	6 0 127	6 0 127	0 0 255	0 0 255	0 0 255	0 0 255	0 0 255	0 0 255	0 0 255	0 0 255	0 0 255	0 0 255	0 0 255	0 0 255	0 0 255	0 0 255	0 0 255	0 0 255	0 0 255	0 0 255	0 0 255	0 0 255	0 0 255	0 0 255	0 0 255	0 0 255	0 0 255	0 0 255	0 0 255	0 0 255	0 0 255	0 0 255	0 0 255	0 0 255	0 0 255	0 0 255	0 0 255	0 0 255	0 0 255	0 0 255	0 0 255	0 0 255	0 0 255	0 0 255	0 0 255	0 0 255	0 0 255	0 0 255	0 0 255	0 0 255	0 0 255	0 0 255	0 0 255	0 0 255	0 0 255	0 0 255	0 0 255	0 0 255	0 0 255	0 0 255	0 0 255	0 0 255	0 0 255	0 0 255	0 0 255	0 0 255	0 0 255	0 0 255	0 0 255	0 0 255	0 0 255	0 0 255	0 0 255	0 0 255	0 0 255	0 0 255	0 0 255	0 0 255	0 0 255	0 0 255	0 0 255	0 0 255	0 0 255	
0 0 255	0 0 255	0 0 255	0 0 255	0 0 255	0 0 255	0 0 255	0 0 255	0 0 255	0 0 255	0 0 255	0 0 255	0 0 255	0 0 255	0 0 255	0 0 255	0 0 255	0 0 255	0 0 255	0 0 255	0 0 255	0 0 255	0 0 255	0 0 255	0 0 255	0 0 255	0 0 255	0 0 255	0 0 255	0 0 255	0 0 255	0 0 255	0 0 255	0 0 255	0 0 255	0 0 255	0 0 255	0 0 255	0 0 255	0 0 255	0 0 255	0 0 255	0 0 255	0 0 255	0 0 255	0 0 255	0 0 255	0 0 255	0 0 255	0 0 255	0 0 255	0 0 255	0 0 255	0 0 255	0 0 255	0 0 255	0 0 255	0 0 255	0 0 255	0 0 255	0 0 255	0 0 255	0 0 255	0 0 255	0 0 255	0 0 255	0 0 255	0 0 255	0 0 255	0 0 255	0 0 255	0 0 255	0 0 255	0 0 255	0 0 255	0 0 255	0 0 255	0 0 255	0 0 255	0 0 255	8 0 127	13 0 127	17 0 127	20 0 127	23 0 127	26 0 127	28 0 127	30 0 127	32 0 127	34 0 127	36 0 127	37 0 127	39 0 127	41 0 127	42 0 127	65 0 63	67 0 63	69 0 63	71 0 63	72 0 63	74 0 63	75 0 63	77 0 63	78 0 63	79 0 63	81 0 63	82 0 63	83 0 63	84 0 63	85 0 63	86 0 63	87 0 63	88 0 63	88 0 63	104 0 31	105 0 31	106 0 31	106 0 31	107 0 31	107 0 31	108 0 31	108 0 31	108 0 31	109 0 31	109 0 31	109 0 31	109 1 6	109 1 6	109 1 6	109 1 1	109 1 1	109 1 0	108 1 0	108 1 1	108 1 1	107 1 1	107 1 6	106 1 6	106 1 6	105 0 31	104 0 31	88 0 63	88 0 63	87 0 63	86 0 63	85 0 63	84 0 63	83 0 63	82 0 63	81 0 63	79 0 63	78 0 63	77 0 63	75 0 63	74 0 63	72 0 63	71 0 63	69 0 63	67 0 63	65 0 63	42 0 127	41 0 127	39 0 127	37 0 127	36 0 127	34 0 127	6 0 127	6 0 127	6 0 127	6 0 127	6 0 127	6 0 127	6 0 127	6 0 127	6 0 127	0 0 255	0 0 255	0 0 255	0 0 255	0 0 255	0 0 255	0 0 255	0 0 255	0 0 255	0 0 255	0 0 255	0 0 255	0 0 255	0 0 255	0 0 255	0 0 255	0 0 255	0 0 255	0 0 255	0 0 255	0 0 255	0 0 255	0 0 255	0 0 255	0 0 255	0 0 255	0 0 255	0 0 255	0 0 255	0 0 255	0 0 255	0 0 255	0 0 255	0 0 255	0 0 255	0 0 255	0 0 255	0 0 255	0 0 255	0 0 255	0 0 255	0 0 255	0 0 255	0 0 255	0 0 255	0 0 255	0 0 255	0 0 255	0 0 255	0 0 255	0 0 255	0 0 255	0 0 255	0 0 255	0 0 255	0 0 255	0 0 255	0 0 255	0 0 255	0 0 255	0 0 255	0 0 255	0 0 255	0 0 255	0 0 255	0 0 255	0 0 255	0 0 255	0 0 255	0 0 255	0 0 255	0 0 255	0 0 255	0 0 255	0 0 255	0 0 255	0 0 255	0 0 255	0 0 255	0 0 255	0 0 255	
0 0 255	0 0 255	0 0 255	0 0 255	0 0 255	0 0 255	0 0 255	0 0 255	0 0 255	0 0 255	0 0 255	0 0 255	0 0 255	0 0 255	0 0 255	0 0 255	0 0 255	0 0 255	0 0 255	0 0 255	0 0 255	0 0 255	0 0 255	0 0 255	0 0 255	0 0 255	0 0 255	0 0 255	0 0 255	0 0 255	0 0 255	0 0 255	0 0 255	0 0 255	0 0 255	0 0 255	0 0 255	0 0 255	0 0 255	0 0 255	0 0 255	0 0 255	0 0 255	0 0 255	0 0 255	0 0 255	0 0 255	0 0 255	0 0 255	0 0 255	0 0 255	0 0 255	0 0 255	0 0 255	0 0 255	0 0 255	0 0 255	0 0 255	0 0 255	0 0 255	0 0 255	0 0 255	0 0 255	0 0 255	0 0 255	0 0 255	0 0 255	0 0 255	0 0 255	0 0 255	0 0 255	0 0 255	0 0 255	0 0 255	0 0 255	0 0 255	0 0 255	0 0 255	0 0 255	1 0 127	9 0 127	14 0 127	18 0 127	21 0 127	24 0 127	26 0 127	28 0 127	30 0 127	32 0 127	34 0 127	36 0 127	38 0 127	39 0 127	41 0 127	42 0 127	65 0 63	67 0 63	69 0 63	71 0 63	72 0 63	74 0 63	75 0 63	77 0 63	78 0 63	79 0 63	80 0 63	82 0 63	83 0 63	84 0 63	85 0 63	86 0 63	87 0 63	87 0 63	103 0 31	104 0 31	104 0 31	105 0 31	106 0 31	106 0 31	107 0 31	107 0 31	108 0 31	108 0 31	108 0 31	108 0 31	109 0 31	109 0 31	109 1 6	109 1 6	109 1 1	108 1 1	108 1 0	108 1 0	108 1 0	107 1 0	107 1 1	106 1 1	106 1 6	105 1 6	104 0 31	104 0 31	103 0 31	87 0 63	87 0 63	86 0 63	85 0 63	84 0 63	83 0 63	82 0 63	80 0 63	79 0 63	78 0 63	77 0 63	75 0 63	74 0 63	72 0 63	71 0 63	69 0 63	67 0 63	65 0 63	42 0 127	41 0 127	39 0 127	38 0 127	36 0 127	34 0 127	32 0 127	6 0 127	6 0 127	6 0 127	6 0 127	6 0 127	6 0 127	6 0 127	6 0 127	6 0 127	0 0 255	0 0 255	0 0 255	0 0 255	0 0 255	0 0 255	0 0 255	0 0 255	0 0 255	0 0 255	0 0 255	0 0 255	0 0 255	0 0 255	0 0 255	0 0 255	0 0 255	0 0 255	0 0 255	0 0 255	0 0 255	0 0 255	0 0 255	0 0 255	0 0 255	0 0 255	0 0 255	0 0 255	0 0 255	0 0 255	0 0 255	0 0 255	0 0 255	0 0 255	0 0 255	0 0 255	0 0 255	0 0 255	0 0 255	0 0 255	0 0 255	0 0 255	0 0 255	0 0 255	0 0 255	0 0 255	0 0 255	0 0 255	0 0 255	0 0 255	0 0 255	0 0 255	0 0 255	0 0 255	0 0 255	0 0 255	0 0 255	0 0 255	0 0 255	0 0 255	0 0 255	0 0 255	0 0 255	0 0 255	0 0 255	0 0 255	0 0 255	0 0 255	0 0 255	0 0 255	0 0 255	0 0 255	0 0 255	0 0 255	0 0 255	0 0 255	0 0 255	0 0 255	0 0 255	0 0 255	
0 0 255	0 0 255	0 0 255	0 0 255	0 0 255	0 0 255	0 0 255	0 0 255	0 0 255	0 0 255	0 0 255	0 0 255	0 0 255	0 0 255	0 0 255	0 0 255	0 0 255	0 0 255	0 0 255	0 0 255	0 0 255	0 0 255	0 0 255	0 0 255	0 0 255	0 0 255	0 0 255	0 0 255	0 0 255	0 0 255	0 0 255	0 0 255	0 0 255	0 0 255	0 0 255	0 0 255	0 0 255	0 0 255	0 0 255	0 0 255	0 0 255	0 0 255	0 0 255	0 0 255	0 0 255	0 0 255	0 0 255	0 0 255	0 0 255	0 0 255	0 0 255	0 0 255	0 0 255	0 0 255	0 0 255	0 0 255	0 0 255	0 0 255	0 0 255	0 0 255	0 0 255	0 0 255	0 0 255	0 0 255	0 0 255	0 0 255	0 0 255	0 0 255	0 0 255	0 0 255	0 0 255	0 0 255	0 0 255	0 0 255	0 0 255	0 0 255	0 0 255	0 0 255	0 0 255	4 0 127	11 0 127	15 0 127	18 0 127	21 0 127	24 0 127	26 0 127	29 0 127	31 0 127	33 0 127	34 0 127	36 0 127	38 0 127	39 0 127	41 0 127	42 0 127	65 0 63	67 0 63	69 0 63	70 0 63	72 0 63	74 0 63	75 0 63	76 0 63	78 0 63	79 0 63	80 0 63	81 0 63	82 0 63	83 0 63	84 0 63	85 0 63	86 0 63	87 0 63	102 0 31	103 0 31	104 0 31	105 0 31	105 0 31	106 0 31	106 0 31	107 0 31	107 0 31	107 0 31	108 0 31	108 0 31	108 0 31	108 0 31	108 1 6	108 1 6	109 1 0	108 1 1	108 1 0	107 1 0	107 1 0	107 1 0	106 1 0	106 1 1	105 1 1	105 1 6	104 1 6	103 0 31	102 0 31	87 0 63	86 0 63	85 0 63	84 0 63	83 0 63	82 0 63	81 0 63	80 0 63	79 0 63	78 0 63	76 0 63	75 0 63	74 0 63	72 0 63	70 0 63	69 0 63	67 0 63	65 0 63	42 0 127	41 0 127	39 0 127	38 0 127	36 0 127	34 0 127	33 0 127	31 0 127	6 0 127	6 0 127	6 0 127	6 0 127	6 0 127	6 0 127	6 0 127	6 0 127	0 0 255	0 0 255	0 0 255	0 0 255	0 0 255	0 0 255	0 0 255	0 0 255	0 0 255	0 0 255	0 0 255	0 0 255	0 0 255	0 0 255	0 0 255	0 0 255	0 0 255	0 0 255	0 0 255	0 0 255	0 0 255	0 0 255	0 0 255	0 0 255	0 0 255	0 0 255	0 0 255	0 0 255	0 0 255	0 0 255	0 0 255	0 0 255	0 0 255	0 0 255	0 0 255	0 0 255	0 0 255	0 0 255	0 0 255	0 0 255	0 0 255	0 0 255	0 0 255	0 0 255	0 0 255	0 0 255	0 0 255	0 0 255	0 0 255	0 0 255	0 0 255	0 0 255	0 0 255	0 0 255	0 0 255	0 0 255	0 0 255	0 0 255	0 0 255	0 0 255	0 0 255	0 0 255	0 0 255	0 0 255	0 0 255	0 0 255	0 0 255	0 0 255	0 0 255	0 0 255	0 0 255	0 0 255	0 0 255	0 0 255	0 0 255	0 0 255	0 0 255	0 0 255	0 0 255	0 0 255	
0 0 255	0 0 255	0 0 255	0 0 255	0 0 255	0 0 255	0 0 255	0 0 255	0 0 255	0 0 255	0 0 255	0 0 255	0 0 255	0 0 255	0 0 255	0 0 255	0 0 255	0 0 255	0 0 255	0 0 255	0 0 255	0 0 255	0 0 255	0 0 255	0 0 255	0 0 255	0 0 255	0 0 255	0 0 255	0 0 255	0 0 255	0 0 255	0 0 255	0 0 255	0 0 255	0 0 255	0 0 255	0 0 255	0 0 255	0 0 255	0 0 255	0 0 255	0 0 255	0 0 255	0 0 255	0 0 255	0 0 255	0 0 255	0 0 255	0 0 255	0 0 255	0 0 255	0 0 255	0 0 255	0 0 255	0 0 255	0 0 255	0 0 255	0 0 255	0 0 255	0 0 255	0 0 255	0 0 255	0 0 255	0 0 255	0 0 255	0 0 255	0 0 255	0 0 255	0 0 255	0 0 255	0 0 255	0 0 255	0 0 255	0 0 255	0 0 255	0 0 255	0 0 255	0 0 255	6 0 127	12 0 127	16 0 127	19 0 127	22 0 127	24 0 127	27 0 127	29 0 127	31 0 127	33 0 127	34 0 127	36 0 127	38 0 127	39 0 127	41 0 127	63 0 63	65 0 63	67 0 63	69 0 63	70 0 63	72 0 63	73 0 63	75 0 63	76 0 63	77 0 63	79 0 63	80 0 63	81 0 63	82 0 63	83 0 63	84 0 63	85 0 63	86 0 63	101 0 31	102 0 31	103 0 31	103 0 31	104 0 31	105 0 31	105 0 31	106 0 31	106 0 31	107 0 31	107 0 31	107 0 31	107 0 31	108 0 31	108 0 31	108 0 31	108 1 6	108 1 6	108 1 0	107 1 1	107 1 0	107 1 0	106 1 0	106 1 0	105 1 1	105 1 1	104 1 6	103 1 6	103 0 31	102 0 31	101 0 31	86 0 63	85 0 63	84 0 63	83 0 63	82 0 63	81 0 63	80 0 63	79 0 63	77 0 63	76 0 63	75 0 63	73 0 63	72 0 63	70 0 63	69 0 63	67 0 63	65 0 63	63 0 63	41 0 127	39 0 127	38 0 127	36 0 127	34 0 127	33 0 127	31 0 127	29 0 127	27 0 127	6 0 127	6 0 127	6 0 127	6 0 127	6 0 127	6 0 127	0 0 255	0 0 255	0 0 255	0 0 255	0 0 255	0 0 255	0 0 255	0 0 255	0 0 255	0 0 255	0 0 255	0 0 255	0 0 255	0 0 255	0 0 255	0 0 255	0 0 255	0 0 255	0 0 255	0 0 255	0 0 255	0 0 255	0 0 255	0 0 255	0 0 255	0 0 255	0 0 255	0 0 255	0 0 255	0 0 255	0 0 255	0 0 255	0 0 255	0 0 255	0 0 255	0 0 255	0 0 255	0 0 255	0 0 255	0 0 255	0 0 255	0 0 255	0 0 255	0 0 255	0 0 255	0 0 255	0 0 255	0 0 255	0 0 255	0 0 255	0 0 255	0 0 255	0 0 255	0 0 255	0 0 255	0 0 255	0 0 255	0 0 255	0 0 255	0 0 255	0 0 255	0 0 255	0 0 255	0 0 255	0 0 255	0 0 255	0 0 255	0 0 255	0 0 255	0 0 255	0 0 255	0 0 255	0 0 255	0 0 255	0 0 255	0 0 255	0 0 255	0 0 255	0 0 255	0 0 255	
0 0 255	0 0 255	0 0 255	0 0 255	0 0 255	0 0 255	0 0 255	0 0 255	0 0 255	0 0 255	0 0 255	0 0 255	0 0 255	0 0 255	0 0 255	0 0 255	0 0 255	0 0 255	0 0 255	0 0 255	0 0 255	0 0 255	0 0 255	0 0 255	0 0 255	0 0 255	0 0 255	0 0 255	0 0 255	0 0 255	0 0 255	0 0 255	0 0 255	0 0 255	0 0 255	0 0 255	0 0 255	0 0 255	0 0 255	0 0 255	0 0 255	0 0 255	0 0 255	0 0 255	0 0 255	0 0 255	0 0 255	0 0 255	0 0 255	0 0 255	0 0 255	0 0 255	0 0 255	0 0 255	0 0 255	0 0 255	0 0 255	0 0 255	0 0 255	0 0 255	0 0 255	0 0 255	0 0 255	0 0 255	0 0 255	0 0 255	0 0 255	0 0 255	0 0 255	0 0 255	0 0 255	0 0 255	0 0 255	0 0 255	0 0 255	0 0 255	0 0 255	0 0 255	6 0 127	8 0 127	13 0 127	16 0 127	19 0 127	22 0 127	25 0 127	27 0 127	29 0 127	31 0 127	33 0 127	34 0 127	36 0 127	38 0 127	39 0 127	40 0 127	63 0 63	65 0 63	67 0 63	68 0 63	70 0 63	72 0 63	73 0 63	74 0 63	76 0 63	77 0 63	78 0 63	80 0 63	81 0 63	82 0 63	83 0 63	84 0 63	85 0 63	100 0 31	101 0 31	101 0 31	102 0 31	103 0 31	104 0 31	104 0 31	105 0 31	105 0 31	106 0 31	106 0 31	106 0 31	107 0 31	107 0 31	107 0 31	115 0 15	115 0 15	115 0 15	107 1 6	107 1 6	107 1 0	106 1 0	106 1 1	106 1 0	105 1 1	105 1 1	104 1 1	104 1 6	103 1 6	102 0 31	101 0 31	101 0 31	100 0 31	85 0 63	84 0 63	83 0 63	82 0 63	81 0 63	80 0 63	78 0 63	77 0 63	76 0 63	74 0 63	73 0 63	72 0 63	70 0 63	68 0 63	67 0 63	65 0 63	63 0 63	40 0 127	39 0 127	38 0 127	36 0 127	34 0 127	33 0 127	31 0 127	29 0 127	27 0 127	25 0 127	6 0 127	6 0 127	6 0 127	6 0 127	6 0 127	6 0 127	0 0 255	0 0 255	0 0 255	0 0 255	0 0 255	0 0 255	0 0 255	0 0 255	0 0 255	0 0 255	0 0 255	0 0 255	0 0 255	0 0 255	0 0 255	0 0 255	0 0 255	0 0 255	0 0 255	0 0 255	0 0 255	0 0 255	0 0 255	0 0 255	0 0 255	0 0 255	0 0 255	0 0 255	0 0 255	0 0 255	0 0 255	0 0 255	0 0 255	0 0 255	0 0 255	0 0 255	0 0 255	0 0 255	0 0 255	0 0 255	0 0 255	0 0 255	0 0 255	0 0 255	0 0 255	0 0 255	0 0 255	0 0 255	0 0 255	0 0 255	0 0 255	0 0 255	0 0 255	0 0 255	0 0 255	0 0 255	0 0 255	0 0 255	0 0 255	0 0 255	0 0 255	0 0 255	0 0 255	0 0 255	0 0 255	0 0 255	0 0 255	0 0 255	0 0 255	0 0 255	0 0 255	0 0 255	0 0 255	0 0 255	0 0 255	0 0 255	0 0 255	0 0 255	0 0 255	
0 0 255	0 0 255	0 0 255	0 0 255	0 0 255	0 0 255	0 0 255	0 0 255	0 0 255	0 0 255	0 0 255	0 0 255	0 0 255	0 0 255	0 0 255	0 0 255	0 0 255	0 0 255	0 0 255	0 0 255	0 0 255	0 0 255	0 0 255	0 0 255	0 0 255	0 0 255	0 0 255	0 0 255	0 0 255	0 0 255	0 0 255	0 0 255	0 0 255	0 0 255	0 0 255	0 0 255	0 0 255	0 0 255	0 0 255	0 0 255	0 0 255	0 0 255	0 0 255	0 0 255	0 0 255	0 0 255	0 0 255	0 0 255	0 0 255	0 0 255	0 0 255	0 0 255	0 0 255	0 0 255	0 0 255	0 0 255	0 0 255	0 0 255	0 0 255	0 0 255	0 0 255	0 0 255	0 0 255	0 0 255	0 0 255	0 0 255	0 0 255	0 0 255	0 0 255	0 0 255	0 0 255	0 0 255	0 0 255	0 0 255	0 0 255	0 0 255	0 0 255	0 0 255	2 0 127	9 0 127	13 0 127	17 0 127	20 0 127	22 0 127	25 0 127	27 0 127	29 0 127	31 0 127	33 0 127	34 0 127	36 0 127	38 0 127	39 0 127	40 0 127	63 0 63	65 0 63	66 0 63	68 0 63	70 0 63	71 0 63	73 0 63	74 0 63	75 0 63	77 0 63	78 0 63	79 0 63	80 0 63	81 0 63	82 0 63	83 0 63	84 0 63	99 0 31	100 0 31	101 0 31	102 0 31	102 0 31	103 0 31	104 0 31	104 0 31	105 0 31	105 0 31	105 0 31	106 0 31	114 0 15	114 0 15	114 0 15	114 0 15	114 0 15	114 0 15	114 0 15	114 0 15	114 0 15	106 1 0	105 1 0	105 1 0	105 1 1	104 1 1	104 1 1	103 1 6	102 1 6	102 0 31	101 0 31	100 0 31	99 0 31	84 0 63	83 0 63	82 0 63	81 0 63	80 0 63	79 0 63	78 0 63	77 0 63	75 0 63	74 0 63	73 0 63	71 0 63	70 0 63	68 0 63	66 0 63	65 0 63	63 0 63	40 0 127	39 0 127	38 0 127	36 0 127	34 0 127	33 0 127	31 0 127	29 0 127	27 0 127	25 0 127	22 0 127	6 0 127	6 0 127	6 0 127	6 0 127	6 0 127	0 0 255	0 0 255	0 0 255	0 0 255	0 0 255	0 0 255	0 0 255	0 0 255	0 0 255	0 0 255	0 0 255	0 0 255	0 0 255	0 0 255	0 0 255	0 0 255	0 0 255	0 0 255	0 0 255	0 0 255	0 0 255	0 0 255	0 0 255	0 0 255	0 0 255	0 0 255	0 0 255	0 0 255	0 0 255	0 0 255	0 0 255	0 0 255	0 0 255	0 0 255	0 0 255	0 0 255	0 0 255	0 0 255	0 0 255	0 0 255	0 0 255	0 0 255	0 0 255	0 0 255	0 0 255	0 0 255	0 0 255	0 0 255	0 0 255	0 0 255	0 0 255	0 0 255	0 0 255	0 0 255	0 0 255	0 0 255	0 0 255	0 0 255	0 0 255	0 0 255	0 0 255	0 0 255	0 0 255	0 0 255	0 0 255	0 0 255	0 0 255	0 0 255	0 0 255	0 0 255	0 0 255	0 0 255	0 0 255	0 0 255	0 0 255	0 0 255	0 0 255	0 0 255	0 0 255	
0 0 255	0 0 255	0 0 255	0 0 255	0 0 255	0 0 255	0 0 255	0 0 255	0 0 255	0 0 255	0 0 255	0 0 255	0 0 255	0 0 255	0 0 255	0 0 255	0 0 255	0 0 255	0 0 255	0 0 255	0 0 255	0 0 255	0 0 255	0 0 255	0 0 255	0 0 255	0 0 255	0 0 255	0 0 255	0 0 255	0 0 255	0 0 255	0 0 255	0 0 255	0 0 255	0 0 255	0 0 255	0 0 255	0 0 255	0 0 255	0 0 255	0 0 255	0 0 255	0 0 255	0 0 255	0 0 255	0 0 255	0 0 255	0 0 255	0 0 255	0 0 255	0 0 255	0 0 255	0 0 255	0 0 255	0 0 255	0 0 255	0 0 255	0 0 255	0 0 255	0 0 255	0 0 255	0 0 255	0 0 255	0 0 255	0 0 255	0 0 255	0 0 255	0 0 255	0 0 255	0 0 255	0 0 255	0 0 255	0 0 255	0 0 255	0 0 255	0 0 255	0 0 255	4 0 127	10 0 127	14 0 127	17 0 127	20 0 127	23 0 127	25 0 127	27 0 127	29 0 127	31 0 127	33 0 127	34 0 127	36 0 127	37 0 127	39 0 127	61 0 63	63 0 63	64 0 63	66 0 63	68 0 63	69 0 63	71 0 63	72 0 63	74 0 63	75 0 63	76 0 63	78 0 63	79 0 63	80 0 63	81 0 63	82 0 63	83 0 63	98 0 31	99 0 31	99 0 31	100 0 31	101 0 31	102 0 31	102 0 31	103 0 31	103 0 31	104 0 31	104 0 31	105 0 31	113 0 15	113 0 15	113 0 15	113 0 15	113 0 15	113 0 15	113 0 15	113 0 15	113 0 15	113 0 15	113 0 15	105 1 6	104 1 6	104 1 0	103 1 6	103 1 6	102 1 6	102 1 6	101 0 31	100 0 31	99 0 31	99 0 31	98 0 31	83 0 63	82 0 63	81 0 63	80 0 63	79 0 63	78 0 63	76 0 63	75 0 63	74 0 63	72 0 63	71 0 63	69 0 63	68 0 63	66 0 63	64 0 63	63 0 63	61 0 63	39 0 127	37 0 127	36 0 127	34 0 127	33 0 127	31 0 127	29 0 127	27 0 127	25 0 127	23 0 127	20 0 127	6 0 127	6 0 127	6 0 127	6 0 127	0 0 255	0 0 255	0 0 255	0 0 255	0 0 255	0 0 255	0 0 255	0 0 255	0 0 255	0 0 255	0 0 255	0 0 255	0 0 255	0 0 255	0 0 255	0 0 255	0 0 255	0 0 255	0 0 255	0 0 255	0 0 255	0 0 255	0 0 255	0 0 255	0 0 255	0 0 255	0 0 255	0 0 255	0 0 255	0 0 255	0 0 255	0 0 255	0 0 255	0 0 255	0 0 255	0 0 255	0 0 255	0 0 255	0 0 255	0 0 255	0 0 255	0 0 255	0 0 255	0 0 255	0 0 255	0 0 255	0 0 255	0 0 255	0 0 255	0 0 255	0 0 255	0 0 255	0 0 255	0 0 255	0 0 255	0 0 255	0 0 255	0 0 255	0 0 255	0 0 255	0 0 255	0 0 255	0 0 255	0 0 255	0 0 255	0 0 255	0 0 255	0 0 255	0 0 255	0 0 255	0 0 255	0 0 255	0 0 255	0 0 255	0 0 255	0 0 255	0 0 255	0 0 255	0 0 255	
0 0 255	0 0 255	0 0 255	0 0 255	0 0 255	0 0 255	0 0 255	0 0 255	0 0 255	0 0 255	0 0 255	0 0 255	0 0 255	0 0 255	0 0 255	0 0 255	0 0 255	0 0 255	0 0 255	0 0 255	0 0 255	0 0 255	0 0 255	0 0 255	0 0 255	0 0 255	0 0 255	0 0 255	0 0 255	0 0 255	0 0 255	0 0 255	0 0 255	0 0 255	0 0 255	0 0 255	0 0 255	0 0 255	0 0 255	0 0 255	0 0 255	0 0 255	0 0 255	0 0 255	0 0 255	0 0 255	0 0 255	0 0 255	0 0 255	0 0 255	0 0 255	0 0 255	0 0 255	0 0 255	0 0 255	0 0 255	0 0 255	0 0 255	0 0 255	0 0 255	0 0 255	0 0 255	0 0 255	0 0 255	0 0 255	0 0 255	0 0 255	0 0 255	0 0 255	0 0 255	0 0 255	0 0 255	0 0 255	0 0 255	0 0 255	0 0 255	0 0 255	0 0 255	5 0 127	10 0 127	14 0 127	17 0 127	20 0 127	23 0 127	25 0 127	27 0 127	29 0 127	31 0 127	33 0 127	34 0 127	36 0 127	37 0 127	39 0 127	60 0 63	62 0 63	64 0 63	66 0 63	67 0 63	69 0 63	71 0 63	72 0 63	73 0 63	75 0 63	76 0 63	77 0 63	78 0 63	79 0 63	80 0 63	81 0 63	82 0 63	97 0 31	98 0 31	99 0 31	100 0 31	100 0 31	101 0 31	102 0 31	102 0 31	103 0 31	103 0 31	104 0 31	112 0 15	112 0 15	112 0 15	112 0 15	112 0 15	113 0 15	113 0 3	113 0 3	112 0 0	112 0 3	112 1 3	112 0 15	112 0 15	104 1 6	103 1 6	103 1 6	102 1 6	102 1 6	101 0 31	100 0 31	100 0 31	99 0 31	98 0 31	97 0 31	82 0 63	81 0 63	80 0 63	79 0 63	78 0 63	77 0 63	76 0 63	75 0 63	73 0 63	72 0 63	71 0 63	69 0 63	67 0 63	66 0 63	64 0 63	62 0 63	60 0 63	39 0 127	37 0 127	36 0 127	34 0 127	33 0 127	31 0 127	29 0 127	27 0 127	25 0 127	23 0 127	20 0 127	17 0 127	6 0 127	6 0 127	6 0 127	0 0 255	0 0 255	0 0 255	0 0 255	0 0 255	0 0 255	0 0 255	0 0 255	0 0 255	0 0 255	0 0 255	0 0 255	0 0 255	0 0 255	0 0 255	0 0 255	0 0 255	0 0 255	0 0 255	0 0 255	0 0 255	0 0 255	0 0 255	0 0 255	0 0 255	0 0 255	0 0 255	0 0 255	0 0 255	0 0 255	0 0 255	0 0 255	0 0 255	0 0 255	0 0 255	0 0 255	0 0 255	0 0 255	0 0 255	0 0 255	0 0 255	0 0 255	0 0 255	0 0 255	0 0 255	0 0 255	0 0 255	0 0 255	0 0 255	0 0 255	0 0 255	0 0 255	0 0 255	0 0 255	0 0 255	0 0 255	0 0 255	0 0 255	0 0 255	0 0 255	0 0 255	0 0 255	0 0 255	0 0 255	0 0 255	0 0 255	0 0 255	0 0 255	0 0 255	0 0 255	0 0 255	0 0 255	0 0 255	0 0 255	0 0 255	0 0 255	0 0 255	0 0 255	0 0 255	
0 0 255	0 0 255	0 0 255	0 0 255	0 0 255	0 0 255	0 0 255	0 0 255	0 0 255	0 0 255	0 0 255	0 0 255	0 0 255	0 0 255	0 0 255	0 0 255	0 0 255	0 0 255	0 0 255	0 0 255	0 0 255	0 0 255	0 0 255	0 0 255	0 0 255	0 0 255	0 0 255	0 0 255	0 0 255	0 0 255	0 0 255	0 0 255	0 0 255	0 0 255	0 0 255	0 0 255	0 0 255	0 0 255	0 0 255	0 0 255	0 0 255	0 0 255	0 0 255	0 0 255	0 0 255	0 0 255	0 0 255	0 0 255	0 0 255	0 0 255	0 0 255	0 0 255	0 0 255	0 0 255	0 0 255	0 0 255	0 0 255	0 0 255	0 0 255	0 0 255	0 0 255	0 0 255	0 0 255	0 0 255	0 0 255	0 0 255	0 0 255	0 0 255	0 0 255	0 0 255	0 0 255	0 0 255	0 0 255	0 0 255	0 0 255	0 0 255	0 0 255	6 0 127	6 0 127	11 0 127	15 0 127	18 0 127	20 0 127	23 0 127	25 0 127	27 0 127	29 0 127	31 0 127	33 0 127	34 0 127	36 0 127	37 0 127	39 0 127	60 0 63	62 0 63	64 0 63	65 0 63	67 0 63	69 0 63	70 0 63	72 0 63	73 0 63	74 0 63	75 0 63	77 0 63	78 0 63	79 0 63	80 0 63	81 0 63	82 0 63	96 0 31	97 0 31	98 0 31	99 0 31	100 0 31	100 0 31	101 0 31	102 0 31	102 0 31	103 0 31	110 0 15	111 0 15	111 0 15	111 0 15	112 0 15	112 0 15	112 0 15	112 0 3	112 0 0	112 0 0	112 0 0	111 0 0	111 0 3	111 0 15	110 0 15	103 0 31	102 1 6	102 0 31	101 0 31	100 0 31	100 0 31	99 0 31	98 0 31	97 0 31	96 0 31	82 0 63	81 0 63	80 0 63	79 0 63	78 0 63	77 0 63	75 0 63	74 0 63	73 0 63	72 0 63	70 0 63	69 0 63	67 0 63	65 0 63	64 0 63	62 0 63	60 0 63	39 0 127	37 0 127	36 0 127	34 0 127	33 0 127	31 0 127	29 0 127	27 0 127	25 0 127	23 0 127	20 0 127	18 0 127	15 0 127	6 0 127	6 0 127	6 0 127	0 0 255	0 0 255	0 0 255	0 0 255	0 0 255	0 0 255	0 0 255	0 0 255	0 0 255	0 0 255	0 0 255	0 0 255	0 0 255	0 0 255	0 0 255	0 0 255	0 0 255	0 0 255	0 0 255	0 0 255	0 0 255	0 0 255	0 0 255	0 0 255	0 0 255	0 0 255	0 0 255	0 0 255	0 0 255	0 0 255	0 0 255	0 0 255	0 0 255	0 0 255	0 0 255	0 0 255	0 0 255	0 0 255	0 0 255	0 0 255	0 0 255	0 0 255	0 0 255	0 0 255	0 0 255	0 0 255	0 0 255	0 0 255	0 0 255	0 0 255	0 0 255	0 0 255	0 0 255	0 0 255	0 0 255	0 0 255	0 0 255	0 0 255	0 0 255	0 0 255	0 0 255	0 0 255	0 0 255	0 0 255	0 0 255	0 0 255	0 0 255	0 0 255	0 0 255	0 0 255	0 0 255	0 0 255	0 0 255	0 0 255	0 0 255	0 0 255	0 0 255	0 0 255	
0 0 255	0 0 255	0 0 255	0 0 255	0 0 255	0 0 255	0 0 255	0 0 255	0 0 255	0 0 255	0 0 255	0 0 255	0 0 255	0 0 255	0 0 255	0 0 255	0 0 255	0 0 255	0 0 255	0 0 255	0 0 255	0 0 255	0 0 255	0 0 255	0 0 255	0 0 255	0 0 255	0 0 255	0 0 255	0 0 255	0 0 255	0 0 255	0 0 255	0 0 255	0 0 255	0 0 255	0 0 255	0 0 255	0 0 255	0 0 255	0 0 255	0 0 255	0 0 255	0 0 255	0 0 255	0 0 255	0 0 255	0 0 255	0 0 255	0 0 255	0 0 255	0 0 255	0 0 255	0 0 255	0 0 255	0 0 255	0 0 255	0 0 255	0 0 255	0 0 255	0 0 255	0 0 255	0 0 255	0 0 255	0 0 255	0 0 255	0 0 255	0 0 255	0 0 255	0 0 255	0 0 255	0 0 255	0 0 255	0 0 255	0 0 255	0 0 255	0 0 255	0 0 127	7 0 127	11 0 127	15 0 127	18 0 127	21 0 127	23 0 127	25 0 127	27 0 127	29 0 127	31 0 127	32 0 127	34 0 127	36 0 127	37 0 127	38 0 127	60 0 63	62 0 63	63 0 63	65 0 63	67 0 63	68 0 63	70 0 63	71 0 63	72 0 63	74 0 63	75 0 63	76 0 63	77 0 63	78 0 63	79 0 63	80 0 63	95 0 31	96 0 31	97 0 31	97 0 31	98 0 31	99 0 31	100 0 31	100 0 31	101 0 31	101 0 31	109 0 15	110 0 15	110 0 15	110 0 15	111 0 15	111 0 15	111 0 15	111 0 15	111 0 3	111 0 0	111 0 0	111 0 0	111 0 0	110 0 3	110 0 15	110 0 15	109 0 15	101 0 31	101 0 31	100 0 31	100 0 31	99 0 31	98 0 31	97 0 31	97 0 31	96 0 31	95 0 31	80 0 63	79 0 63	78 0 63	77 0 63	76 0 63	75 0 63	74 0 63	72 0 63	71 0 63	70 0 63	68 0 63	67 0 63	65 0 63	63 0 63	62 0 63	60 0 63	38 0 127	37 0 127	36 0 127	34 0 127	32 0 127	31 0 127	29 0 127	27 0 127	25 0 127	23 0 127	21 0 127	18 0 127	15 0 127	11 0 127	6 0 127	6 0 127	0 0 255	0 0 255	0 0 255	0 0 255	0 0 255	0 0 255	0 0 255	0 0 255	0 0 255	0 0 255	0 0 255	0 0 255	0 0 255	0 0 255	0 0 255	0 0 255	0 0 255	0 0 255	0 0 255	0 0 255	0 0 255	0 0 255	0 0 255	0 0 255	0 0 255	0 0 255	0 0 255	0 0 255	0 0 255	0 0 255	0 0 255	0 0 255	0 0 255	0 0 255	0 0 255	0 0 255	0 0 255	0 0 255	0 0 255	0 0 255	0 0 255	0 0 255	0 0 255	0 0 255	0 0 255	0 0 255	0 0 255	0 0 255	0 0 255	0 0 255	0 0 255	0 0 255	0 0 255	0 0 255	0 0 255	0 0 255	0 0 255	0 0 255	0 0 255	0 0 255	0 0 255	0 0 255	0 0 255	0 0 255	0 0 255	0 0 255	0 0 255	0 0 255	0 0 255	0 0 255	0 0 255	0 0 255	0 0 255	0 0 255	0 0 255	0 0 255	0 0 255	0 0 255	
0 0 255	0 0 255	0 0 255	0 0 255	0 0 255	0 0 255	0 0 255	0 0 255	0 0 255	0 0 255	0 0 255	0 0 255	0 0 255	0 0 255	0 0 255	0 0 255	0 0 255	0 0 255	0 0 255	0 0 255	0 0 255	0 0 255	0 0 255	0 0 255	0 0 255	0 0 255	0 0 255	0 0 255	0 0 255	0 0 255	0 0 255	0 0 255	0 0 255	0 0 255	0 0 255	0 0 255	0 0 255	0 0 255	0 0 255	0 0 255	0 0 255	0 0 255	0 0 255	0 0 255	0 0 255	0 0 255	0 0 255	0 0 255	0 0 255	0 0 255	0 0 255	0 0 255	0 0 255	0 0 255	0 0 255	0 0 255	0 0 255	0 0 255	0 0 255	0 0 255	0 0 255	0 0 255	0 0 255	0 0 255	0 0 255	0 0 255	0 0 255	0 0 255	0 0 255	0 0 255	0 0 255	0 0 255	0 0 255	0 0 255	0 0 255	0 0 255	0 0 255	1 0 127	8 0 127	12 0 127	15 0 127	18 0 127	21 0 127	23 0 127	25 0 127	27 0 127	29 0 127	31 0 127	32 0 127	34 0 127	35 0 127	37 0 127	57 0 63	59 0 63	61 0 63	63 0 63	65 0 63	66 0 63	68 0 63	69 0 63	71 0 63	72 0 63	73 0 63	74 0 63	76 0 63	77 0 63	78 0 63	79 0 63	80 0 63	94 0 31	95 0 31	96 0 31	97 0 31	97 0 31	98 0 31	99 0 31	99 0 31	100 0 31	101 0 31	108 0 15	109 0 15	109 0 15	109 0 15	110 0 15	110 0 15	114 0 7	114 0 7	114 0 7	114 0 7	114 0 7	110 0 0	110 0 0	109 0 3	109 0 15	109 0 15	108 0 15	101 0 31	100 0 31	99 0 31	99 0 31	98 0 31	97 0 31	97 0 31	96 0 31	95 0 31	94 0 31	80 0 63	79 0 63	78 0 63	77 0 63	76 0 63	74 0 63	73 0 63	72 0 63	71 0 63	69 0 63	68 0 63	66 0 63	65 0 63	63 0 63	61 0 63	59 0 63	57 0 63	37 0 127	35 0 127	34 0 127	32 0 127	31 0 127	29 0 127	27 0 127	25 0 127	23 0 127	21 0 127	18 0 127	15 0 127	12 0 127	8 0 127	6 0 127	0 0 255	0 0 255	0 0 255	0 0 255	0 0 255	0 0 255	0 0 255	0 0 255	0 0 255	0 0 255	0 0 255	0 0 255	0 0 255	0 0 255	0 0 255	0 0 255	0 0 255	0 0 255	0 0 255	0 0 255	0 0 255	0 0 255	0 0 255	0 0 255	0 0 255	0 0 255	0 0 255	0 0 255	0 0 255	0 0 255	0 0 255	0 0 255	0 0 255	0 0 255	0 0 255	0 0 255	0 0 255	0 0 255	0 0 255	0 0 255	0 0 255	0 0 255	0 0 255	0 0 255	0 0 255	0 0 255	0 0 255	0 0 255	0 0 255	0 0 255	0 0 255	0 0 255	0 0 255	0 0 255	0 0 255	0 0 255	0 0 255	0 0 255	0 0 255	0 0 255	0 0 255	0 0 255	0 0 255	0 0 255	0 0 255	0 0 255	0 0 255	0 0 255	0 0 255	0 0 255	0 0 255	0 0 255	0 0 255	0 0 255	0 0 255	0 0 255	0 0 255	0 0 255	
0 0 255	0 0 255	0 0 255	0 0 255	0 0 255	0 0 255	0 0 255	0 0 255	0 0 255	0 0 255	0 0 255	0 0 255	0 0 255	0 0 255	0 0 255	0 0 255	0 0 255	0 0 255	0 0 255	0 0 255	0 0 255	0 0 255	0 0 255	0 0 255	0 0 255	0 0 255	0 0 255	0 0 255	0 0 255	0 0 255	0 0 255	0 0 255	0 0 255	0 0 255	0 0 255	0 0 255	0 0 255	0 0 255	0 0 255	0 0 255	0 0 255	0 0 255	0 0 255	0 0 255	0 0 255	0 0 255	0 0 255	0 0 255	0 0 255	0 0 255	0 0 255	0 0 255	0 0 255	0 0 255	0 0 255	0 0 255	0 0 255	0 0 255	0 0 255	0 0 255	0 0 255	0 0 255	0 0 255	0 0 255	0 0 255	0 0 255	0 0 255	0 0 255	0 0 255	0 0 255	0 0 255	0 0 255	0 0 255	0 0 255	0 0 255	0 0 255	0 0 255	2 0 127	8 0 127	12 0 127	15 0 127	18 0 127	21 0 127	23 0 127	25 0 127	27 0 127	29 0 127	31 0 127	32 0 127	34 0 127	35 0 127	37 0 127	57 0 63	59 0 63	61 0 63	62 0 63	64 0 63	66 0 63	67 0 63	69 0 63	70 0 63	71 0 63	73 0 63	74 0 63	75 0 63	76 0 63	77 0 63	78 0 63	79 0 63	93 0 31	94 0 31	95 0 31	96 0 31	97 0 31	97 0 31	98 0 31	99 0 31	99 0 31	107 0 15	107 0 15	108 0 15	108 0 15	109 0 15	109 0 15	113 0 7	113 0 7	113 0 7	113 0 0	113 0 0	113 0 7	113 0 7	109 0 3	109 0 3	108 0 15	108 0 15	107 0 15	107 0 15	99 0 31	99 0 31	98 0 31	97 0 31	97 0 31	96 0 31	95 0 31	94 0 31	93 0 31	79 0 63	78 0 63	77 0 63	76 0 63	75 0 63	74 0 63	73 0 63	71 0 63	70 0 63	69 0 63	67 0 63	66 0 63	64 0 63	62 0 63	61 0 63	59 0 63	57 0 63	37 0 127	35 0 127	34 0 127	32 0 127	31 0 127	29 0 127	27 0 127	25 0 127	23 0 127	21 0 127	18 0 127	15 0 127	12 0 127	8 0 127	6 0 127	0 0 255	0 0 255	0 0 255	0 0 255	0 0 255	0 0 255	0 0 255	0 0 255	0 0 255	0 0 255	0 0 255	0 0 255	0 0 255	0 0 255	0 0 255	0 0 255	0 0 255	0 0 255	0 0 255	0 0 255	0 0 255	0 0 255	0 0 255	0 0 255	0 0 255	0 0 255	0 0 255	0 0 255	0 0 255	0 0 255	0 0 255	0 0 255	0 0 255	0 0 255	0 0 255	0 0 255	0 0 255	0 0 255	0 0 255	0 0 255	0 0 255	0 0 255	0 0 255	0 0 255	0 0 255	0 0 255	0 0 255	0 0 255	0 0 255	0 0 255	0 0 255	0 0 255	0 0 255	0 0 255	0 0 255	0 0 255	0 0 255	0 0 255	0 0 255	0 0 255	0 0 255	0 0 255	0 0 255	0 0 255	0 0 255	0 0 255	0 0 255	0 0 255	0 0 255	0 0 255	0 0 255	0 0 255	0 0 255	0 0 255	0 0 255	0 0 255	0 0 255	0 0 255	
0 0 255	0 0 255	0 0 255	0 0 255	0 0 255	0 0 255	0 0 255	0 0 255	0 0 255	0 0 255	0 0 255	0 0 255	0 0 255	0 0 255	0 0 255	0 0 255	0 0 255	0 0 255	0 0 255	0 0 255	0 0 255	0 0 255	0 0 255	0 0 255	0 0 255	0 0 255	0 0 255	0 0 255	0 0 255	0 0 255	0 0 255	0 0 255	0 0 255	0 0 255	0 0 255	0 0 255	0 0 255	0 0 255	0 0 255	0 0 255	0 0 255	0 0 255	0 0 255	0 0 255	0 0 255	0 0 255	0 0 255	0 0 255	0 0 255	0 0 255	0 0 255	0 0 255	0 0 255	0 0 255	0 0 255	0 0 255	0 0 255	0 0 255	0 0 255	0 0 255	0 0 255	0 0 255	0 0 255	0 0 255	0 0 255	0 0 255	0 0 255	0 0 255	0 0 255	0 0 255	0 0 255	0 0 255	0 0 255	0 0 255	0 0 255	0 0 255	0 0 255	3 0 127	8 0 127	12 0 127	15 0 127	18 0 127	21 0 127	23 0 127	25 0 127	27 0 127	29 0 127	30 0 127	32 0 127	33 0 127	35 0 127	36 0 127	57 0 63	58 0 63	60 0 63	62 0 63	64 0 63	65 0 63	67 0 63	68 0 63	69 0 63	71 0 63	72 0 63	73 0 63	74 0 63	75 0 63	76 0 63	77 0 63	78 0 63	92 0 31	93 0 31	94 0 31	95 0 31	96 0 31	97 0 31	97 0 31	98 0 31	98 0 31	106 0 15	107 0 15	107 0 15	107 0 15	108 0 15	111 0 7	112 0 7	112 0 7	112 0 7	112 0 0	112 0 0	112 0 0	112 0 7	111 0 7	108 0 15	107 0 15	107 0 15	107 0 15	106 0 15	98 0 31	98 0 31	97 0 31	97 0 31	96 0 31	95 0 31	94 0 31	93 0 31	92 0 31	78 0 63	77 0 63	76 0 63	75 0 63	74 0 63	73 0 63	72 0 63	71 0 63	69 0 63	68 0 63	67 0 63	65 0 63	64 0 63	62 0 63	60 0 63	58 0 63	57 0 63	36 0 127	35 0 127	33 0 127	32 0 127	30 0 127	29 0 127	27 0 127	25 0 127	23 0 127	21 0 127	18 0 127	15 0 127	12 0 127	8 0 127	3 0 127	0 0 255	0 0 255	0 0 255	0 0 255	0 0 255	0 0 255	0 0 255	0 0 255	0 0 255	0 0 255	0 0 255	0 0 255	0 0 255	0 0 255	0 0 255	0 0 255	0 0 255	0 0 255	0 0 255	0 0 255	0 0 255	0 0 255	0 0 255	0 0 255	0 0 255	0 0 255	0 0 255	0 0 255	0 0 255	0 0 255	0 0 255	0 0 255	0 0 255	0 0 255	0 0 255	0 0 255	0 0 255	0 0 255	0 0 255	0 0 255	0 0 255	0 0 255	0 0 255	0 0 255	0 0 255	0 0 255	0 0 255	0 0 255	0 0 255	0 0 255	0 0 255	0 0 255	0 0 255	0 0 255	0 0 255	0 0 255	0 0 255	0 0 255	0 0 255	0 0 255	0 0 255	0 0 255	0 0 255	0 0 255	0 0 255	0 0 255	0 0 255	0 0 255	0 0 255	0 0 255	0 0 255	0 0 255	0 0 255	0 0 255	0 0 255	0 0 255	0 0 255	0 0 255	
0 0 255	0 0 255	0 0 255	0 0 255	0 0 255	0 0 255	0 0 255	0 0 255	0 0 255	0 0 255	0 0 255	0 0 255	0 0 255	0 0 255	0 0 255	0 0 255	0 0 255	0 0 255	0 0 255	0 0 255	0 0 255	0 0 255	0 0 255	0 0 255	0 0 255	0 0 255	0 0 255	0 0 255	0 0 255	0 0 255	0 0 255	0 0 255	0 0 255	0 0 255	0 0 255	0 0 255	0 0 255	0 0 255	0 0 255	0 0 255	0 0 255	0 0 255	0 0 255	0 0 255	0 0 255	0 0 255	0 0 255	0 0 255	0 0 255	0 0 255	0 0 255	0 0 255	0 0 255	0 0 255	0 0 255	0 0 255	0 0 255	0 0 255	0 0 255	0 0 255	0 0 255	0 0 255	0 0 255	0 0 255	0 0 255	0 0 255	0 0 255	0 0 255	0 0 255	0 0 255	0 0 255	0 0 255	0 0 255	0 0 255	0 0 255	0 0 255	0 0 255	4 0 127	9 0 127	12 0 127	15 0 127	18 0 127	20 0 127	23 0 127	25 0 127	27 0 127	28 0 127	30 0 127	32 0 127	33 0 127	35 0 127	36 0 127	56 0 63	58 0 63	60 0 63	61 0 63	63 0 63	65 0 63	66 0 63	68 0 63	69 0 63	70 0 63	71 0 63	73 0 63	74 0 63	75 0 63	76 0 63	77 0 63	78 0 63	92 0 31	93 0 31	93 0 31	94 0 31	95 0 31	96 0 31	96 0 31	97 0 31	98 0 31	105 0 15	106 0 15	106 0 15	106 0 15	107 0 15	110 0 7	111 0 7	111 0 7	115 0 0	115 0 0	115 0 0	111 0 0	111 0 7	110 0 7	107 0 15	106 0 15	106 0 15	106 0 15	105 0 15	98 0 31	97 0 31	96 0 31	96 0 31	95 0 31	94 0 31	93 0 31	93 0 31	92 0 31	78 0 63	77 0 63	76 0 63	75 0 63	74 0 63	73 0 63	71 0 63	70 0 63	69 0 63	68 0 63	66 0 63	65 0 63	63 0 63	61 0 63	60 0 63	58 0 63	56 0 63	36 0 127	35 0 127	33 0 127	32 0 127	30 0 127	28 0 127	27 0 127	25 0 127	23 0 127	20 0 127	18 0 127	15 0 127	12 0 127	9 0 127	4 0 127	0 0 255	0 0 255	0 0 255	0 0 255	0 0 255	0 0 255	0 0 255	0 0 255	0 0 255	0 0 255	0 0 255	0 0 255	0 0 255	0 0 255	0 0 255	0 0 255	0 0 255	0 0 255	0 0 255	0 0 255	0 0 255	0 0 255	0 0 255	0 0 255	0 0 255	0 0 255	0 0 255	0 0 255	0 0 255	0 0 255	0 0 255	0 0 255	0 0 255	0 0 255	0 0 255	0 0 255	0 0 255	0 0 255	0 0 255	0 0 255	0 0 255	0 0 255	0 0 255	0 0 255	0 0 255	0 0 255	0 0 255	0 0 255	0 0 255	0 0 255	0 0 255	0 0 255	0 0 255	0 0 255	0 0 255	0 0 255	0 0 255	0 0 255	0 0 255	0 0 255	0 0 255	0 0 255	0 0 255	0 0 255	0 0 255	0 0 255	0 0 255	0 0 255	0 0 255	0 0 255	0 0 255	0 0 255	0 0 255	0 0 255	0 0 255	0 0 255	0 0 255	0 0 255	
0 0 255	0 0 255	0 0 255	0 0 255	0 0 255	0 0 255	0 0 255	0 0 255	0 0 255	0 0 255	0 0 255	0 0 255	0 0 255	0 0 255	0 0 255	0 0 255	0 0 255	0 0 255	0 0 255	0 0 255	0 0 255	0 0 255	0 0 255	0 0 255	0 0 255	0 0 255	0 0 255	0 0 255	0 0 255	0 0 255	0 0 255	0 0 255	0 0 255	0 0 255	0 0 255	0 0 255	0 0 255	0 0 255	0 0 255	0 0 255	0 0 255	0 0 255	0 0 255	0 0 255	0 0 255	0 0 255	0 0 255	0 0 255	0 0 255	0 0 255	0 0 255	0 0 255	0 0 255	0 0 255	0 0 255	0 0 255	0 0 255	0 0 255	0 0 255	0 0 255	0 0 255	0 0 255	0 0 255	0 0 255	0 0 255	0 0 255	0 0 255	0 0 255	0 0 255	0 0 255	0 0 255	0 0 255	0 0 255	0 0 255	0 0 255	0 0 255	6 0 127	4 0 127	9 0 127	12 0 127	15 0 127	18 0 127	20 0 127	23 0 127	25 0 127	26 0 127	28 0 127	30 0 127	31 0 127	33 0 127	34 0 127	36 0 127	56 0 63	57 0 63	59 0 63	61 0 63	63 0 63	64 0 63	66 0 63	67 0 63	68 0 63	70 0 63	71 0 63	72 0 63	73 0 63	74 0 63	75 0 63	76 0 63	90 0 31	91 0 31	92 0 31	93 0 31	93 0 31	94 0 31	95 0 31	96 0 31	96 0 31	97 0 31	104 0 15	105 0 15	105 0 15	105 0 15	106 0 15	109 0 7	110 0 7	113 0 0	113 0 0	113 0 0	113 0 0	113 0 0	110 0 7	109 0 7	106 0 15	105 0 15	105 0 15	105 0 15	104 0 15	97 0 31	96 0 31	96 0 31	95 0 31	94 0 31	93 0 31	93 0 31	92 0 31	91 0 31	90 0 31	76 0 63	75 0 63	74 0 63	73 0 63	72 0 63	71 0 63	70 0 63	68 0 63	67 0 63	66 0 63	64 0 63	63 0 63	61 0 63	59 0 63	57 0 63	56 0 63	36 0 127	34 0 127	33 0 127	31 0 127	30 0 127	28 0 127	26 0 127	25 0 127	23 0 127	20 0 127	18 0 127	15 0 127	12 0 127	9 0 127	4 0 127	6 0 127	0 0 255	0 0 255	0 0 255	0 0 255	0 0 255	0 0 255	0 0 255	0 0 255	0 0 255	0 0 255	0 0 255	0 0 255	0 0 255	0 0 255	0 0 255	0 0 255	0 0 255	0 0 255	0 0 255	0 0 255	0 0 255	0 0 255	0 0 255	0 0 255	0 0 255	0 0 255	0 0 255	0 0 255	0 0 255	0 0 255	0 0 255	0 0 255	0 0 255	0 0 255	0 0 255	0 0 255	0 0 255	0 0 255	0 0 255	0 0 255	0 0 255	0 0 255	0 0 255	0 0 255	0 0 255	0 0 255	0 0 255	0 0 255	0 0 255	0 0 255	0 0 255	0 0 255	0 0 255	0 0 255	0 0 255	0 0 255	0 0 255	0 0 255	0 0 255	0 0 255	0 0 255	0 0 255	0 0 255	0 0 255	0 0 255	0 0 255	0 0 255	0 0 255	0 0 255	0 0 255	0 0 255	0 0 255	0 0 255	0 0 255	0 0 255	0 0 255	0 0 255	
0 0 255	0 0 255	0 0 255	0 0 255	0 0 255	0 0 255	0 0 255	0 0 255	0 0 255	0 0 255	0 0 255	0 0 255	0 0 255	0 0 255	0 0 255	0 0 255	0 0 255	0 0 255	0 0 255	0 0 255	0 0 255	0 0 255	0 0 255	0 0 255	0 0 255	0 0 255	0 0 255	0 0 255	0 0 255	0 0 255	0 0 255	0 0 255	0 0 255	0 0 255	0 0 255	0 0 255	0 0 255	0 0 255	0 0 255	0 0 255	0 0 255	0 0 255	0 0 255	0 0 255	0 0 255	0 0 255	0 0 255	0 0 255	0 0 255	0 0 255	0 0 255	0 0 255	0 0 255	0 0 255	0 0 255	0 0 255	0 0 255	0 0 255	0 0 255	0 0 255	0 0 255	0 0 255	0 0 255	0 0 255	0 0 255	0 0 255	0 0 255	0 0 255	0 0 255	0 0 255	0 0 255	0 0 255	0 0 255	0 0 255	0 0 255	0 0 255	6 0 127	4 0 127	9 0 127	12 0 127	15 0 127	18 0 127	20 0 127	22 0 127	24 0 127	26 0 127	28 0 127	30 0 127	31 0 127	33 0 127	34 0 127	35 0 127	55 0 63	57 0 63	59 0 63	60 0 63	62 0 63	63 0 63	65 0 63	66 0 63	68 0 63	69 0 63	70 0 63	71 0 63	72 0 63	73 0 63	74 0 63	75 0 63	89 0 31	90 0 31	91 0 31	92 0 31	93 0 31	93 0 31	94 0 31	95 0 31	95 0 31	96 0 31	103 0 15	104 0 15	104 0 15	104 0 15	105 0 15	108 0 7	109 0 7	112 0 0	112 0 0	112 0 0	112 0 0	112 0 0	109 0 7	108 0 7	105 0 15	104 0 15	104 0 15	104 0 15	103 0 15	96 0 31	95 0 31	95 0 31	94 0 31	93 0 31	93 0 31	92 0 31	91 0 31	90 0 31	89 0 31	75 0 63	74 0 63	73 0 63	72 0 63	71 0 63	70 0 63	69 0 63	68 0 63	66 0 63	65 0 63	63 0 63	62 0 63	60 0 63	59 0 63	57 0 63	55 0 63	35 0 127	34 0 127	33 0 127	31 0 127	30 0 127	28 0 127	26 0 127	24 0 127	22 0 127	20 0 127	18 0 127	15 0 127	12 0 127	9 0 127	4 0 127	6 0 127	0 0 255	0 0 255	0 0 255	0 0 255	0 0 255	0 0 255	0 0 255	0 0 255	0 0 255	0 0 255	0 0 255	0 0 255	0 0 255	0 0 255	0 0 255	0 0 255	0 0 255	0 0 255	0 0 255	0 0 255	0 0 255	0 0 255	0 0 255	0 0 255	0 0 255	0 0 255	0 0 255	0 0 255	0 0 255	0 0 255	0 0 255	0 0 255	0 0 255	0 0 255	0 0 255	0 0 255	0 0 255	0 0 255	0 0 255	0 0 255	0 0 255	0 0 255	0 0 255	0 0 255	0 0 255	0 0 255	0 0 255	0 0 255	0 0 255	0 0 255	0 0 255	0 0 255	0 0 255	0 0 255	0 0 255	0 0 255	0 0 255	0 0 255	0 0 255	0 0 255	0 0 255	0 0 255	0 0 255	0 0 255	0 0 255	0 0 255	0 0 255	0 0 255	0 0 255	0 0 255	0 0 255	0 0 255	0 0 255	0 0 255	0 0 255	0 0 255	0 0 255	
0 0 255	0 0 255	0 0 255	0 0 255	0 0 255	0 0 255	0 0 255	0 0 255	0 0 255	0 0 255	0 0 255	0 0 255	0 0 255	0 0 255	0 0 255	0 0 255	0 0 255	0 0 255	0 0 255	0 0 255	0 0 255	0 0 255	0 0 255	0 0 255	0 0 255	0 0 255	0 0 255	0 0 255	0 0 255	0 0 255	0 0 255	0 0 255	0 0 255	0 0 255	0 0 255	0 0 255	0 0 255	0 0 255	0 0 255	0 0 255	0 0 255	0 0 255	0 0 255	0 0 255	0 0 255	0 0 255	0 0 255	0 0 255	0 0 255	0 0 255	0 0 255	0 0 255	0 0 255	0 0 255	0 0 255	0 0 255	0 0 255	0 0 255	0 0 255	0 0 255	0 0 255	0 0 255	0 0 255	0 0 255	0 0 255	0 0 255	0 0 255	0 0 255	0 0 255	0 0 255	0 0 255	0 0 255	0 0 255	0 0 255	0 0 255	0 0 255	6 0 127	5 0 127	9 0 127	12 0 127	15 0 127	18 0 127	20 0 127	22 0 127	24 0 127	26 0 127	28 0 127	29 0 127	31 0 127	32 0 127	34 0 127	35 0 127	55 0 63	56 0 63	58 0 63	60 0 63	61 0 63	63 0 63	64 0 63	66 0 63	67 0 63	68 0 63	69 0 63	70 0 63	72 0 63	73 0 63	74 0 63	75 0 63	88 0 31	89 0 31	90 0 31	91 0 31	92 0 31	92 0 31	93 0 31	94 0 31	94 0 31	95 0 31	102 0 15	103 0 15	103 0 15	103 0 15	104 0 15	107 0 7	108 0 7	111 0 0	111 0 0	111 0 0	111 0 0	111 0 0	108 0 7	107 0 7	104 0 15	103 0 15	103 0 15	103 0 15	102 0 15	95 0 31	94 0 31	94 0 31	93 0 31	92 0 31	92 0 31	91 0 31	90 0 31	89 0 31	88 0 31	75 0 63	74 0 63	73 0 63	72 0 63	70 0 63	69 0 63	68 0 63	67 0 63	66 0 63	64 0 63	63 0 63	61 0 63	60 0 63	58 0 63	56 0 63	55 0 63	35 0 127	34 0 127	32 0 127	31 0 127	29 0 127	28 0 127	26 0 127	24 0 127	22 0 127	20 0 127	18 0 127	15 0 127	12 0 127	9 0 127	5 0 127	6 0 127	0 0 255	0 0 255	0 0 255	0 0 255	0 0 255	0 0 255	0 0 255	0 0 255	0 0 255	0 0 255	0 0 255	0 0 255	0 0 255	0 0 255	0 0 255	0 0 255	0 0 255	0 0 255	0 0 255	0 0 255	0 0 255	0 0 255	0 0 255	0 0 255	0 0 255	0 0 255	0 0 255	0 0 255	0 0 255	0 0 255	0 0 255	0 0 255	0 0 255	0 0 255	0 0 255	0 0 255	0 0 255	0 0 255	0 0 255	0 0 255	0 0 255	0 0 255	0 0 255	0 0 255	0 0 255	0 0 255	0 0 255	0 0 255	0 0 255	0 0 255	0 0 255	0 0 255	0 0 255	0 0 255	0 0 255	0 0 255	0 0 255	0 0 255	0 0 255	0 0 255	0 0 255	0 0 255	0 0 255	0 0 255	0 0 255	0 0 255	0 0 255	0 0 255	0 0 255	0 0 255	0 0 255	0 0 255	0 0 255	0 0 255	0 0 255	0 0 255	0 0 255	
0 0 255	0 0 255	0 0 255	0 0 255	0 0 255	0 0 255	0 0 255	0 0 255	0 0 255	0 0 255	0 0 255	0 0 255	0 0 255	0 0 255	0 0 255	0 0 255	0 0 255	0 0 255	0 0 255	0 0 255	0 0 255	0 0 255	0 0 255	0 0 255	0 0 255	0 0 255	0 0 255	0 0 255	0 0 255	0 0 255	0 0 255	0 0 255	0 0 255	0 0 255	0 0 255	0 0 255	0 0 255	0 0 255	0 0 255	0 0 255	0 0 255	0 0 255	0 0 255	0 0 255	0 0 255	0 0 255	0 0 255	0 0 255	0 0 255	0 0 255	0 0 255	0 0 255	0 0 255	0 0 255	0 0 255	0 0 255	0 0 255	0 0 255	0 0 255	0 0 255	0 0 255	0 0 255	0 0 255	0 0 255	0 0 255	0 0 255	0 0 255	0 0 255	0 0 255	0 0 255	0 0 255	0 0 255	0 0 255	0 0 255	0 0 255	0 0 255	6 0 127	5 0 127	9 0 127	12 0 127	15 0 127	17 0 127	20 0 127	22 0 127	24 0 127	26 0 127	27 0 127	29 0 127	30 0 127	32 0 127	33 0 127	35 0 127	54 0 63	56 0 63	57 0 63	59 0 63	61 0 63	62 0 63	64 0 63	65 0 63	66 0 63	67 0 63	69 0 63	70 0 63	71 0 63	72 0 63	73 0 63	74 0 63	87 0 31	88 0 31	89 0 31	90 0 31	91 0 31	91 0 31	92 0 31	93 0 31	93 0 31	94 0 31	101 0 15	102 0 15	102 0 15	102 0 15	103 0 15	106 0 7	106 0 7	107 0 7	110 0 0	110 0 0	110 0 0	107 0 7	106 0 7	106 0 7	103 0 15	102 0 15	102 0 15	102 0 15	101 0 15	94 0 31	93 0 31	93 0 31	92 0 31	91 0 31	91 0 31	90 0 31	89 0 31	88 0 31	87 0 31	74 0 63	73 0 63	72 0 63	71 0 63	70 0 63	69 0 63	67 0 63	66 0 63	65 0 63	64 0 63	62 0 63	61 0 63	59 0 63	57 0 63	56 0 63	54 0 63	35 0 127	33 0 127	32 0 127	30 0 127	29 0 127	27 0 127	26 0 127	24 0 127	22 0 127	20 0 127	17 0 127	15 0 127	12 0 127	9 0 127	5 0 127	6 0 127	0 0 255	0 0 255	0 0 255	0 0 255	0 0 255	0 0 255	0 0 255	0 0 255	0 0 255	0 0 255	0 0 255	0 0 255	0 0 255	0 0 255	0 0 255	0 0 255	0 0 255	0 0 255	0 0 255	0 0 255	0 0 255	0 0 255	0 0 255	0 0 255	0 0 255	0 0 255	0 0 255	0 0 255	0 0 255	0 0 255	0 0 255	0 0 255	0 0 255	0 0 255	0 0 255	0 0 255	0 0 255	0 0 255	0 0 255	0 0 255	0 0 255	0 0 255	0 0 255	0 0 255	0 0 255	0 0 255	0 0 255	0 0 255	0 0 255	0 0 255	0 0 255	0 0 255	0 0 255	0 0 255	0 0 255	0 0 255	0 0 255	0 0 255	0 0 255	0 0 255	0 0 255	0 0 255	0 0 255	0 0 255	0 0 255	0 0 255	0 0 255	0 0 255	0 0 255	0 0 255	0 0 255	0 0 255	0 0 255	0 0 255	0 0 255	0 0 255	0 0 255	
0 0 255	0 0 255	0 0 255	0 0 255	0 0 255	0 0 255	0 0 255	0 0 255	0 0 255	0 0 255	0 0 255	0 0 255	0 0 255	0 0 255	0 0 255	0 0 255	0 0 255	0 0 255	0 0 255	0 0 255	0 0 255	0 0 255	0 0 255	0 0 255	0 0 255	0 0 255	0 0 255	0 0 255	0 0 255	0 0 255	0 0 255	0 0 255	0 0 255	0 0 255	0 0 255	0 0 255	0 0 255	0 0 255	0 0 255	0 0 255	0 0 255	0 0 255	0 0 255	0 0 255	0 0 255	0 0 255	0 0 255	0 0 255	0 0 255	0 0 255	0 0 255	0 0 255	0 0 255	0 0 255	0 0 255	0 0 255	0 0 255	0 0 255	0 0 255	0 0 255	0 0 255	0 0 255	0 0 255	0 0 255	0 0 255	0 0 255	0 0 255	0 0 255	0 0 255	0 0 255	0 0 255	0 0 255	0 0 255	0 0 255	0 0 255	0 0 255	6 0 127	5 0 127	9 0 127	12 0 127	15 0 127	17 0 127	19 0 127	22 0 127	23 0 127	25 0 127	27 0 127	29 0 127	30 0 127	32 0 127	33 0 127	34 0 127	53 0 63	55 0 63	57 0 63	58 0 63	60 0 63	61 0 63	63 0 63	64 0 63	65 0 63	67 0 63	68 0 63	69 0 63	70 0 63	71 0 63	72 0 63	73 0 63	86 0 31	87 0 31	88 0 31	89 0 31	90 0 31	90 0 31	91 0 31	92 0 31	92 0 31	93 0 31	100 0 15	100 0 15	101 0 15	101 0 15	101 0 15	105 0 7	105 0 7	105 0 7	106 0 7	106 0 7	106 0 7	105 0 7	105 0 7	105 0 7	101 0 15	101 0 15	101 0 15	100 0 15	100 0 15	93 0 31	92 0 31	92 0 31	91 0 31	90 0 31	90 0 31	89 0 31	88 0 31	87 0 31	86 0 31	73 0 63	72 0 63	71 0 63	70 0 63	69 0 63	68 0 63	67 0 63	65 0 63	64 0 63	63 0 63	61 0 63	60 0 63	58 0 63	57 0 63	55 0 63	53 0 63	34 0 127	33 0 127	32 0 127	30 0 127	29 0 127	27 0 127	25 0 127	23 0 127	22 0 127	19 0 127	17 0 127	15 0 127	12 0 127	9 0 127	5 0 127	6 0 127	0 0 255	0 0 255	0 0 255	0 0 255	0 0 255	0 0 255	0 0 255	0 0 255	0 0 255	0 0 255	0 0 255	0 0 255	0 0 255	0 0 255	0 0 255	0 0 255	0 0 255	0 0 255	0 0 255	0 0 255	0 0 255	0 0 255	0 0 255	0 0 255	0 0 255	0 0 255	0 0 255	0 0 255	0 0 255	0 0 255	0 0 255	0 0 255	0 0 255	0 0 255	0 0 255	0 0 255	0 0 255	0 0 255	0 0 255	0 0 255	0 0 255	0 0 255	0 0 255	0 0 255	0 0 255	0 0 255	0 0 255	0 0 255	0 0 255	0 0 255	0 0 255	0 0 255	0 0 255	0 0 255	0 0 255	0 0 255	0 0 255	0 0 255	0 0 255	0 0 255	0 0 255	0 0 255	0 0 255	0 0 255	0 0 255	0 0 255	0 0 255	0 0 255	0 0 255	0 0 255	0 0 255	0 0 255	0 0 255	0 0 255	0 0 255	0 0 255	0 0 255	
0 0 255	0 0 255	0 0 255	0 0 255	0 0 255	0 0 255	0 0 255	0 0 255	0 0 255	0 0 255	0 0 255	0 0 255	0 0 255	0 0 255	0 0 255	0 0 255	0 0 255	0 0 255	0 0 255	0 0 255	0 0 255	0 0 255	0 0 255	0 0 255	0 0 255	0 0 255	0 0 255	0 0 255	0 0 255	0 0 255	0 0 255	0 0 255	0 0 255	0 0 255	0 0 255	0 0 255	0 0 255	0 0 255	0 0 255	0 0 255	0 0 255	0 0 255	0 0 255	0 0 255	0 0 255	0 0 255	0 0 255	0 0 255	0 0 255	0 0 255	0 0 255	0 0 255	0 0 255	0 0 255	0 0 255	0 0 255	0 0 255	0 0 255	0 0 255	0 0 255	0 0 255	0 0 255	0 0 255	0 0 255	0 0 255	0 0 255	0 0 255	0 0 255	0 0 255	0 0 255	0 0 255	0 0 255	0 0 255	0 0 255	0 0 255	0 0 255	6 0 127	5 0 127	9 0 127	12 0 127	14 0 127	17 0 127	19 0 127	21 0 127	23 0 127	25 0 127	27 0 127	28 0 127	30 0 127	31 0 127	32 0 127	34 0 127	53 0 63	54 0 63	56 0 63	58 0 63	59 0 63	61 0 63	62 0 63	63 0 63	65 0 63	66 0 63	67 0 63	68 0 63	69 0 63	70 0 63	71 0 63	72 0 63	85 0 31	86 0 31	87 0 31	88 0 31	89 0 31	89 0 31	90 0 31	91 0 31	91 0 31	92 0 31	99 0 15	99 0 15	100 0 15	100 0 15	100 0 15	101 0 15	104 0 7	104 0 7	104 0 7	104 0 7	104 0 7	104 0 7	104 0 7	101 0 15	100 0 15	100 0 15	100 0 15	99 0 15	99 0 15	92 0 31	91 0 31	91 0 31	90 0 31	89 0 31	89 0 31	88 0 31	87 0 31	86 0 31	85 0 31	72 0 63	71 0 63	70 0 63	69 0 63	68 0 63	67 0 63	66 0 63	65 0 63	63 0 63	62 0 63	61 0 63	59 0 63	58 0 63	56 0 63	54 0 63	53 0 63	34 0 127	32 0 127	31 0 127	30 0 127	28 0 127	27 0 127	25 0 127	23 0 127	21 0 127	19 0 127	17 0 127	14 0 127	12 0 127	9 0 127	5 0 127	6 0 127	0 0 255	0 0 255	0 0 255	0 0 255	0 0 255	0 0 255	0 0 255	0 0 255	0 0 255	0 0 255	0 0 255	0 0 255	0 0 255	0 0 255	0 0 255	0 0 255	0 0 255	0 0 255	0 0 255	0 0 255	0 0 255	0 0 255	0 0 255	0 0 255	0 0 255	0 0 255	0 0 255	0 0 255	0 0 255	0 0 255	0 0 255	0 0 255	0 0 255	0 0 255	0 0 255	0 0 255	0 0 255	0 0 255	0 0 255	0 0 255	0 0 255	0 0 255	0 0 255	0 0 255	0 0 255	0 0 255	0 0 255	0 0 255	0 0 255	0 0 255	0 0 255	0 0 255	0 0 255	0 0 255	0 0 255	0 0 255	0 0 255	0 0 255	0 0 255	0 0 255	0 0 255	0 0 255	0 0 255	0 0 255	0 0 255	0 0 255	0 0 255	0 0 255	0 0 255	0 0 255	0 0 255	0 0 255	0 0 255	0 0 255	0 0 255	0 0 255	0 0 255	
0 0 255	0 0 255	0 0 255	0 0 255	0 0 255	0 0 255	0 0 255	0 0 255	0 0 255	0 0 255	0 0 255	0 0 255	0 0 255	0 0 255	0 0 255	0 0 255	0 0 255	0 0 255	0 0 255	0 0 255	0 0 255	0 0 255	0 0 255	0 0 255	0 0 255	0 0 255	0 0 255	0 0 255	0 0 255	0 0 255	0 0 255	0 0 255	0 0 255	0 0 255	0 0 255	0 0 255	0 0 255	0 0 255	0 0 255	0 0 255	0 0 255	0 0 255	0 0 255	0 0 255	0 0 255	0 0 255	0 0 255	0 0 255	0 0 255	0 0 255	0 0 255	0 0 255	0 0 255	0 0 255	0 0 255	0 0 255	0 0 255	0 0 255	0 0 255	0 0 255	0 0 255	0 0 255	0 0 255	0 0 255	0 0 255	0 0 255	0 0 255	0 0 255	0 0 255	0 0 255	0 0 255	0 0 255	0 0 255	0 0 255	0 0 255	0 0 255	6 0 127	4 0 127	8 0 127	11 0 127	14 0 127	17 0 127	19 0 127	21 0 127	23 0 127	25 0 127	26 0 127	28 0 127	29 0 127	31 0 127	32 0 127	33 0 127	52 0 63	54 0 63	55 0 63	57 0 63	58 0 63	60 0 63	61 0 63	63 0 63	64 0 63	65 0 63	66 0 63	67 0 63	68 0 63	69 0 63	70 0 63	71 0 63	72 0 63	85 0 31	86 0 31	87 0 31	88 0 31	88 0 31	89 0 31	90 0 31	90 0 31	91 0 31	91 0 31	98 0 15	99 0 15	99 0 15	99 0 15	99 0 15	100 0 15	103 0 7	103 0 7	103 0 7	103 0 7	103 0 7	100 0 15	99 0 15	99 0 15	99 0 15	99 0 15	98 0 15	91 0 31	91 0 31	90 0 31	90 0 31	89 0 31	88 0 31	88 0 31	87 0 31	86 0 31	85 0 31	72 0 63	71 0 63	70 0 63	69 0 63	68 0 63	67 0 63	66 0 63	65 0 63	64 0 63	63 0 63	61 0 63	60 0 63	58 0 63	57 0 63	55 0 63	54 0 63	52 0 63	33 0 127	32 0 127	31 0 127	29 0 127	28 0 127	26 0 127	25 0 127	23 0 127	21 0 127	19 0 127	17 0 127	14 0 127	11 0 127	8 0 127	4 0 127	6 0 127	0 0 255	0 0 255	0 0 255	0 0 255	0 0 255	0 0 255	0 0 255	0 0 255	0 0 255	0 0 255	0 0 255	0 0 255	0 0 255	0 0 255	0 0 255	0 0 255	0 0 255	0 0 255	0 0 255	0 0 255	0 0 255	0 0 255	0 0 255	0 0 255	0 0 255	0 0 255	0 0 255	0 0 255	0 0 255	0 0 255	0 0 255	0 0 255	0 0 255	0 0 255	0 0 255	0 0 255	0 0 255	0 0 255	0 0 255	0 0 255	0 0 255	0 0 255	0 0 255	0 0 255	0 0 255	0 0 255	0 0 255	0 0 255	0 0 255	0 0 255	0 0 255	0 0 255	0 0 255	0 0 255	0 0 255	0 0 255	0 0 255	0 0 255	0 0 255	0 0 255	0 0 255	0 0 255	0 0 255	0 0 255	0 0 255	0 0 255	0 0 255	0 0 255	0 0 255	0 0 255	0 0 255	0 0 255	0 0 255	0 0 255	0 0 255	0 0 255	0 0 255	
0 0 255	0 0 255	0 0 255	0 0 255	0 0 255	0 0 255	0 0 255	0 0 255	0 0 255	0 0 255	0 0 255	0 0 255	0 0 255	0 0 255	0 0 255	0 0 255	0 0 255	0 0 255	0 0 255	0 0 255	0 0 255	0 0 255	0 0 255	0 0 255	0 0 255	0 0 255	0 0 255	0 0 255	0 0 255	0 0 255	0 0 255	0 0 255	0 0 255	0 0 255	0 0 255	0 0 255	0 0 255	0 0 255	0 0 255	0 0 255	0 0 255	0 0 255	0 0 255	0 0 255	0 0 255	0 0 255	0 0 255	0 0 255	0 0 255	0 0 255	0 0 255	0 0 255	0 0 255	0 0 255	0 0 255	0 0 255	0 0 255	0 0 255	0 0 255	0 0 255	0 0 255	0 0 255	0 0 255	0 0 255	0 0 255	0 0 255	0 0 255	0 0 255	0 0 255	0 0 255	0 0 255	0 0 255	0 0 255	0 0 255	0 0 255	0 0 255	6 0 127	4 0 127	8 0 127	11 0 127	14 0 127	16 0 127	19 0 127	21 0 127	22 0 127	24 0 127	26 0 127	27 0 127	29 0 127	30 0 127	32 0 127	33 0 127	51 0 63	53 0 63	55 0 63	56 0 63	58 0 63	59 0 63	61 0 63	62 0 63	63 0 63	64 0 63	65 0 63	67 0 63	68 0 63	69 0 63	70 0 63	70 0 63	71 0 63	84 0 31	85 0 31	86 0 31	87 0 31	87 0 31	88 0 31	89 0 31	89 0 31	90 0 31	90 0 31	97 0 15	97 0 15	98 0 15	98 0 15	98 0 15	98 0 15	99 0 15	99 0 15	99 0 15	99 0 15	99 0 15	98 0 15	98 0 15	98 0 15	98 0 15	97 0 15	97 0 15	90 0 31	90 0 31	89 0 31	89 0 31	88 0 31	87 0 31	87 0 31	86 0 31	85 0 31	84 0 31	71 0 63	70 0 63	70 0 63	69 0 63	68 0 63	67 0 63	65 0 63	64 0 63	63 0 63	62 0 63	61 0 63	59 0 63	58 0 63	56 0 63	55 0 63	53 0 63	51 0 63	33 0 127	32 0 127	30 0 127	29 0 127	27 0 127	26 0 127	24 0 127	22 0 127	21 0 127	19 0 127	16 0 127	14 0 127	11 0 127	8 0 127	4 0 127	6 0 127	0 0 255	0 0 255	0 0 255	0 0 255	0 0 255	0 0 255	0 0 255	0 0 255	0 0 255	0 0 255	0 0 255	0 0 255	0 0 255	0 0 255	0 0 255	0 0 255	0 0 255	0 0 255	0 0 255	0 0 255	0 0 255	0 0 255	0 0 255	0 0 255	0 0 255	0 0 255	0 0 255	0 0 255	0 0 255	0 0 255	0 0 255	0 0 255	0 0 255	0 0 255	0 0 255	0 0 255	0 0 255	0 0 255	0 0 255	0 0 255	0 0 255	0 0 255	0 0 255	0 0 255	0 0 255	0 0 255	0 0 255	0 0 255	0 0 255	0 0 255	0 0 255	0 0 255	0 0 255	0 0 255	0 0 255	0 0 255	0 0 255	0 0 255	0 0 255	0 0 255	0 0 255	0 0 255	0 0 255	0 0 255	0 0 255	0 0 255	0 0 255	0 0 255	0 0 255	0 0 255	0 0 255	0 0 255	0 0 255	0 0 255	0 0 255	0 0 255	0 0 255	
0 0 255	0 0 255	0 0 255	0 0 255	0 0 255	0 0 255	0 0 255	0 0 255	0 0 255	0 0 255	0 0 255	0 0 255	0 0 255	0 0 255	0 0 255	0 0 255	0 0 255	0 0 255	0 0 255	0 0 255	0 0 255	0 0 255	0 0 255	0 0 255	0 0 255	0 0 255	0 0 255	0 0 255	0 0 255	0 0 255	0 0 255	0 0 255	0 0 255	0 0 255	0 0 255	0 0 255	0 0 255	0 0 255	0 0 255	0 0 255	0 0 255	0 0 255	0 0 255	0 0 255	0 0 255	0 0 255	0 0 255	0 0 255	0 0 255	0 0 255	0 0 255	0 0 255	0 0 255	0 0 255	0 0 255	0 0 255	0 0 255	0 0 255	0 0 255	0 0 255	0 0 255	0 0 255	0 0 255	0 0 255	0 0 255	0 0 255	0 0 255	0 0 255	0 0 255	0 0 255	0 0 255	0 0 255	0 0 255	0 0 255	0 0 255	0 0 255	6 0 127	4 0 127	8 0 127	11 0 127	14 0 127	16 0 127	18 0 127	20 0 127	22 0 127	24 0 127	25 0 127	27 0 127	28 0 127	30 0 127	31 0 127	32 0 127	51 0 63	52 0 63	54 0 63	55 0 63	57 0 63	58 0 63	60 0 63	61 0 63	62 0 63	63 0 63	65 0 63	66 0 63	67 0 63	68 0 63	69 0 63	70 0 63	70 0 63	83 0 31	84 0 31	85 0 31	86 0 31	86 0 31	87 0 31	87 0 31	88 0 31	89 0 31	89 0 31	89 0 31	96 0 15	97 0 15	97 0 15	97 0 15	97 0 15	97 0 15	97 0 15	98 0 15	97 0 15	97 0 15	97 0 15	97 0 15	97 0 15	97 0 15	96 0 15	89 0 31	89 0 31	89 0 31	88 0 31	87 0 31	87 0 31	86 0 31	86 0 31	85 0 31	84 0 31	83 0 31	70 0 63	70 0 63	69 0 63	68 0 63	67 0 63	66 0 63	65 0 63	63 0 63	62 0 63	61 0 63	60 0 63	58 0 63	57 0 63	55 0 63	54 0 63	52 0 63	51 0 63	32 0 127	31 0 127	30 0 127	28 0 127	27 0 127	25 0 127	24 0 127	22 0 127	20 0 127	18 0 127	16 0 127	14 0 127	11 0 127	8 0 127	4 0 127	6 0 127	0 0 255	0 0 255	0 0 255	0 0 255	0 0 255	0 0 255	0 0 255	0 0 255	0 0 255	0 0 255	0 0 255	0 0 255	0 0 255	0 0 255	0 0 255	0 0 255	0 0 255	0 0 255	0 0 255	0 0 255	0 0 255	0 0 255	0 0 255	0 0 255	0 0 255	0 0 255	0 0 255	0 0 255	0 0 255	0 0 255	0 0 255	0 0 255	0 0 255	0 0 255	0 0 255	0 0 255	0 0 255	0 0 255	0 0 255	0 0 255	0 0 255	0 0 255	0 0 255	0 0 255	0 0 255	0 0 255	0 0 255	0 0 255	0 0 255	0 0 255	0 0 255	0 0 255	0 0 255	0 0 255	0 0 255	0 0 255	0 0 255	0 0 255	0 0 255	0 0 255	0 0 255	0 0 255	0 0 255	0 0 255	0 0 255	0 0 255	0 0 255	0 0 255	0 0 255	0 0 255	0 0 255	0 0 255	0 0 255	0 0 255	0 0 255	0 0 255	0 0 255	
0 0 255	0 0 255	0 0 255	0 0 255	0 0 255	0 0 255	0 0 255	0 0 255	0 0 255	0 0 255	0 0 255	0 0 255	0 0 255	0 0 255	0 0 255	0 0 255	0 0 255	0 0 255	0 0 255	0 0 255	0 0 255	0 0 255	0 0 255	0 0 255	0 0 255	0 0 255	0 0 255	0 0 255	0 0 255	0 0 255	0 0 255	0 0 255	0 0 255	0 0 255	0 0 255	0 0 255	0 0 255	0 0 255	0 0 255	0 0 255	0 0 255	0 0 255	0 0 255	0 0 255	0 0 255	0 0 255	0 0 255	0 0 255	0 0 255	0 0 255	0 0 255	0 0 255	0 0 255	0 0 255	0 0 255	0 0 255	0 0 255	0 0 255	0 0 255	0 0 255	0 0 255	0 0 255	0 0 255	0 0 255	0 0 255	0 0 255	0 0 255	0 0 255	0 0 255	0 0 255	0 0 255	0 0 255	0 0 255	0 0 255	0 0 255	0 0 255	6 0 127	4 0 127	7 0 127	10 0 127	13 0 127	16 0 127	18 0 127	20 0 127	22 0 127	23 0 127	25 0 127	26 0 127	28 0 127	29 0 127	31 0 127	32 0 127	50 0 63	51 0 63	53 0 63	55 0 63	56 0 63	58 0 63	59 0 63	60 0 63	61 0 63	63 0 63	64 0 63	65 0 63	66 0 63	67 0 63	68 0 63	69 0 63	69 0 63	82 0 31	83 0 31	84 0 31	84 0 31	85 0 31	86 0 31	86 0 31	87 0 31	87 0 31	88 0 31	88 0 31	95 0 15	95 0 15	96 0 15	96 0 15	96 0 15	96 0 15	96 0 15	96 0 15	96 0 15	96 0 15	96 0 15	96 0 15	96 0 15	95 0 15	95 0 15	88 0 31	88 0 31	87 0 31	87 0 31	86 0 31	86 0 31	85 0 31	84 0 31	84 0 31	83 0 31	82 0 31	69 0 63	69 0 63	68 0 63	67 0 63	66 0 63	65 0 63	64 0 63	63 0 63	61 0 63	60 0 63	59 0 63	58 0 63	56 0 63	55 0 63	53 0 63	51 0 63	50 0 63	32 0 127	31 0 127	29 0 127	28 0 127	26 0 127	25 0 127	23 0 127	22 0 127	20 0 127	18 0 127	16 0 127	13 0 127	10 0 127	7 0 127	4 0 127	6 0 127	0 0 255	0 0 255	0 0 255	0 0 255	0 0 255	0 0 255	0 0 255	0 0 255	0 0 255	0 0 255	0 0 255	0 0 255	0 0 255	0 0 255	0 0 255	0 0 255	0 0 255	0 0 255	0 0 255	0 0 255	0 0 255	0 0 255	0 0 255	0 0 255	0 0 255	0 0 255	0 0 255	0 0 255	0 0 255	0 0 255	0 0 255	0 0 255	0 0 255	0 0 255	0 0 255	0 0 255	0 0 255	0 0 255	0 0 255	0 0 255	0 0 255	0 0 255	0 0 255	0 0 255	0 0 255	0 0 255	0 0 255	0 0 255	0 0 255	0 0 255	0 0 255	0 0 255	0 0 255	0 0 255	0 0 255	0 0 255	0 0 255	0 0 255	0 0 255	0 0 255	0 0 255	0 0 255	0 0 255	0 0 255	0 0 255	0 0 255	0 0 255	0 0 255	0 0 255	0 0 255	0 0 255	0 0 255	0 0 255	0 0 255	0 0 255	0 0 255	0 0 255	
0 0 255	0 0 255	0 0 255	0 0 255	0 0 255	0 0 255	0 0 255	0 0 255	0 0 255	0 0 255	0 0 255	0 0 255	0 0 255	0 0 255	0 0 255	0 0 255	0 0 255	0 0 255	0 0 255	0 0 255	0 0 255	0 0 255	0 0 255	0 0 255	0 0 255	0 0 255	0 0 255	0 0 255	0 0 255	0 0 255	0 0 255	0 0 255	0 0 255	0 0 255	0 0 255	0 0 255	0 0 255	0 0 255	0 0 255	0 0 255	0 0 255	0 0 255	0 0 255	0 0 255	0 0 255	0 0 255	0 0 255	0 0 255	0 0 255	0 0 255	0 0 255	0 0 255	0 0 255	0 0 255	0 0 255	0 0 255	0 0 255	0 0 255	0 0 255	0 0 255	0 0 255	0 0 255	0 0 255	0 0 255	0 0 255	0 0 255	0 0 255	0 0 255	0 0 255	0 0 255	0 0 255	0 0 255	0 0 255	0 0 255	0 0 255	0 0 255	6 0 127	3 0 127	7 0 127	10 0 127	13 0 127	15 0 127	17 0 127	19 0 127	21 0 127	23 0 127	24 0 127	26 0 127	27 0 127	29 0 127	30 0 127	31 0 127	49 0 63	51 0 63	52 0 63	54 0 63	55 0 63	57 0 63	58 0 63	59 0 63	61 0 63	62 0 63	63 0 63	64 0 63	65 0 63	66 0 63	67 0 63	68 0 63	68 0 63	69 0 63	82 0 31	83 0 31	83 0 31	84 0 31	85 0 31	85 0 31	86 0 31	86 0 31	87 0 31	87 0 31	88 0 31	94 0 15	94 0 15	95 0 15	95 0 15	95 0 15	95 0 15	95 0 15	95 0 15	95 0 15	95 0 15	95 0 15	94 0 15	94 0 15	88 0 31	87 0 31	87 0 31	86 0 31	86 0 31	85 0 31	85 0 31	84 0 31	83 0 31	83 0 31	82 0 31	69 0 63	68 0 63	68 0 63	67 0 63	66 0 63	65 0 63	64 0 63	63 0 63	62 0 63	61 0 63	59 0 63	58 0 63	57 0 63	55 0 63	54 0 63	52 0 63	51 0 63	49 0 63	31 0 127	30 0 127	29 0 127	27 0 127	26 0 127	24 0 127	23 0 127	21 0 127	19 0 127	17 0 127	15 0 127	13 0 127	10 0 127	7 0 127	3 0 127	6 0 127	0 0 255	0 0 255	0 0 255	0 0 255	0 0 255	0 0 255	0 0 255	0 0 255	0 0 255	0 0 255	0 0 255	0 0 255	0 0 255	0 0 255	0 0 255	0 0 255	0 0 255	0 0 255	0 0 255	0 0 255	0 0 255	0 0 255	0 0 255	0 0 255	0 0 255	0 0 255	0 0 255	0 0 255	0 0 255	0 0 255	0 0 255	0 0 255	0 0 255	0 0 255	0 0 255	0 0 255	0 0 255	0 0 255	0 0 255	0 0 255	0 0 255	0 0 255	0 0 255	0 0 255	0 0 255	0 0 255	0 0 255	0 0 255	0 0 255	0 0 255	0 0 255	0 0 255	0 0 255	0 0 255	0 0 255	0 0 255	0 0 255	0 0 255	0 0 255	0 0 255	0 0 255	0 0 255	0 0 255	0 0 255	0 0 255	0 0 255	0 0 255	0 0 255	0 0 255	0 0 255	0 0 255	0 0 255	0 0 255	0 0 255	0 0 255	0 0 255	0 0 255	
0 0 255	0 0 255	0 0 255	0 0 255	0 0 255	0 0 255	0 0 255	0 0 255	0 0 255	0 0 255	0 0 255	0 0 255	0 0 255	0 0 255	0 0 255	0 0 255	0 0 255	0 0 255	0 0 255	0 0 255	0 0 255	0 0 255	0 0 255	0 0 255	0 0 255	0 0 255	0 0 255	0 0 255	0 0 255	0 0 255	0 0 255	0 0 255	0 0 255	0 0 255	0 0 255	0 0 255	0 0 255	0 0 255	0 0 255	0 0 255	0 0 255	0 0 255	0 0 255	0 0 255	0 0 255	0 0 255	0 0 255	0 0 255	0 0 255	0 0 255	0 0 255	0 0 255	0 0 255	0 0 255	0 0 255	0 0 255	0 0 255	0 0 255	0 0 255	0 0 255	0 0 255	0 0 255	0 0 255	0 0 255	0 0 255	0 0 255	0 0 255	0 0 255	0 0 255	0 0 255	0 0 255	0 0 255	0 0 255	0 0 255	0 0 255	0 0 255	6 0 127	3 0 127	7 0 127	10 0 127	12 0 127	15 0 127	17 0 127	19 0 127	21 0 127	22 0 127	24 0 127	25 0 127	27 0 127	28 0 127	29 0 127	31 0 127	48 0 63	50 0 63	51 0 63	53 0 63	54 0 63	56 0 63	57 0 63	58 0 63	60 0 63	61 0 63	62 0 63	63 0 63	64 0 63	65 0 63	66 0 63	67 0 63	68 0 63	68 0 63	81 0 31	81 0 31	82 0 31	83 0 31	83 0 31	84 0 31	85 0 31	85 0 31	86 0 31	86 0 31	86 0 31	87 0 31	93 0 15	93 0 15	94 0 15	94 0 15	94 0 15	94 0 15	94 0 15	94 0 15	94 0 15	93 0 15	93 0 15	87 0 31	86 0 31	86 0 31	86 0 31	85 0 31	85 0 31	84 0 31	83 0 31	83 0 31	82 0 31	81 0 31	81 0 31	68 0 63	68 0 63	67 0 63	66 0 63	65 0 63	64 0 63	63 0 63	62 0 63	61 0 63	60 0 63	58 0 63	57 0 63	56 0 63	54 0 63	53 0 63	51 0 63	50 0 63	48 0 63	31 0 127	29 0 127	28 0 127	27 0 127	25 0 127	24 0 127	22 0 127	21 0 127	19 0 127	17 0 127	15 0 127	12 0 127	10 0 127	7 0 127	3 0 127	6 0 127	0 0 255	0 0 255	0 0 255	0 0 255	0 0 255	0 0 255	0 0 255	0 0 255	0 0 255	0 0 255	0 0 255	0 0 255	0 0 255	0 0 255	0 0 255	0 0 255	0 0 255	0 0 255	0 0 255	0 0 255	0 0 255	0 0 255	0 0 255	0 0 255	0 0 255	0 0 255	0 0 255	0 0 255	0 0 255	0 0 255	0 0 255	0 0 255	0 0 255	0 0 255	0 0 255	0 0 255	0 0 255	0 0 255	0 0 255	0 0 255	0 0 255	0 0 255	0 0 255	0 0 255	0 0 255	0 0 255	0 0 255	0 0 255	0 0 255	0 0 255	0 0 255	0 0 255	0 0 255	0 0 255	0 0 255	0 0 255	0 0 255	0 0 255	0 0 255	0 0 255	0 0 255	0 0 255	0 0 255	0 0 255	0 0 255	0 0 255	0 0 255	0 0 255	0 0 255	0 0 255	0 0 255	0 0 255	0 0 255	0 0 255	0 0 255	0 0 255	0 0 255	
0 0 255	0 0 255	0 0 255	0 0 255	0 0 255	0 0 255	0 0 255	0 0 255	0 0 255	0 0 255	0 0 255	0 0 255	0 0 255	0 0 255	0 0 255	0 0 255	0 0 255	0 0 255	0 0 255	0 0 255	0 0 255	0 0 255	0 0 255	0 0 255	0 0 255	0 0 255	0 0 255	0 0 255	0 0 255	0 0 255	0 0 255	0 0 255	0 0 255	0 0 255	0 0 255	0 0 255	0 0 255	0 0 255	0 0 255	0 0 255	0 0 255	0 0 255	0 0 255	0 0 255	0 0 255	0 0 255	0 0 255	0 0 255	0 0 255	0 0 255	0 0 255	0 0 255	0 0 255	0 0 255	0 0 255	0 0 255	0 0 255	0 0 255	0 0 255	0 0 255	0 0 255	0 0 255	0 0 255	0 0 255	0 0 255	0 0 255	0 0 255	0 0 255	0 0 255	0 0 255	0 0 255	0 0 255	0 0 255	0 0 255	0 0 255	0 0 255	6 0 127	2 0 127	6 0 127	9 0 127	12 0 127	14 0 127	16 0 127	18 0 127	20 0 127	22 0 127	23 0 127	25 0 127	26 0 127	28 0 127	29 0 127	30 0 127	47 0 63	49 0 63	50 0 63	52 0 63	53 0 63	55 0 63	56 0 63	57 0 63	59 0 63	60 0 63	61 0 63	62 0 63	63 0 63	64 0 63	65 0 63	66 0 63	67 0 63	67 0 63	79 0 31	80 0 31	81 0 31	82 0 31	82 0 31	83 0 31	83 0 31	84 0 31	84 0 31	85 0 31	85 0 31	85 0 31	86 0 31	86 0 31	92 0 15	92 0 15	92 0 15	92 0 15	92 0 15	92 0 15	92 0 15	86 0 31	86 0 31	85 0 31	85 0 31	85 0 31	84 0 31	84 0 31	83 0 31	83 0 31	82 0 31	82 0 31	81 0 31	80 0 31	79 0 31	67 0 63	67 0 63	66 0 63	65 0 63	64 0 63	63 0 63	62 0 63	61 0 63	60 0 63	59 0 63	57 0 63	56 0 63	55 0 63	53 0 63	52 0 63	50 0 63	49 0 63	47 0 63	30 0 127	29 0 127	28 0 127	26 0 127	25 0 127	23 0 127	22 0 127	20 0 127	18 0 127	16 0 127	14 0 127	12 0 127	9 0 127	6 0 127	2 0 127	6 0 127	0 0 255	0 0 255	0 0 255	0 0 255	0 0 255	0 0 255	0 0 255	0 0 255	0 0 255	0 0 255	0 0 255	0 0 255	0 0 255	0 0 255	0 0 255	0 0 255	0 0 255	0 0 255	0 0 255	0 0 255	0 0 255	0 0 255	0 0 255	0 0 255	0 0 255	0 0 255	0 0 255	0 0 255	0 0 255	0 0 255	0 0 255	0 0 255	0 0 255	0 0 255	0 0 255	0 0 255	0 0 255	0 0 255	0 0 255	0 0 255	0 0 255	0 0 255	0 0 255	0 0 255	0 0 255	0 0 255	0 0 255	0 0 255	0 0 255	0 0 255	0 0 255	0 0 255	0 0 255	0 0 255	0 0 255	0 0 255	0 0 255	0 0 255	0 0 255	0 0 255	0 0 255	0 0 255	0 0 255	0 0 255	0 0 255	0 0 255	0 0 255	0 0 255	0 0 255	0 0 255	0 0 255	0 0 255	0 0 255	0 0 255	0 0 255	0 0 255	0 0 255	
0 0 255	0 0 255	0 0 255	0 0 255	0 0 255	0 0 255	0 0 255	0 0 255	0 0 255	0 0 255	0 0 255	0 0 255	0 0 255	0 0 255	0 0 255	0 0 255	0 0 255	0 0 255	0 0 255	0 0 255	0 0 255	0 0 255	0 0 255	0 0 255	0 0 255	0 0 255	0 0 255	0 0 255	0 0 255	0 0 255	0 0 255	0 0 255	0 0 255	0 0 255	0 0 255	0 0 255	0 0 255	0 0 255	0 0 255	0 0 255	0 0 255	0 0 255	0 0 255	0 0 255	0 0 255	0 0 255	0 0 255	0 0 255	0 0 255	0 0 255	0 0 255	0 0 255	0 0 255	0 0 255	0 0 255	0 0 255	0 0 255	0 0 255	0 0 255	0 0 255	0 0 255	0 0 255	0 0 255	0 0 255	0 0 255	0 0 255	0 0 255	0 0 255	0 0 255	0 0 255	0 0 255	0 0 255	0 0 255	0 0 255	0 0 255	0 0 255	6 0 127	2 0 127	6 0 127	9 0 127	11 0 127	14 0 127	16 0 127	18 0 127	20 0 127	21 0 127	23 0 127	24 0 127	26 0 127	27 0 127	28 0 127	30 0 127	46 0 63	48 0 63	50 0 63	51 0 63	53 0 63	54 0 63	55 0 63	57 0 63	58 0 63	59 0 63	60 0 63	61 0 63	62 0 63	63 0 63	64 0 63	65 0 63	66 0 63	66 0 63	67 0 63	79 0 31	80 0 31	81 0 31	81 0 31	82 0 31	82 0 31	83 0 31	83 0 31	84 0 31	84 0 31	84 0 31	84 0 31	85 0 31	85 0 31	85 0 31	85 0 31	85 0 31	85 0 31	85 0 31	85 0 31	85 0 31	84 0 31	84 0 31	84 0 31	84 0 31	83 0 31	83 0 31	82 0 31	82 0 31	81 0 31	81 0 31	80 0 31	79 0 31	67 0 63	66 0 63	66 0 63	65 0 63	64 0 63	63 0 63	62 0 63	61 0 63	60 0 63	59 0 63	58 0 63	57 0 63	55 0 63	54 0 63	53 0 63	51 0 63	50 0 63	48 0 63	46 0 63	30 0 127	28 0 127	27 0 127	26 0 127	24 0 127	23 0 127	21 0 127	20 0 127	18 0 127	16 0 127	14 0 127	11 0 127	9 0 127	6 0 127	2 0 127	6 0 127	0 0 255	0 0 255	0 0 255	0 0 255	0 0 255	0 0 255	0 0 255	0 0 255	0 0 255	0 0 255	0 0 255	0 0 255	0 0 255	0 0 255	0 0 255	0 0 255	0 0 255	0 0 255	0 0 255	0 0 255	0 0 255	0 0 255	0 0 255	0 0 255	0 0 255	0 0 255	0 0 255	0 0 255	0 0 255	0 0 255	0 0 255	0 0 255	0 0 255	0 0 255	0 0 255	0 0 255	0 0 255	0 0 255	0 0 255	0 0 255	0 0 255	0 0 255	0 0 255	0 0 255	0 0 255	0 0 255	0 0 255	0 0 255	0 0 255	0 0 255	0 0 255	0 0 255	0 0 255	0 0 255	0 0 255	0 0 255	0 0 255	0 0 255	0 0 255	0 0 255	0 0 255	0 0 255	0 0 255	0 0 255	0 0 255	0 0 255	0 0 255	0 0 255	0 0 255	0 0 255	0 0 255	0 0 255	0 0 255	0 0 255	0 0 255	0 0 255	0 0 255	
0 0 255	0 0 255	0 0 255	0 0 255	0 0 255	0 0 255	0 0 255	0 0 255	0 0 255	0 0 255	0 0 255	0 0 255	0 0 255	0 0 255	0 0 255	0 0 255	0 0 255	0 0 255	0 0 255	0 0 255	0 0 255	0 0 255	0 0 255	0 0 255	0 0 255	0 0 255	0 0 255	0 0 255	0 0 255	0 0 255	0 0 255	0 0 255	0 0 255	0 0 255	0 0 255	0 0 255	0 0 255	0 0 255	0 0 255	0 0 255	0 0 255	0 0 255	0 0 255	0 0 255	0 0 255	0 0 255	0 0 255	0 0 255	0 0 255	0 0 255	0 0 255	0 0 255	0 0 255	0 0 255	0 0 255	0 0 255	0 0 255	0 0 255	0 0 255	0 0 255	0 0 255	0 0 255	0 0 255	0 0 255	0 0 255	0 0 255	0 0 255	0 0 255	0 0 255	0 0 255	0 0 255	0 0 255	0 0 255	0 0 255	0 0 255	0 0 255	6 0 127	1 0 127	5 0 127	8 0 127	11 0 127	13 0 127	15 0 127	17 0 127	19 0 127	21 0 127	22 0 127	24 0 127	25 0 127	26 0 127	28 0 127	29 0 127	45 0 63	47 0 63	49 0 63	50 0 63	52 0 63	53 0 63	54 0 63	56 0 63	57 0 63	58 0 63	59 0 63	60 0 63	61 0 63	62 0 63	63 0 63	64 0 63	65 0 63	65 0 63	66 0 63	78 0 31	79 0 31	79 0 31	80 0 31	81 0 31	81 0 31	82 0 31	82 0 31	82 0 31	83 0 31	83 0 31	83 0 31	83 0 31	84 0 31	84 0 31	84 0 31	84 0 31	84 0 31	84 0 31	84 0 31	83 0 31	83 0 31	83 0 31	83 0 31	82 0 31	82 0 31	82 0 31	81 0 31	81 0 31	80 0 31	79 0 31	79 0 31	78 0 31	66 0 63	65 0 63	65 0 63	64 0 63	63 0 63	62 0 63	61 0 63	60 0 63	59 0 63	58 0 63	57 0 63	56 0 63	54 0 63	53 0 63	52 0 63	50 0 63	49 0 63	47 0 63	45 0 63	29 0 127	28 0 127	26 0 127	25 0 127	24 0 127	22 0 127	21 0 127	19 0 127	17 0 127	15 0 127	13 0 127	11 0 127	8 0 127	5 0 127	1 0 127	6 0 127	0 0 255	0 0 255	0 0 255	0 0 255	0 0 255	0 0 255	0 0 255	0 0 255	0 0 255	0 0 255	0 0 255	0 0 255	0 0 255	0 0 255	0 0 255	0 0 255	0 0 255	0 0 255	0 0 255	0 0 255	0 0 255	0 0 255	0 0 255	0 0 255	0 0 255	0 0 255	0 0 255	0 0 255	0 0 255	0 0 255	0 0 255	0 0 255	0 0 255	0 0 255	0 0 255	0 0 255	0 0 255	0 0 255	0 0 255	0 0 255	0 0 255	0 0 255	0 0 255	0 0 255	0 0 255	0 0 255	0 0 255	0 0 255	0 0 255	0 0 255	0 0 255	0 0 255	0 0 255	0 0 255	0 0 255	0 0 255	0 0 255	0 0 255	0 0 255	0 0 255	0 0 255	0 0 255	0 0 255	0 0 255	0 0 255	0 0 255	0 0 255	0 0 255	0 0 255	0 0 255	0 0 255	0 0 255	0 0 255	0 0 255	0 0 255	0 0 255	0 0 255	
0 0 255	0 0 255	0 0 255	0 0 255	0 0 255	0 0 255	0 0 255	0 0 255	0 0 255	0 0 255	0 0 255	0 0 255	0 0 255	0 0 255	0 0 255	0 0 255	0 0 255	0 0 255	0 0 255	0 0 255	0 0 255	0 0 255	0 0 255	0 0 255	0 0 255	0 0 255	0 0 255	0 0 255	0 0 255	0 0 255	0 0 255	0 0 255	0 0 255	0 0 255	0 0 255	0 0 255	0 0 255	0 0 255	0 0 255	0 0 255	0 0 255	0 0 255	0 0 255	0 0 255	0 0 255	0 0 255	0 0 255	0 0 255	0 0 255	0 0 255	0 0 255	0 0 255	0 0 255	0 0 255	0 0 255	0 0 255	0 0 255	0 0 255	0 0 255	0 0 255	0 0 255	0 0 255	0 0 255	0 0 255	0 0 255	0 0 255	0 0 255	0 0 255	0 0 255	0 0 255	0 0 255	0 0 255	0 0 255	0 0 255	0 0 255	0 0 255	6 0 127	0 0 127	4 0 127	7 0 127	10 0 127	12 0 127	15 0 127	17 0 127	18 0 127	20 0 127	22 0 127	23 0 127	25 0 127	26 0 127	27 0 127	28 0 127	30 0 127	46 0 63	48 0 63	49 0 63	51 0 63	52 0 63	53 0 63	55 0 63	56 0 63	57 0 63	58 0 63	59 0 63	60 0 63	61 0 63	62 0 63	63 0 63	64 0 63	64 0 63	65 0 63	66 0 63	77 0 31	78 0 31	79 0 31	79 0 31	80 0 31	80 0 31	81 0 31	81 0 31	81 0 31	82 0 31	82 0 31	82 0 31	82 0 31	82 0 31	83 0 31	83 0 31	83 0 31	82 0 31	82 0 31	82 0 31	82 0 31	82 0 31	81 0 31	81 0 31	81 0 31	80 0 31	80 0 31	79 0 31	79 0 31	78 0 31	77 0 31	66 0 63	65 0 63	64 0 63	64 0 63	63 0 63	62 0 63	61 0 63	60 0 63	59 0 63	58 0 63	57 0 63	56 0 63	55 0 63	53 0 63	52 0 63	51 0 63	49 0 63	48 0 63	46 0 63	30 0 127	28 0 127	27 0 127	26 0 127	25 0 127	23 0 127	22 0 127	20 0 127	18 0 127	17 0 127	15 0 127	12 0 127	10 0 127	7 0 127	4 0 127	0 0 127	6 0 127	0 0 255	0 0 255	0 0 255	0 0 255	0 0 255	0 0 255	0 0 255	0 0 255	0 0 255	0 0 255	0 0 255	0 0 255	0 0 255	0 0 255	0 0 255	0 0 255	0 0 255	0 0 255	0 0 255	0 0 255	0 0 255	0 0 255	0 0 255	0 0 255	0 0 255	0 0 255	0 0 255	0 0 255	0 0 255	0 0 255	0 0 255	0 0 255	0 0 255	0 0 255	0 0 255	0 0 255	0 0 255	0 0 255	0 0 255	0 0 255	0 0 255	0 0 255	0 0 255	0 0 255	0 0 255	0 0 255	0 0 255	0 0 255	0 0 255	0 0 255	0 0 255	0 0 255	0 0 255	0 0 255	0 0 255	0 0 255	0 0 255	0 0 255	0 0 255	0 0 255	0 0 255	0 0 255	0 0 255	0 0 255	0 0 255	0 0 255	0 0 255	0 0 255	0 0 255	0 0 255	0 0 255	0 0 255	0 0 255	0 0 255	0 0 255	0 0 255	0 0 255	
0 0 255	0 0 255	0 0 255	0 0 255	0 0 255	0 0 255	0 0 255	0 0 255	0 0 255	0 0 255	0 0 255	0 0 255	0 0 255	0 0 255	0 0 255	0 0 255	0 0 255	0 0 255	0 0 255	0 0 255	0 0 255	0 0 255	0 0 255	0 0 255	0 0 255	0 0 255	0 0 255	0 0 255	0 0 255	0 0 255	0 0 255	0 0 255	0 0 255	0 0 255	0 0 255	0 0 255	0 0 255	0 0 255	0 0 255	0 0 255	0 0 255	0 0 255	0 0 255	0 0 255	0 0 255	0 0 255	0 0 255	0 0 255	0 0 255	0 0 255	0 0 255	0 0 255	0 0 255	0 0 255	0 0 255	0 0 255	0 0 255	0 0 255	0 0 255	0 0 255	0 0 255	0 0 255	0 0 255	0 0 255	0 0 255	0 0 255	0 0 255	0 0 255	0 0 255	0 0 255	0 0 255	0 0 255	0 0 255	0 0 255	0 0 255	0 0 255	6 0 127	0 0 127	4 0 127	7 0 127	9 0 127	12 0 127	14 0 127	16 0 127	18 0 127	19 0 127	21 0 127	22 0 127	24 0 127	25 0 127	27 0 127	28 0 127	29 0 127	45 0 63	47 0 63	48 0 63	50 0 63	51 0 63	52 0 63	54 0 63	55 0 63	56 0 63	57 0 63	58 0 63	59 0 63	60 0 63	61 0 63	62 0 63	62 0 63	63 0 63	64 0 63	65 0 63	76 0 31	77 0 31	77 0 31	78 0 31	79 0 31	79 0 31	79 0 31	80 0 31	80 0 31	80 0 31	81 0 31	81 0 31	81 0 31	81 0 31	81 0 31	81 0 31	81 0 31	81 0 31	81 0 31	81 0 31	81 0 31	80 0 31	80 0 31	80 0 31	79 0 31	79 0 31	79 0 31	78 0 31	77 0 31	77 0 31	76 0 31	65 0 63	64 0 63	63 0 63	62 0 63	62 0 63	61 0 63	60 0 63	59 0 63	58 0 63	57 0 63	56 0 63	55 0 63	54 0 63	52 0 63	51 0 63	50 0 63	48 0 63	47 0 63	45 0 63	29 0 127	28 0 127	27 0 127	25 0 127	24 0 127	22 0 127	21 0 127	19 0 127	18 0 127	16 0 127	14 0 127	12 0 127	9 0 127	7 0 127	4 0 127	0 0 127	6 0 127	0 0 255	0 0 255	0 0 255	0 0 255	0 0 255	0 0 255	0 0 255	0 0 255	0 0 255	0 0 255	0 0 255	0 0 255	0 0 255	0 0 255	0 0 255	0 0 255	0 0 255	0 0 255	0 0 255	0 0 255	0 0 255	0 0 255	0 0 255	0 0 255	0 0 255	0 0 255	0 0 255	0 0 255	0 0 255	0 0 255	0 0 255	0 0 255	0 0 255	0 0 255	0 0 255	0 0 255	0 0 255	0 0 255	0 0 255	0 0 255	0 0 255	0 0 255	0 0 255	0 0 255	0 0 255	0 0 255	0 0 255	0 0 255	0 0 255	0 0 255	0 0 255	0 0 255	0 0 255	0 0 255	0 0 255	0 0 255	0 0 255	0 0 255	0 0 255	0 0 255	0 0 255	0 0 255	0 0 255	0 0 255	0 0 255	0 0 255	0 0 255	0 0 255	0 0 255	0 0 255	0 0 255	0 0 255	0 0 255	0 0 255	0 0 255	0 0 255	0 0 255	
0 0 255	0 0 255	0 0 255	0 0 255	0 0 255	0 0 255	0 0 255	0 0 255	0 0 255	0 0 255	0 0 255	0 0 255	0 0 255	0 0 255	0 0 255	0 0 255	0 0 255	0 0 255	0 0 255	0 0 255	0 0 255	0 0 255	0 0 255	0 0 255	0 0 255	0 0 255	0 0 255	0 0 255	0 0 255	0 0 255	0 0 255	0 0 255	0 0 255	0 0 255	0 0 255	0 0 255	0 0 255	0 0 255	0 0 255	0 0 255	0 0 255	0 0 255	0 0 255	0 0 255	0 0 255	0 0 255	0 0 255	0 0 255	0 0 255	0 0 255	0 0 255	0 0 255	0 0 255	0 0 255	0 0 255	0 0 255	0 0 255	0 0 255	0 0 255	0 0 255	0 0 255	0 0 255	0 0 255	0 0 255	0 0 255	0 0 255	0 0 255	0 0 255	0 0 255	0 0 255	0 0 255	0 0 255	0 0 255	0 0 255	0 0 255	0 0 255	6 0 127	6 0 127	3 0 127	6 0 127	9 0 127	11 0 127	13 0 127	15 0 127	17 0 127	19 0 127	20 0 127	22 0 127	23 0 127	25 0 127	26 0 127	27 0 127	28 0 127	44 0 63	46 0 63	47 0 63	49 0 63	50 0 63	51 0 63	53 0 63	54 0 63	55 0 63	56 0 63	57 0 63	58 0 63	59 0 63	60 0 63	61 0 63	61 0 63	62 0 63	63 0 63	63 0 63	64 0 63	76 0 31	76 0 31	77 0 31	77 0 31	78 0 31	78 0 31	79 0 31	79 0 31	79 0 31	79 0 31	80 0 31	80 0 31	80 0 31	80 0 31	80 0 31	80 0 31	80 0 31	80 0 31	80 0 31	79 0 31	79 0 31	79 0 31	79 0 31	78 0 31	78 0 31	77 0 31	77 0 31	76 0 31	76 0 31	64 0 63	63 0 63	63 0 63	62 0 63	61 0 63	61 0 63	60 0 63	59 0 63	58 0 63	57 0 63	56 0 63	55 0 63	54 0 63	53 0 63	51 0 63	50 0 63	49 0 63	47 0 63	46 0 63	44 0 63	28 0 127	27 0 127	26 0 127	25 0 127	23 0 127	22 0 127	20 0 127	19 0 127	17 0 127	15 0 127	13 0 127	11 0 127	9 0 127	6 0 127	3 0 127	6 0 127	6 0 127	0 0 255	0 0 255	0 0 255	0 0 255	0 0 255	0 0 255	0 0 255	0 0 255	0 0 255	0 0 255	0 0 255	0 0 255	0 0 255	0 0 255	0 0 255	0 0 255	0 0 255	0 0 255	0 0 255	0 0 255	0 0 255	0 0 255	0 0 255	0 0 255	0 0 255	0 0 255	0 0 255	0 0 255	0 0 255	0 0 255	0 0 255	0 0 255	0 0 255	0 0 255	0 0 255	0 0 255	0 0 255	0 0 255	0 0 255	0 0 255	0 0 255	0 0 255	0 0 255	0 0 255	0 0 255	0 0 255	0 0 255	0 0 255	0 0 255	0 0 255	0 0 255	0 0 255	0 0 255	0 0 255	0 0 255	0 0 255	0 0 255	0 0 255	0 0 255	0 0 255	0 0 255	0 0 255	0 0 255	0 0 255	0 0 255	0 0 255	0 0 255	0 0 255	0 0 255	0 0 255	0 0 255	0 0 255	0 0 255	0 0 255	0 0 255	0 0 255	0 0 255	
0 0 255	0 0 255	0 0 255	0 0 255	0 0 255	0 0 255	0 0 255	0 0 255	0 0 255	0 0 255	0 0 255	0 0 255	0 0 255	0 0 255	0 0 255	0 0 255	0 0 255	0 0 255	0 0 255	0 0 255	0 0 255	0 0 255	0 0 255	0 0 255	0 0 255	0 0 255	0 0 255	0 0 255	0 0 255	0 0 255	0 0 255	0 0 255	0 0 255	0 0 255	0 0 255	0 0 255	0 0 255	0 0 255	0 0 255	0 0 255	0 0 255	0 0 255	0 0 255	0 0 255	0 0 255	0 0 255	0 0 255	0 0 255	0 0 255	0 0 255	0 0 255	0 0 255	0 0 255	0 0 255	0 0 255	0 0 255	0 0 255	0 0 255	0 0 255	0 0 255	0 0 255	0 0 255	0 0 255	0 0 255	0 0 255	0 0 255	0 0 255	0 0 255	0 0 255	0 0 255	0 0 255	0 0 255	0 0 255	0 0 255	0 0 255	0 0 255	6 0 127	6 0 127	2 0 127	5 0 127	8 0 127	10 0 127	13 0 127	15 0 127	16 0 127	18 0 127	20 0 127	21 0 127	23 0 127	24 0 127	25 0 127	26 0 127	28 0 127	43 0 63	45 0 63	46 0 63	48 0 63	49 0 63	50 0 63	52 0 63	53 0 63	54 0 63	55 0 63	56 0 63	57 0 63	58 0 63	59 0 63	60 0 63	60 0 63	61 0 63	62 0 63	62 0 63	63 0 63	64 0 63	75 0 31	75 0 31	76 0 31	76 0 31	77 0 31	77 0 31	78 0 31	78 0 31	78 0 31	78 0 31	79 0 31	79 0 31	79 0 31	79 0 31	79 0 31	79 0 31	79 0 31	78 0 31	78 0 31	78 0 31	78 0 31	77 0 31	77 0 31	76 0 31	76 0 31	75 0 31	75 0 31	64 0 63	63 0 63	62 0 63	62 0 63	61 0 63	60 0 63	60 0 63	59 0 63	58 0 63	57 0 63	56 0 63	55 0 63	54 0 63	53 0 63	52 0 63	50 0 63	49 0 63	48 0 63	46 0 63	45 0 63	43 0 63	28 0 127	26 0 127	25 0 127	24 0 127	23 0 127	21 0 127	20 0 127	18 0 127	16 0 127	15 0 127	13 0 127	10 0 127	8 0 127	5 0 127	2 0 127	6 0 127	6 0 127	0 0 255	0 0 255	0 0 255	0 0 255	0 0 255	0 0 255	0 0 255	0 0 255	0 0 255	0 0 255	0 0 255	0 0 255	0 0 255	0 0 255	0 0 255	0 0 255	0 0 255	0 0 255	0 0 255	0 0 255	0 0 255	0 0 255	0 0 255	0 0 255	0 0 255	0 0 255	0 0 255	0 0 255	0 0 255	0 0 255	0 0 255	0 0 255	0 0 255	0 0 255	0 0 255	0 0 255	0 0 255	0 0 255	0 0 255	0 0 255	0 0 255	0 0 255	0 0 255	0 0 255	0 0 255	0 0 255	0 0 255	0 0 255	0 0 255	0 0 255	0 0 255	0 0 255	0 0 255	0 0 255	0 0 255	0 0 255	0 0 255	0 0 255	0 0 255	0 0 255	0 0 255	0 0 255	0 0 255	0 0 255	0 0 255	0 0 255	0 0 255	0 0 255	0 0 255	0 0 255	0 0 255	0 0 255	0 0 255	0 0 255	0 0 255	0 0 255	0 0 255	
0 0 255	0 0 255	0 0 255	0 0 255	0 0 255	0 0 255	0 0 255	0 0 255	0 0 255	0 0 255	0 0 255	0 0 255	0 0 255	0 0 255	0 0 255	0 0 255	0 0 255	0 0 255	0 0 255	0 0 255	0 0 255	0 0 255	0 0 255	0 0 255	0 0 255	0 0 255	0 0 255	0 0 255	0 0 255	0 0 255	0 0 255	0 0 255	0 0 255	0 0 255	0 0 255	0 0 255	0 0 255	0 0 255	0 0 255	0 0 255	0 0 255	0 0 255	0 0 255	0 0 255	0 0 255	0 0 255	0 0 255	0 0 255	0 0 255	0 0 255	0 0 255	0 0 255	0 0 255	0 0 255	0 0 255	0 0 255	0 0 255	0 0 255	0 0 255	0 0 255	0 0 255	0 0 255	0 0 255	0 0 255	0 0 255	0 0 255	0 0 255	0 0 255	0 0 255	0 0 255	0 0 255	0 0 255	0 0 255	0 0 255	0 0 255	0 0 255	0 0 255	6 0 127	1 0 127	5 0 127	7 0 127	10 0 127	12 0 127	14 0 127	16 0 127	17 0 127	19 0 127	21 0 127	22 0 127	23 0 127	24 0 127	26 0 127	27 0 127	28 0 127	44 0 63	45 0 63	47 0 63	48 0 63	49 0 63	50 0 63	52 0 63	53 0 63	54 0 63	55 0 63	56 0 63	57 0 63	58 0 63	58 0 63	59 0 63	60 0 63	61 0 63	61 0 63	62 0 63	62 0 63	63 0 63	74 0 31	75 0 31	75 0 31	76 0 31	76 0 31	76 0 31	77 0 31	77 0 31	77 0 31	77 0 31	77 0 31	77 0 31	77 0 31	77 0 31	77 0 31	77 0 31	77 0 31	77 0 31	77 0 31	76 0 31	76 0 31	76 0 31	75 0 31	75 0 31	74 0 31	63 0 63	62 0 63	62 0 63	61 0 63	61 0 63	60 0 63	59 0 63	58 0 63	58 0 63	57 0 63	56 0 63	55 0 63	54 0 63	53 0 63	52 0 63	50 0 63	49 0 63	48 0 63	47 0 63	45 0 63	44 0 63	28 0 127	27 0 127	26 0 127	24 0 127	23 0 127	22 0 127	21 0 127	19 0 127	17 0 127	16 0 127	14 0 127	12 0 127	10 0 127	7 0 127	5 0 127	1 0 127	6 0 127	0 0 255	0 0 255	0 0 255	0 0 255	0 0 255	0 0 255	0 0 255	0 0 255	0 0 255	0 0 255	0 0 255	0 0 255	0 0 255	0 0 255	0 0 255	0 0 255	0 0 255	0 0 255	0 0 255	0 0 255	0 0 255	0 0 255	0 0 255	0 0 255	0 0 255	0 0 255	0 0 255	0 0 255	0 0 255	0 0 255	0 0 255	0 0 255	0 0 255	0 0 255	0 0 255	0 0 255	0 0 255	0 0 255	0 0 255	0 0 255	0 0 255	0 0 255	0 0 255	0 0 255	0 0 255	0 0 255	0 0 255	0 0 255	0 0 255	0 0 255	0 0 255	0 0 255	0 0 255	0 0 255	0 0 255	0 0 255	0 0 255	0 0 255	0 0 255	0 0 255	0 0 255	0 0 255	0 0 255	0 0 255	0 0 255	0 0 255	0 0 255	0 0 255	0 0 255	0 0 255	0 0 255	0 0 255	0 0 255	0 0 255	0 0 255	0 0 255	0 0 255	0 0 255	
0 0 255	0 0 255	0 0 255	0 0 255	0 0 255	0 0 255	0 0 255	0 0 255	0 0 255	0 0 255	0 0 255	0 0 255	0 0 255	0 0 255	0 0 255	0 0 255	0 0 255	0 0 255	0 0 255	0 0 255	0 0 255	0 0 255	0 0 255	0 0 255	0 0 255	0 0 255	0 0 255	0 0 255	0 0 255	0 0 255	0 0 255	0 0 255	0 0 255	0 0 255	0 0 255	0 0 255	0 0 255	0 0 255	0 0 255	0 0 255	0 0 255	0 0 255	0 0 255	0 0 255	0 0 255	0 0 255	0 0 255	0 0 255	0 0 255	0 0 255	0 0 255	0 0 255	0 0 255	0 0 255	0 0 255	0 0 255	0 0 255	0 0 255	0 0 255	0 0 255	0 0 255	0 0 255	0 0 255	0 0 255	0 0 255	0 0 255	0 0 255	0 0 255	0 0 255	0 0 255	0 0 255	0 0 255	0 0 255	0 0 255	0 0 255	0 0 255	0 0 255	6 0 127	0 0 127	4 0 127	7 0 127	9 0 127	11 0 127	13 0 127	15 0 127	17 0 127	18 0 127	20 0 127	21 0 127	23 0 127	24 0 127	25 0 127	26 0 127	27 0 127	43 0 63	44 0 63	46 0 63	47 0 63	48 0 63	49 0 63	51 0 63	52 0 63	53 0 63	54 0 63	55 0 63	56 0 63	56 0 63	57 0 63	58 0 63	59 0 63	60 0 63	60 0 63	61 0 63	61 0 63	62 0 63	62 0 63	73 0 31	74 0 31	74 0 31	75 0 31	75 0 31	75 0 31	75 0 31	76 0 31	76 0 31	76 0 31	76 0 31	76 0 31	76 0 31	76 0 31	76 0 31	76 0 31	75 0 31	75 0 31	75 0 31	75 0 31	74 0 31	74 0 31	73 0 31	62 0 63	62 0 63	61 0 63	61 0 63	60 0 63	60 0 63	59 0 63	58 0 63	57 0 63	56 0 63	56 0 63	55 0 63	54 0 63	53 0 63	52 0 63	51 0 63	49 0 63	48 0 63	47 0 63	46 0 63	44 0 63	43 0 63	27 0 127	26 0 127	25 0 127	24 0 127	23 0 127	21 0 127	20 0 127	18 0 127	17 0 127	15 0 127	13 0 127	11 0 127	9 0 127	7 0 127	4 0 127	0 0 127	6 0 127	0 0 255	0 0 255	0 0 255	0 0 255	0 0 255	0 0 255	0 0 255	0 0 255	0 0 255	0 0 255	0 0 255	0 0 255	0 0 255	0 0 255	0 0 255	0 0 255	0 0 255	0 0 255	0 0 255	0 0 255	0 0 255	0 0 255	0 0 255	0 0 255	0 0 255	0 0 255	0 0 255	0 0 255	0 0 255	0 0 255	0 0 255	0 0 255	0 0 255	0 0 255	0 0 255	0 0 255	0 0 255	0 0 255	0 0 255	0 0 255	0 0 255	0 0 255	0 0 255	0 0 255	0 0 255	0 0 255	0 0 255	0 0 255	0 0 255	0 0 255	0 0 255	0 0 255	0 0 255	0 0 255	0 0 255	0 0 255	0 0 255	0 0 255	0 0 255	0 0 255	0 0 255	0 0 255	0 0 255	0 0 255	0 0 255	0 0 255	0 0 255	0 0 255	0 0 255	0 0 255	0 0 255	0 0 255	0 0 255	0 0 255	0 0 255	0 0 255	0 0 255	0 0 255	
0 0 255	0 0 255	0 0 255	0 0 255	0 0 255	0 0 255	0 0 255	0 0 255	0 0 255	0 0 255	0 0 255	0 0 255	0 0 255	0 0 255	0 0 255	0 0 255	0 0 255	0 0 255	0 0 255	0 0 255	0 0 255	0 0 255	0 0 255	0 0 255	0 0 255	0 0 255	0 0 255	0 0 255	0 0 255	0 0 255	0 0 255	0 0 255	0 0 255	0 0 255	0 0 255	0 0 255	0 0 255	0 0 255	0 0 255	0 0 255	0 0 255	0 0 255	0 0 255	0 0 255	0 0 255	0 0 255	0 0 255	0 0 255	0 0 255	0 0 255	0 0 255	0 0 255	0 0 255	0 0 255	0 0 255	0 0 255	0 0 255	0 0 255	0 0 255	0 0 255	0 0 255	0 0 255	0 0 255	0 0 255	0 0 255	0 0 255	0 0 255	0 0 255	0 0 255	0 0 255	0 0 255	0 0 255	0 0 255	0 0 255	0 0 255	0 0 255	0 0 255	6 0 127	3 0 127	3 0 127	6 0 127	8 0 127	10 0 127	12 0 127	14 0 127	16 0 127	18 0 127	19 0 127	20 0 127	22 0 127	23 0 127	24 0 127	25 0 127	26 0 127	42 0 63	43 0 63	44 0 63	46 0 63	47 0 63	48 0 63	49 0 63	51 0 63	52 0 63	53 0 63	54 0 63	54 0 63	55 0 63	56 0 63	57 0 63	58 0 63	58 0 63	59 0 63	60 0 63	60 0 63	61 0 63	61 0 63	62 0 63	72 0 31	73 0 31	73 0 31	74 0 31	74 0 31	74 0 31	74 0 31	74 0 31	75 0 31	75 0 31	75 0 31	75 0 31	75 0 31	74 0 31	74 0 31	74 0 31	74 0 31	74 0 31	73 0 31	73 0 31	72 0 31	62 0 63	61 0 63	61 0 63	60 0 63	60 0 63	59 0 63	58 0 63	58 0 63	57 0 63	56 0 63	55 0 63	54 0 63	54 0 63	53 0 63	52 0 63	51 0 63	49 0 63	48 0 63	47 0 63	46 0 63	44 0 63	43 0 63	42 0 63	26 0 127	25 0 127	24 0 127	23 0 127	22 0 127	20 0 127	19 0 127	18 0 127	16 0 127	14 0 127	12 0 127	10 0 127	8 0 127	6 0 127	3 0 127	3 0 127	6 0 127	0 0 255	0 0 255	0 0 255	0 0 255	0 0 255	0 0 255	0 0 255	0 0 255	0 0 255	0 0 255	0 0 255	0 0 255	0 0 255	0 0 255	0 0 255	0 0 255	0 0 255	0 0 255	0 0 255	0 0 255	0 0 255	0 0 255	0 0 255	0 0 255	0 0 255	0 0 255	0 0 255	0 0 255	0 0 255	0 0 255	0 0 255	0 0 255	0 0 255	0 0 255	0 0 255	0 0 255	0 0 255	0 0 255	0 0 255	0 0 255	0 0 255	0 0 255	0 0 255	0 0 255	0 0 255	0 0 255	0 0 255	0 0 255	0 0 255	0 0 255	0 0 255	0 0 255	0 0 255	0 0 255	0 0 255	0 0 255	0 0 255	0 0 255	0 0 255	0 0 255	0 0 255	0 0 255	0 0 255	0 0 255	0 0 255	0 0 255	0 0 255	0 0 255	0 0 255	0 0 255	0 0 255	0 0 255	0 0 255	0 0 255	0 0 255	0 0 255	0 0 255	0 0 255	
0 0 255	0 0 255	0 0 255	0 0 255	0 0 255	0 0 255	0 0 255	0 0 255	0 0 255	0 0 255	0 0 255	0 0 255	0 0 255	0 0 255	0 0 255	0 0 255	0 0 255	0 0 255	0 0 255	0 0 255	0 0 255	0 0 255	0 0 255	0 0 255	0 0 255	0 0 255	0 0 255	0 0 255	0 0 255	0 0 255	0 0 255	0 0 255	0 0 255	0 0 255	0 0 255	0 0 255	0 0 255	0 0 255	0 0 255	0 0 255	0 0 255	0 0 255	0 0 255	0 0 255	0 0 255	0 0 255	0 0 255	0 0 255	0 0 255	0 0 255	0 0 255	0 0 255	0 0 255	0 0 255	0 0 255	0 0 255	0 0 255	0 0 255	0 0 255	0 0 255	0 0 255	0 0 255	0 0 255	0 0 255	0 0 255	0 0 255	0 0 255	0 0 255	0 0 255	0 0 255	0 0 255	0 0 255	0 0 255	0 0 255	0 0 255	0 0 255	0 0 255	6 0 127	6 0 127	2 0 127	5 0 127	7 0 127	10 0 127	12 0 127	14 0 127	15 0 127	17 0 127	18 0 127	20 0 127	21 0 127	22 0 127	24 0 127	25 0 127	26 0 127	27 0 127	42 0 63	43 0 63	45 0 63	46 0 63	47 0 63	48 0 63	49 0 63	50 0 63	51 0 63	52 0 63	53 0 63	54 0 63	55 0 63	56 0 63	57 0 63	57 0 63	58 0 63	58 0 63	59 0 63	60 0 63	60 0 63	60 0 63	61 0 63	71 0 31	72 0 31	72 0 31	73 0 31	73 0 31	73 0 31	73 0 31	73 0 31	73 0 31	73 0 31	73 0 31	73 0 31	73 0 31	73 0 31	73 0 31	73 0 31	72 0 31	72 0 31	71 0 31	61 0 63	60 0 63	60 0 63	60 0 63	59 0 63	58 0 63	58 0 63	57 0 63	57 0 63	56 0 63	55 0 63	54 0 63	53 0 63	52 0 63	51 0 63	50 0 63	49 0 63	48 0 63	47 0 63	46 0 63	45 0 63	43 0 63	42 0 63	27 0 127	26 0 127	25 0 127	24 0 127	22 0 127	21 0 127	20 0 127	18 0 127	17 0 127	15 0 127	14 0 127	12 0 127	10 0 127	7 0 127	5 0 127	2 0 127	6 0 127	6 0 127	0 0 255	0 0 255	0 0 255	0 0 255	0 0 255	0 0 255	0 0 255	0 0 255	0 0 255	0 0 255	0 0 255	0 0 255	0 0 255	0 0 255	0 0 255	0 0 255	0 0 255	0 0 255	0 0 255	0 0 255	0 0 255	0 0 255	0 0 255	0 0 255	0 0 255	0 0 255	0 0 255	0 0 255	0 0 255	0 0 255	0 0 255	0 0 255	0 0 255	0 0 255	0 0 255	0 0 255	0 0 255	0 0 255	0 0 255	0 0 255	0 0 255	0 0 255	0 0 255	0 0 255	0 0 255	0 0 255	0 0 255	0 0 255	0 0 255	0 0 255	0 0 255	0 0 255	0 0 255	0 0 255	0 0 255	0 0 255	0 0 255	0 0 255	0 0 255	0 0 255	0 0 255	0 0 255	0 0 255	0 0 255	0 0 255	0 0 255	0 0 255	0 0 255	0 0 255	0 0 255	0 0 255	0 0 255	0 0 255	0 0 255	0 0 255	0 0 255	0 0 255	0 0 255	
0 0 255	0 0 255	0 0 255	0 0 255	0 0 255	0 0 255	0 0 255	0 0 255	0 0 255	0 0 255	0 0 255	0 0 255	0 0 255	0 0 255	0 0 255	0 0 255	0 0 255	0 0 255	0 0 255	0 0 255	0 0 255	0 0 255	0 0 255	0 0 255	0 0 255	0 0 255	0 0 255	0 0 255	0 0 255	0 0 255	0 0 255	0 0 255	0 0 255	0 0 255	0 0 255	0 0 255	0 0 255	0 0 255	0 0 255	0 0 255	0 0 255	0 0 255	0 0 255	0 0 255	0 0 255	0 0 255	0 0 255	0 0 255	0 0 255	0 0 255	0 0 255	0 0 255	0 0 255	0 0 255	0 0 255	0 0 255	0 0 255	0 0 255	0 0 255	0 0 255	0 0 255	0 0 255	0 0 255	0 0 255	0 0 255	0 0 255	0 0 255	0 0 255	0 0 255	0 0 255	0 0 255	0 0 255	0 0 255	0 0 255	0 0 255	0 0 255	0 0 255	6 0 127	6 0 127	1 0 127	4 0 127	7 0 127	9 0 127	11 0 127	13 0 127	14 0 127	16 0 127	18 0 127	19 0 127	20 0 127	22 0 127	23 0 127	24 0 127	25 0 127	26 0 127	41 0 63	42 0 63	43 0 63	45 0 63	46 0 63	47 0 63	48 0 63	49 0 63	50 0 63	51 0 63	52 0 63	53 0 63	54 0 63	55 0 63	55 0 63	56 0 63	57 0 63	57 0 63	58 0 63	58 0 63	59 0 63	59 0 63	60 0 63	60 0 63	60 0 63	71 0 31	71 0 31	71 0 31	72 0 31	72 0 31	72 0 31	72 0 31	72 0 31	72 0 31	72 0 31	72 0 31	72 0 31	71 0 31	71 0 31	71 0 31	60 0 63	60 0 63	60 0 63	59 0 63	59 0 63	58 0 63	58 0 63	57 0 63	57 0 63	56 0 63	55 0 63	55 0 63	54 0 63	53 0 63	52 0 63	51 0 63	50 0 63	49 0 63	48 0 63	47 0 63	46 0 63	45 0 63	43 0 63	42 0 63	41 0 63	26 0 127	25 0 127	24 0 127	23 0 127	22 0 127	20 0 127	19 0 127	18 0 127	16 0 127	14 0 127	13 0 127	11 0 127	9 0 127	7 0 127	4 0 127	1 0 127	6 0 127	6 0 127	0 0 255	0 0 255	0 0 255	0 0 255	0 0 255	0 0 255	0 0 255	0 0 255	0 0 255	0 0 255	0 0 255	0 0 255	0 0 255	0 0 255	0 0 255	0 0 255	0 0 255	0 0 255	0 0 255	0 0 255	0 0 255	0 0 255	0 0 255	0 0 255	0 0 255	0 0 255	0 0 255	0 0 255	0 0 255	0 0 255	0 0 255	0 0 255	0 0 255	0 0 255	0 0 255	0 0 255	0 0 255	0 0 255	0 0 255	0 0 255	0 0 255	0 0 255	0 0 255	0 0 255	0 0 255	0 0 255	0 0 255	0 0 255	0 0 255	0 0 255	0 0 255	0 0 255	0 0 255	0 0 255	0 0 255	0 0 255	0 0 255	0 0 255	0 0 255	0 0 255	0 0 255	0 0 255	0 0 255	0 0 255	0 0 255	0 0 255	0 0 255	0 0 255	0 0 255	0 0 255	0 0 255	0 0 255	0 0 255	0 0 255	0 0 255	0 0 255	0 0 255	0 0 255	
0 0 255	0 0 255	0 0 255	0 0 255	0 0 255	0 0 255	0 0 255	0 0 255	0 0 255	0 0 255	0 0 255	0 0 255	0 0 255	0 0 255	0 0 255	0 0 255	0 0 255	0 0 255	0 0 255	0 0 255	0 0 255	0 0 255	0 0 255	0 0 255	0 0 255	0 0 255	0 0 255	0 0 255	0 0 255	0 0 255	0 0 255	0 0 255	0 0 255	0 0 255	0 0 255	0 0 255	0 0 255	0 0 255	0 0 255	0 0 255	0 0 255	0 0 255	0 0 255	0 0 255	0 0 255	0 0 255	0 0 255	0 0 255	0 0 255	0 0 255	0 0 255	0 0 255	0 0 255	0 0 255	0 0 255	0 0 255	0 0 255	0 0 255	0 0 255	0 0 255	0 0 255	0 0 255	0 0 255	0 0 255	0 0 255	0 0 255	0 0 255	0 0 255	0 0 255	0 0 255	0 0 255	0 0 255	0 0 255	0 0 255	0 0 255	0 0 255	0 0 255	6 0 127	6 0 127	0 0 127	3 0 127	6 0 127	8 0 127	10 0 127	12 0 127	14 0 127	15 0 127	17 0 127	18 0 127	20 0 127	21 0 127	22 0 127	23 0 127	24 0 127	25 0 127	40 0 63	41 0 63	42 0 63	44 0 63	45 0 63	46 0 63	47 0 63	48 0 63	49 0 63	50 0 63	51 0 63	52 0 63	53 0 63	53 0 63	54 0 63	55 0 63	55 0 63	56 0 63	57 0 63	57 0 63	58 0 63	58 0 63	58 0 63	59 0 63	59 0 63	59 0 63	60 0 63	60 0 63	70 0 31	70 0 31	70 0 31	70 0 31	70 0 31	70 0 31	70 0 31	70 0 31	70 0 31	60 0 63	60 0 63	59 0 63	59 0 63	59 0 63	58 0 63	58 0 63	58 0 63	57 0 63	57 0 63	56 0 63	55 0 63	55 0 63	54 0 63	53 0 63	53 0 63	52 0 63	51 0 63	50 0 63	49 0 63	48 0 63	47 0 63	46 0 63	45 0 63	44 0 63	42 0 63	41 0 63	40 0 63	25 0 127	24 0 127	23 0 127	22 0 127	21 0 127	20 0 127	18 0 127	17 0 127	15 0 127	14 0 127	12 0 127	10 0 127	8 0 127	6 0 127	3 0 127	0 0 127	6 0 127	6 0 127	0 0 255	0 0 255	0 0 255	0 0 255	0 0 255	0 0 255	0 0 255	0 0 255	0 0 255	0 0 255	0 0 255	0 0 255	0 0 255	0 0 255	0 0 255	0 0 255	0 0 255	0 0 255	0 0 255	0 0 255	0 0 255	0 0 255	0 0 255	0 0 255	0 0 255	0 0 255	0 0 255	0 0 255	0 0 255	0 0 255	0 0 255	0 0 255	0 0 255	0 0 255	0 0 255	0 0 255	0 0 255	0 0 255	0 0 255	0 0 255	0 0 255	0 0 255	0 0 255	0 0 255	0 0 255	0 0 255	0 0 255	0 0 255	0 0 255	0 0 255	0 0 255	0 0 255	0 0 255	0 0 255	0 0 255	0 0 255	0 0 255	0 0 255	0 0 255	0 0 255	0 0 255	0 0 255	0 0 255	0 0 255	0 0 255	0 0 255	0 0 255	0 0 255	0 0 255	0 0 255	0 0 255	0 0 255	0 0 255	0 0 255	0 0 255	0 0 255	0 0 255	0 0 255	
0 0 255	0 0 255	0 0 255	0 0 255	0 0 255	0 0 255	0 0 255	0 0 255	0 0 255	0 0 255	0 0 255	0 0 255	0 0 255	0 0 255	0 0 255	0 0 255	0 0 255	0 0 255	0 0 255	0 0 255	0 0 255	0 0 255	0 0 255	0 0 255	0 0 255	0 0 255	0 0 255	0 0 255	0 0 255	0 0 255	0 0 255	0 0 255	0 0 255	0 0 255	0 0 255	0 0 255	0 0 255	0 0 255	0 0 255	0 0 255	0 0 255	0 0 255	0 0 255	0 0 255	0 0 255	0 0 255	0 0 255	0 0 255	0 0 255	0 0 255	0 0 255	0 0 255	0 0 255	0 0 255	0 0 255	0 0 255	0 0 255	0 0 255	0 0 255	0 0 255	0 0 255	0 0 255	0 0 255	0 0 255	0 0 255	0 0 255	0 0 255	0 0 255	0 0 255	0 0 255	0 0 255	0 0 255	0 0 255	0 0 255	0 0 255	0 0 255	0 0 255	0 0 255	6 0 127	6 0 127	2 0 127	5 0 127	7 0 127	9 0 127	11 0 127	13 0 127	14 0 127	16 0 127	17 0 127	19 0 127	20 0 127	21 0 127	22 0 127	23 0 127	24 0 127	25 0 127	40 0 63	41 0 63	42 0 63	44 0 63	45 0 63	46 0 63	47 0 63	48 0 63	49 0 63	50 0 63	51 0 63	51 0 63	52 0 63	53 0 63	54 0 63	54 0 63	55 0 63	55 0 63	56 0 63	56 0 63	57 0 63	57 0 63	58 0 63	58 0 63	58 0 63	58 0 63	59 0 63	59 0 63	59 0 63	59 0 63	59 0 63	59 0 63	59 0 63	59 0 63	59 0 63	59 0 63	59 0 63	58 0 63	58 0 63	58 0 63	58 0 63	57 0 63	57 0 63	56 0 63	56 0 63	55 0 63	55 0 63	54 0 63	54 0 63	53 0 63	52 0 63	51 0 63	51 0 63	50 0 63	49 0 63	48 0 63	47 0 63	46 0 63	45 0 63	44 0 63	42 0 63	41 0 63	40 0 63	25 0 127	24 0 127	23 0 127	22 0 127	21 0 127	20 0 127	19 0 127	17 0 127	16 0 127	14 0 127	13 0 127	11 0 127	9 0 127	7 0 127	5 0 127	2 0 127	6 0 127	6 0 127	0 0 255	0 0 255	0 0 255	0 0 255	0 0 255	0 0 255	0 0 255	0 0 255	0 0 255	0 0 255	0 0 255	0 0 255	0 0 255	0 0 255	0 0 255	0 0 255	0 0 255	0 0 255	0 0 255	0 0 255	0 0 255	0 0 255	0 0 255	0 0 255	0 0 255	0 0 255	0 0 255	0 0 255	0 0 255	0 0 255	0 0 255	0 0 255	0 0 255	0 0 255	0 0 255	0 0 255	0 0 255	0 0 255	0 0 255	0 0 255	0 0 255	0 0 255	0 0 255	0 0 255	0 0 255	0 0 255	0 0 255	0 0 255	0 0 255	0 0 255	0 0 255	0 0 255	0 0 255	0 0 255	0 0 255	0 0 255	0 0 255	0 0 255	0 0 255	0 0 255	0 0 255	0 0 255	0 0 255	0 0 255	0 0 255	0 0 255	0 0 255	0 0 255	0 0 255	0 0 255	0 0 255	0 0 255	0 0 255	0 0 255	0 0 255	0 0 255	0 0 255	0 0 255	0 0 255	
0 0 255	0 0 255	0 0 255	0 0 255	0 0 255	0 0 255	0 0 255	0 0 255	0 0 255	0 0 255	0 0 255	0 0 255	0 0 255	0 0 255	0 0 255	0 0 255	0 0 255	0 0 255	0 0 255	0 0 255	0 0 255	0 0 255	0 0 255	0 0 255	0 0 255	0 0 255	0 0 255	0 0 255	0 0 255	0 0 255	0 0 255	0 0 255	0 0 255	0 0 255	0 0 255	0 0 255	0 0 255	0 0 255	0 0 255	0 0 255	0 0 255	0 0 255	0 0 255	0 0 255	0 0 255	0 0 255	0 0 255	0 0 255	0 0 255	0 0 255	0 0 255	0 0 255	0 0 255	0 0 255	0 0 255	0 0 255	0 0 255	0 0 255	0 0 255	0 0 255	0 0 255	0 0 255	0 0 255	0 0 255	0 0 255	0 0 255	0 0 255	0 0 255	0 0 255	0 0 255	0 0 255	0 0 255	0 0 255	0 0 255	0 0 255	0 0 255	0 0 255	0 0 255	6 0 127	6 0 127	1 0 127	4 0 127	6 0 127	8 0 127	10 0 127	12 0 127	14 0 127	15 0 127	17 0 127	18 0 127	19 0 127	20 0 127	22 0 127	23 0 127	24 0 127	25 0 127	39 0 63	40 0 63	41 0 63	42 0 63	44 0 63	45 0 63	46 0 63	47 0 63	48 0 63	49 0 63	49 0 63	50 0 63	51 0 63	52 0 63	52 0 63	53 0 63	54 0 63	54 0 63	55 0 63	55 0 63	56 0 63	56 0 63	56 0 63	57 0 63	57 0 63	57 0 63	57 0 63	58 0 63	58 0 63	58 0 63	58 0 63	58 0 63	58 0 63	58 0 63	58 0 63	58 0 63	57 0 63	57 0 63	57 0 63	57 0 63	56 0 63	56 0 63	56 0 63	55 0 63	55 0 63	54 0 63	54 0 63	53 0 63	52 0 63	52 0 63	51 0 63	50 0 63	49 0 63	49 0 63	48 0 63	47 0 63	46 0 63	45 0 63	44 0 63	42 0 63	41 0 63	40 0 63	39 0 63	25 0 127	24 0 127	23 0 127	22 0 127	20 0 127	19 0 127	18 0 127	17 0 127	15 0 127	14 0 127	12 0 127	10 0 127	8 0 127	6 0 127	4 0 127	1 0 127	6 0 127	6 0 127	0 0 255	0 0 255	0 0 255	0 0 255	0 0 255	0 0 255	0 0 255	0 0 255	0 0 255	0 0 255	0 0 255	0 0 255	0 0 255	0 0 255	0 0 255	0 0 255	0 0 255	0 0 255	0 0 255	0 0 255	0 0 255	0 0 255	0 0 255	0 0 255	0 0 255	0 0 255	0 0 255	0 0 255	0 0 255	0 0 255	0 0 255	0 0 255	0 0 255	0 0 255	0 0 255	0 0 255	0 0 255	0 0 255	0 0 255	0 0 255	0 0 255	0 0 255	0 0 255	0 0 255	0 0 255	0 0 255	0 0 255	0 0 255	0 0 255	0 0 255	0 0 255	0 0 255	0 0 255	0 0 255	0 0 255	0 0 255	0 0 255	0 0 255	0 0 255	0 0 255	0 0 255	0 0 255	0 0 255	0 0 255	0 0 255	0 0 255	0 0 255	0 0 255	0 0 255	0 0 255	0 0 255	0 0 255	0 0 255	0 0 255	0 0 255	0 0 255	0 0 255	0 0 255	0 0 255	
0 0 255	0 0 255	0 0 255	0 0 255	0 0 255	0 0 255	0 0 255	0 0 255	0 0 255	0 0 255	0 0 255	0 0 255	0 0 255	0 0 255	0 0 255	0 0 255	0 0 255	0 0 255	0 0 255	0 0 255	0 0 255	0 0 255	0 0 255	0 0 255	0 0 255	0 0 255	0 0 255	0 0 255	0 0 255	0 0 255	0 0 255	0 0 255	0 0 255	0 0 255	0 0 255	0 0 255	0 0 255	0 0 255	0 0 255	0 0 255	0 0 255	0 0 255	0 0 255	0 0 255	0 0 255	0 0 255	0 0 255	0 0 255	0 0 255	0 0 255	0 0 255	0 0 255	0 0 255	0 0 255	0 0 255	0 0 255	0 0 255	0 0 255	0 0 255	0 0 255	0 0 255	0 0 255	0 0 255	0 0 255	0 0 255	0 0 255	0 0 255	0 0 255	0 0 255	0 0 255	0 0 255	0 0 255	0 0 255	0 0 255	0 0 255	0 0 255	0 0 255	0 0 255	6 0 127	6 0 127	0 0 127	3 0 127	5 0 127	7 0 127	9 0 127	11 0 127	13 0 127	14 0 127	16 0 127	17 0 127	18 0 127	20 0 127	21 0 127	22 0 127	23 0 127	24 0 127	25 0 127	39 0 63	40 0 63	41 0 63	42 0 63	43 0 63	45 0 63	46 0 63	46 0 63	47 0 63	48 0 63	49 0 63	50 0 63	51 0 63	51 0 63	52 0 63	52 0 63	53 0 63	53 0 63	54 0 63	54 0 63	55 0 63	55 0 63	55 0 63	56 0 63	56 0 63	56 0 63	56 0 63	56 0 63	57 0 63	57 0 63	57 0 63	57 0 63	57 0 63	56 0 63	56 0 63	56 0 63	56 0 63	56 0 63	55 0 63	55 0 63	55 0 63	54 0 63	54 0 63	53 0 63	53 0 63	52 0 63	52 0 63	51 0 63	51 0 63	50 0 63	49 0 63	48 0 63	47 0 63	46 0 63	46 0 63	45 0 63	43 0 63	42 0 63	41 0 63	40 0 63	39 0 63	25 0 127	24 0 127	23 0 127	22 0 127	21 0 127	20 0 127	18 0 127	17 0 127	16 0 127	14 0 127	13 0 127	11 0 127	9 0 127	7 0 127	5 0 127	3 0 127	0 0 127	6 0 127	6 0 127	0 0 255	0 0 255	0 0 255	0 0 255	0 0 255	0 0 255	0 0 255	0 0 255	0 0 255	0 0 255	0 0 255	0 0 255	0 0 255	0 0 255	0 0 255	0 0 255	0 0 255	0 0 255	0 0 255	0 0 255	0 0 255	0 0 255	0 0 255	0 0 255	0 0 255	0 0 255	0 0 255	0 0 255	0 0 255	0 0 255	0 0 255	0 0 255	0 0 255	0 0 255	0 0 255	0 0 255	0 0 255	0 0 255	0 0 255	0 0 255	0 0 255	0 0 255	0 0 255	0 0 255	0 0 255	0 0 255	0 0 255	0 0 255	0 0 255	0 0 255	0 0 255	0 0 255	0 0 255	0 0 255	0 0 255	0 0 255	0 0 255	0 0 255	0 0 255	0 0 255	0 0 255	0 0 255	0 0 255	0 0 255	0 0 255	0 0 255	0 0 255	0 0 255	0 0 255	0 0 255	0 0 255	0 0 255	0 0 255	0 0 255	0 0 255	0 0 255	0 0 255	0 0 255	0 0 255	
0 0 255	0 0 255	0 0 255	0 0 255	0 0 255	0 0 255	0 0 255	0 0 255	0 0 255	0 0 255	0 0 255	0 0 255	0 0 255	0 0 255	0 0 255	0 0 255	0 0 255	0 0 255	0 0 255	0 0 255	0 0 255	0 0 255	0 0 255	0 0 255	0 0 255	0 0 255	0 0 255	0 0 255	0 0 255	0 0 255	0 0 255	0 0 255	0 0 255	0 0 255	0 0 255	0 0 255	0 0 255	0 0 255	0 0 255	0 0 255	0 0 255	0 0 255	0 0 255	0 0 255	0 0 255	0 0 255	0 0 255	0 0 255	0 0 255	0 0 255	0 0 255	0 0 255	0 0 255	0 0 255	0 0 255	0 0 255	0 0 255	0 0 255	0 0 255	0 0 255	0 0 255	0 0 255	0 0 255	0 0 255	0 0 255	0 0 255	0 0 255	0 0 255	0 0 255	0 0 255	0 0 255	0 0 255	0 0 255	0 0 255	0 0 255	0 0 255	0 0 255	0 0 255	6 0 127	6 0 127	6 0 127	2 0 127	4 0 127	6 0 127	8 0 127	10 0 127	12 0 127	13 0 127	15 0 127	16 0 127	18 0 127	19 0 127	20 0 127	21 0 127	22 0 127	23 0 127	24 0 127	37 0 63	39 0 63	40 0 63	41 0 63	42 0 63	43 0 63	44 0 63	45 0 63	46 0 63	47 0 63	48 0 63	49 0 63	49 0 63	50 0 63	51 0 63	51 0 63	52 0 63	52 0 63	53 0 63	53 0 63	54 0 63	54 0 63	54 0 63	54 0 63	55 0 63	55 0 63	55 0 63	55 0 63	55 0 63	55 0 63	55 0 63	55 0 63	55 0 63	55 0 63	55 0 63	55 0 63	55 0 63	54 0 63	54 0 63	54 0 63	54 0 63	53 0 63	53 0 63	52 0 63	52 0 63	51 0 63	51 0 63	50 0 63	49 0 63	49 0 63	48 0 63	47 0 63	46 0 63	45 0 63	44 0 63	43 0 63	42 0 63	41 0 63	40 0 63	39 0 63	37 0 63	24 0 127	23 0 127	22 0 127	21 0 127	20 0 127	19 0 127	18 0 127	16 0 127	15 0 127	13 0 127	12 0 127	10 0 127	8 0 127	6 0 127	4 0 127	2 0 127	6 0 127	6 0 127	6 0 127	0 0 255	0 0 255	0 0 255	0 0 255	0 0 255	0 0 255	0 0 255	0 0 255	0 0 255	0 0 255	0 0 255	0 0 255	0 0 255	0 0 255	0 0 255	0 0 255	0 0 255	0 0 255	0 0 255	0 0 255	0 0 255	0 0 255	0 0 255	0 0 255	0 0 255	0 0 255	0 0 255	0 0 255	0 0 255	0 0 255	0 0 255	0 0 255	0 0 255	0 0 255	0 0 255	0 0 255	0 0 255	0 0 255	0 0 255	0 0 255	0 0 255	0 0 255	0 0 255	0 0 255	0 0 255	0 0 255	0 0 255	0 0 255	0 0 255	0 0 255	0 0 255	0 0 255	0 0 255	0 0 255	0 0 255	0 0 255	0 0 255	0 0 255	0 0 255	0 0 255	0 0 255	0 0 255	0 0 255	0 0 255	0 0 255	0 0 255	0 0 255	0 0 255	0 0 255	0 0 255	0 0 255	0 0 255	0 0 255	0 0 255	0 0 255	0 0 255	0 0 255	0 0 255	0 0 255	
0 0 255	0 0 255	0 0 255	0 0 255	0 0 255	0 0 255	0 0 255	0 0 255	0 0 255	0 0 255	0 0 255	0 0 255	0 0 255	0 0 255	0 0 255	0 0 255	0 0 255	0 0 255	0 0 255	0 0 255	0 0 255	0 0 255	0 0 255	0 0 255	0 0 255	0 0 255	0 0 255	0 0 255	0 0 255	0 0 255	0 0 255	0 0 255	0 0 255	0 0 255	0 0 255	0 0 255	0 0 255	0 0 255	0 0 255	0 0 255	0 0 255	0 0 255	0 0 255	0 0 255	0 0 255	0 0 255	0 0 255	0 0 255	0 0 255	0 0 255	0 0 255	0 0 255	0 0 255	0 0 255	0 0 255	0 0 255	0 0 255	0 0 255	0 0 255	0 0 255	0 0 255	0 0 255	0 0 255	0 0 255	0 0 255	0 0 255	0 0 255	0 0 255	0 0 255	0 0 255	0 0 255	0 0 255	0 0 255	0 0 255	0 0 255	0 0 255	0 0 255	0 0 255	0 0 255	6 0 127	6 0 127	0 0 127	3 0 127	5 0 127	7 0 127	9 0 127	11 0 127	12 0 127	14 0 127	15 0 127	17 0 127	18 0 127	19 0 127	20 0 127	21 0 127	22 0 127	23 0 127	24 0 127	37 0 63	39 0 63	40 0 63	41 0 63	42 0 63	43 0 63	44 0 63	45 0 63	46 0 63	47 0 63	47 0 63	48 0 63	49 0 63	49 0 63	50 0 63	50 0 63	51 0 63	51 0 63	52 0 63	52 0 63	53 0 63	53 0 63	53 0 63	53 0 63	54 0 63	54 0 63	54 0 63	54 0 63	54 0 63	54 0 63	54 0 63	54 0 63	54 0 63	54 0 63	54 0 63	53 0 63	53 0 63	53 0 63	53 0 63	52 0 63	52 0 63	51 0 63	51 0 63	50 0 63	50 0 63	49 0 63	49 0 63	48 0 63	47 0 63	47 0 63	46 0 63	45 0 63	44 0 63	43 0 63	42 0 63	41 0 63	40 0 63	39 0 63	37 0 63	24 0 127	23 0 127	22 0 127	21 0 127	20 0 127	19 0 127	18 0 127	17 0 127	15 0 127	14 0 127	12 0 127	11 0 127	9 0 127	7 0 127	5 0 127	3 0 127	0 0 127	6 0 127	6 0 127	0 0 255	0 0 255	0 0 255	0 0 255	0 0 255	0 0 255	0 0 255	0 0 255	0 0 255	0 0 255	0 0 255	0 0 255	0 0 255	0 0 255	0 0 255	0 0 255	0 0 255	0 0 255	0 0 255	0 0 255	0 0 255	0 0 255	0 0 255	0 0 255	0 0 255	0 0 255	0 0 255	0 0 255	0 0 255	0 0 255	0 0 255	0 0 255	0 0 255	0 0 255	0 0 255	0 0 255	0 0 255	0 0 255	0 0 255	0 0 255	0 0 255	0 0 255	0 0 255	0 0 255	0 0 255	0 0 255	0 0 255	0 0 255	0 0 255	0 0 255	0 0 255	0 0 255	0 0 255	0 0 255	0 0 255	0 0 255	0 0 255	0 0 255	0 0 255	0 0 255	0 0 255	0 0 255	0 0 255	0 0 255	0 0 255	0 0 255	0 0 255	0 0 255	0 0 255	0 0 255	0 0 255	0 0 255	0 0 255	0 0 255	0 0 255	0 0 255	0 0 255	0 0 255	0 0 255	0 0 255	
0 0 255	0 0 255	0 0 255	0 0 255	0 0 255	0 0 255	0 0 255	0 0 255	0 0 255	0 0 255	0 0 255	0 0 255	0 0 255	0 0 255	0 0 255	0 0 255	0 0 255	0 0 255	0 0 255	0 0 255	0 0 255	0 0 255	0 0 255	0 0 255	0 0 255	0 0 255	0 0 255	0 0 255	0 0 255	0 0 255	0 0 255	0 0 255	0 0 255	0 0 255	0 0 255	0 0 255	0 0 255	0 0 255	0 0 255	0 0 255	0 0 255	0 0 255	0 0 255	0 0 255	0 0 255	0 0 255	0 0 255	0 0 255	0 0 255	0 0 255	0 0 255	0 0 255	0 0 255	0 0 255	0 0 255	0 0 255	0 0 255	0 0 255	0 0 255	0 0 255	0 0 255	0 0 255	0 0 255	0 0 255	0 0 255	0 0 255	0 0 255	0 0 255	0 0 255	0 0 255	0 0 255	0 0 255	0 0 255	0 0 255	0 0 255	0 0 255	0 0 255	0 0 255	0 0 255	6 0 127	6 0 127	3 0 127	2 0 127	4 0 127	6 0 127	8 0 127	10 0 127	12 0 127	13 0 127	14 0 127	16 0 127	17 0 127	18 0 127	19 0 127	20 0 127	21 0 127	22 0 127	23 0 127	24 0 127	37 0 63	39 0 63	40 0 63	41 0 63	42 0 63	43 0 63	44 0 63	44 0 63	45 0 63	46 0 63	47 0 63	47 0 63	48 0 63	49 0 63	49 0 63	50 0 63	50 0 63	51 0 63	51 0 63	51 0 63	52 0 63	52 0 63	52 0 63	52 0 63	52 0 63	53 0 63	53 0 63	53 0 63	53 0 63	53 0 63	53 0 63	53 0 63	52 0 63	52 0 63	52 0 63	52 0 63	52 0 63	51 0 63	51 0 63	51 0 63	50 0 63	50 0 63	49 0 63	49 0 63	48 0 63	47 0 63	47 0 63	46 0 63	45 0 63	44 0 63	44 0 63	43 0 63	42 0 63	41 0 63	40 0 63	39 0 63	37 0 63	24 0 127	23 0 127	22 0 127	21 0 127	20 0 127	19 0 127	18 0 127	17 0 127	16 0 127	14 0 127	13 0 127	12 0 127	10 0 127	8 0 127	6 0 127	4 0 127	2 0 127	3 0 127	6 0 127	6 0 127	0 0 255	0 0 255	0 0 255	0 0 255	0 0 255	0 0 255	0 0 255	0 0 255	0 0 255	0 0 255	0 0 255	0 0 255	0 0 255	0 0 255	0 0 255	0 0 255	0 0 255	0 0 255	0 0 255	0 0 255	0 0 255	0 0 255	0 0 255	0 0 255	0 0 255	0 0 255	0 0 255	0 0 255	0 0 255	0 0 255	0 0 255	0 0 255	0 0 255	0 0 255	0 0 255	0 0 255	0 0 255	0 0 255	0 0 255	0 0 255	0 0 255	0 0 255	0 0 255	0 0 255	0 0 255	0 0 255	0 0 255	0 0 255	0 0 255	0 0 255	0 0 255	0 0 255	0 0 255	0 0 255	0 0 255	0 0 255	0 0 255	0 0 255	0 0 255	0 0 255	0 0 255	0 0 255	0 0 255	0 0 255	0 0 255	0 0 255	0 0 255	0 0 255	0 0 255	0 0 255	0 0 255	0 0 255	0 0 255	0 0 255	0 0 255	0 0 255	0 0 255	0 0 255	0 0 255	0 0 255	
0 0 255	0 0 255	0 0 255	0 0 255	0 0 255	0 0 255	0 0 255	0 0 255	0 0 255	0 0 255	0 0 255	0 0 255	0 0 255	0 0 255	0 0 255	0 0 255	0 0 255	0 0 255	0 0 255	0 0 255	0 0 255	0 0 255	0 0 255	0 0 255	0 0 255	0 0 255	0 0 255	0 0 255	0 0 255	0 0 255	0 0 255	0 0 255	0 0 255	0 0 255	0 0 255	0 0 255	0 0 255	0 0 255	0 0 255	0 0 255	0 0 255	0 0 255	0 0 255	0 0 255	0 0 255	0 0 255	0 0 255	0 0 255	0 0 255	0 0 255	0 0 255	0 0 255	0 0 255	0 0 255	0 0 255	0 0 255	0 0 255	0 0 255	0 0 255	0 0 255	0 0 255	0 0 255	0 0 255	0 0 255	0 0 255	0 0 255	0 0 255	0 0 255	0 0 255	0 0 255	0 0 255	0 0 255	0 0 255	0 0 255	0 0 255	0 0 255	0 0 255	0 0 255	0 0 255	6 0 127	6 0 127	6 0 127	1 0 127	3 0 127	5 0 127	7 0 127	9 0 127	11 0 127	12 0 127	14 0 127	15 0 127	16 0 127	17 0 127	18 0 127	19 0 127	20 0 127	21 0 127	22 0 127	23 0 127	36 0 63	37 0 63	38 0 63	39 0 63	40 0 63	41 0 63	42 0 63	43 0 63	44 0 63	45 0 63	45 0 63	46 0 63	47 0 63	47 0 63	48 0 63	48 0 63	49 0 63	49 0 63	50 0 63	50 0 63	50 0 63	51 0 63	51 0 63	51 0 63	51 0 63	51 0 63	51 0 63	51 0 63	51 0 63	51 0 63	51 0 63	51 0 63	51 0 63	51 0 63	51 0 63	51 0 63	50 0 63	50 0 63	50 0 63	49 0 63	49 0 63	48 0 63	48 0 63	47 0 63	47 0 63	46 0 63	45 0 63	45 0 63	44 0 63	43 0 63	42 0 63	41 0 63	40 0 63	39 0 63	38 0 63	37 0 63	36 0 63	23 0 127	22 0 127	21 0 127	20 0 127	19 0 127	18 0 127	17 0 127	16 0 127	15 0 127	14 0 127	12 0 127	11 0 127	9 0 127	7 0 127	5 0 127	3 0 127	1 0 127	6 0 127	6 0 127	6 0 127	0 0 255	0 0 255	0 0 255	0 0 255	0 0 255	0 0 255	0 0 255	0 0 255	0 0 255	0 0 255	0 0 255	0 0 255	0 0 255	0 0 255	0 0 255	0 0 255	0 0 255	0 0 255	0 0 255	0 0 255	0 0 255	0 0 255	0 0 255	0 0 255	0 0 255	0 0 255	0 0 255	0 0 255	0 0 255	0 0 255	0 0 255	0 0 255	0 0 255	0 0 255	0 0 255	0 0 255	0 0 255	0 0 255	0 0 255	0 0 255	0 0 255	0 0 255	0 0 255	0 0 255	0 0 255	0 0 255	0 0 255	0 0 255	0 0 255	0 0 255	0 0 255	0 0 255	0 0 255	0 0 255	0 0 255	0 0 255	0 0 255	0 0 255	0 0 255	0 0 255	0 0 255	0 0 255	0 0 255	0 0 255	0 0 255	0 0 255	0 0 255	0 0 255	0 0 255	0 0 255	0 0 255	0 0 255	0 0 255	0 0 255	0 0 255	0 0 255	0 0 255	0 0 255	0 0 255	0 0 255	
0 0 255	0 0 255	0 0 255	0 0 255	0 0 255	0 0 255	0 0 255	0 0 255	0 0 255	0 0 255	0 0 255	0 0 255	0 0 255	0 0 255	0 0 255	0 0 255	0 0 255	0 0 255	0 0 255	0 0 255	0 0 255	0 0 255	0 0 255	0 0 255	0 0 255	0 0 255	0 0 255	0 0 255	0 0 255	0 0 255	0 0 255	0 0 255	0 0 255	0 0 255	0 0 255	0 0 255	0 0 255	0 0 255	0 0 255	0 0 255	0 0 255	0 0 255	0 0 255	0 0 255	0 0 255	0 0 255	0 0 255	0 0 255	0 0 255	0 0 255	0 0 255	0 0 255	0 0 255	0 0 255	0 0 255	0 0 255	0 0 255	0 0 255	0 0 255	0 0 255	0 0 255	0 0 255	0 0 255	0 0 255	0 0 255	0 0 255	0 0 255	0 0 255	0 0 255	0 0 255	0 0 255	0 0 255	0 0 255	0 0 255	0 0 255	0 0 255	0 0 255	0 0 255	0 0 255	6 0 127	6 0 127	6 0 127	0 0 127	2 0 127	4 0 127	6 0 127	8 0 127	10 0 127	11 0 127	13 0 127	14 0 127	15 0 127	16 0 127	17 0 127	18 0 127	19 0 127	20 0 127	21 0 127	22 0 127	23 0 127	36 0 63	37 0 63	38 0 63	39 0 63	40 0 63	41 0 63	42 0 63	43 0 63	43 0 63	44 0 63	45 0 63	45 0 63	46 0 63	47 0 63	47 0 63	47 0 63	48 0 63	48 0 63	49 0 63	49 0 63	49 0 63	49 0 63	50 0 63	50 0 63	50 0 63	50 0 63	50 0 63	50 0 63	50 0 63	50 0 63	50 0 63	50 0 63	50 0 63	49 0 63	49 0 63	49 0 63	49 0 63	48 0 63	48 0 63	47 0 63	47 0 63	47 0 63	46 0 63	45 0 63	45 0 63	44 0 63	43 0 63	43 0 63	42 0 63	41 0 63	40 0 63	39 0 63	38 0 63	37 0 63	36 0 63	23 0 127	22 0 127	21 0 127	20 0 127	19 0 127	18 0 127	17 0 127	16 0 127	15 0 127	14 0 127	13 0 127	11 0 127	10 0 127	8 0 127	6 0 127	4 0 127	2 0 127	0 0 127	6 0 127	6 0 127	6 0 127	0 0 255	0 0 255	0 0 255	0 0 255	0 0 255	0 0 255	0 0 255	0 0 255	0 0 255	0 0 255	0 0 255	0 0 255	0 0 255	0 0 255	0 0 255	0 0 255	0 0 255	0 0 255	0 0 255	0 0 255	0 0 255	0 0 255	0 0 255	0 0 255	0 0 255	0 0 255	0 0 255	0 0 255	0 0 255	0 0 255	0 0 255	0 0 255	0 0 255	0 0 255	0 0 255	0 0 255	0 0 255	0 0 255	0 0 255	0 0 255	0 0 255	0 0 255	0 0 255	0 0 255	0 0 255	0 0 255	0 0 255	0 0 255	0 0 255	0 0 255	0 0 255	0 0 255	0 0 255	0 0 255	0 0 255	0 0 255	0 0 255	0 0 255	0 0 255	0 0 255	0 0 255	0 0 255	0 0 255	0 0 255	0 0 255	0 0 255	0 0 255	0 0 255	0 0 255	0 0 255	0 0 255	0 0 255	0 0 255	0 0 255	0 0 255	0 0 255	0 0 255	0 0 255	0 0 255	0 0 255	
0 0 255	0 0 255	0 0 255	0 0 255	0 0 255	0 0 255	0 0 255	0 0 255	0 0 255	0 0 255	0 0 255	0 0 255	0 0 255	0 0 255	0 0 255	0 0 255	0 0 255	0 0 255	0 0 255	0 0 255	0 0 255	0 0 255	0 0 255	0 0 255	0 0 255	0 0 255	0 0 255	0 0 255	0 0 255	0 0 255	0 0 255	0 0 255	0 0 255	0 0 255	0 0 255	0 0 255	0 0 255	0 0 255	0 0 255	0 0 255	0 0 255	0 0 255	0 0 255	0 0 255	0 0 255	0 0 255	0 0 255	0 0 255	0 0 255	0 0 255	0 0 255	0 0 255	0 0 255	0 0 255	0 0 255	0 0 255	0 0 255	0 0 255	0 0 255	0 0 255	0 0 255	0 0 255	0 0 255	0 0 255	0 0 255	0 0 255	0 0 255	0 0 255	0 0 255	0 0 255	0 0 255	0 0 255	0 0 255	0 0 255	0 0 255	0 0 255	0 0 255	0 0 255	0 0 255	0 0 255	6 0 127	6 0 127	6 0 127	1 0 127	3 0 127	5 0 127	7 0 127	9 0 127	10 0 127	12 0 127	13 0 127	14 0 127	15 0 127	16 0 127	18 0 127	19 0 127	20 0 127	20 0 127	21 0 127	22 0 127	23 0 127	36 0 63	37 0 63	38 0 63	39 0 63	40 0 63	40 0 63	41 0 63	42 0 63	43 0 63	43 0 63	44 0 63	45 0 63	45 0 63	46 0 63	46 0 63	47 0 63	47 0 63	47 0 63	48 0 63	48 0 63	48 0 63	48 0 63	49 0 63	49 0 63	49 0 63	49 0 63	49 0 63	49 0 63	49 0 63	49 0 63	49 0 63	48 0 63	48 0 63	48 0 63	48 0 63	47 0 63	47 0 63	47 0 63	46 0 63	46 0 63	45 0 63	45 0 63	44 0 63	43 0 63	43 0 63	42 0 63	41 0 63	40 0 63	40 0 63	39 0 63	38 0 63	37 0 63	36 0 63	23 0 127	22 0 127	21 0 127	20 0 127	20 0 127	19 0 127	18 0 127	16 0 127	15 0 127	14 0 127	13 0 127	12 0 127	10 0 127	9 0 127	7 0 127	5 0 127	3 0 127	1 0 127	6 0 127	6 0 127	6 0 127	0 0 255	0 0 255	0 0 255	0 0 255	0 0 255	0 0 255	0 0 255	0 0 255	0 0 255	0 0 255	0 0 255	0 0 255	0 0 255	0 0 255	0 0 255	0 0 255	0 0 255	0 0 255	0 0 255	0 0 255	0 0 255	0 0 255	0 0 255	0 0 255	0 0 255	0 0 255	0 0 255	0 0 255	0 0 255	0 0 255	0 0 255	0 0 255	0 0 255	0 0 255	0 0 255	0 0 255	0 0 255	0 0 255	0 0 255	0 0 255	0 0 255	0 0 255	0 0 255	0 0 255	0 0 255	0 0 255	0 0 255	0 0 255	0 0 255	0 0 255	0 0 255	0 0 255	0 0 255	0 0 255	0 0 255	0 0 255	0 0 255	0 0 255	0 0 255	0 0 255	0 0 255	0 0 255	0 0 255	0 0 255	0 0 255	0 0 255	0 0 255	0 0 255	0 0 255	0 0 255	0 0 255	0 0 255	0 0 255	0 0 255	0 0 255	0 0 255	0 0 255	0 0 255	0 0 255	0 0 255	0 0 255	
0 0 255	0 0 255	0 0 255	0 0 255	0 0 255	0 0 255	0 0 255	0 0 255	0 0 255	0 0 255	0 0 255	0 0 255	0 0 255	0 0 255	0 0 255	0 0 255	0 0 255	0 0 255	0 0 255	0 0 255	0 0 255	0 0 255	0 0 255	0 0 255	0 0 255	0 0 255	0 0 255	0 0 255	0 0 255	0 0 255	0 0 255	0 0 255	0 0 255	0 0 255	0 0 255	0 0 255	0 0 255	0 0 255	0 0 255	0 0 255	0 0 255	0 0 255	0 0 255	0 0 255	0 0 255	0 0 255	0 0 255	0 0 255	0 0 255	0 0 255	0 0 255	0 0 255	0 0 255	0 0 255	0 0 255	0 0 255	0 0 255	0 0 255	0 0 255	0 0 255	0 0 255	0 0 255	0 0 255	0 0 255	0 0 255	0 0 255	0 0 255	0 0 255	0 0 255	0 0 255	0 0 255	0 0 255	0 0 255	0 0 255	0 0 255	0 0 255	0 0 255	0 0 255	0 0 255	0 0 255	6 0 127	6 0 127	6 0 127	3 0 127	2 0 127	4 0 127	6 0 127	8 0 127	9 0 127	11 0 127	12 0 127	13 0 127	14 0 127	16 0 127	17 0 127	18 0 127	19 0 127	19 0 127	20 0 127	21 0 127	22 0 127	34 0 63	35 0 63	36 0 63	37 0 63	38 0 63	39 0 63	40 0 63	41 0 63	41 0 63	42 0 63	43 0 63	43 0 63	44 0 63	44 0 63	45 0 63	45 0 63	46 0 63	46 0 63	46 0 63	47 0 63	47 0 63	47 0 63	47 0 63	47 0 63	47 0 63	47 0 63	47 0 63	47 0 63	47 0 63	47 0 63	47 0 63	47 0 63	47 0 63	47 0 63	46 0 63	46 0 63	46 0 63	45 0 63	45 0 63	44 0 63	44 0 63	43 0 63	43 0 63	42 0 63	41 0 63	41 0 63	40 0 63	39 0 63	38 0 63	37 0 63	36 0 63	35 0 63	34 0 63	22 0 127	21 0 127	20 0 127	19 0 127	19 0 127	18 0 127	17 0 127	16 0 127	14 0 127	13 0 127	12 0 127	11 0 127	9 0 127	8 0 127	6 0 127	4 0 127	2 0 127	3 0 127	6 0 127	6 0 127	6 0 127	0 0 255	0 0 255	0 0 255	0 0 255	0 0 255	0 0 255	0 0 255	0 0 255	0 0 255	0 0 255	0 0 255	0 0 255	0 0 255	0 0 255	0 0 255	0 0 255	0 0 255	0 0 255	0 0 255	0 0 255	0 0 255	0 0 255	0 0 255	0 0 255	0 0 255	0 0 255	0 0 255	0 0 255	0 0 255	0 0 255	0 0 255	0 0 255	0 0 255	0 0 255	0 0 255	0 0 255	0 0 255	0 0 255	0 0 255	0 0 255	0 0 255	0 0 255	0 0 255	0 0 255	0 0 255	0 0 255	0 0 255	0 0 255	0 0 255	0 0 255	0 0 255	0 0 255	0 0 255	0 0 255	0 0 255	0 0 255	0 0 255	0 0 255	0 0 255	0 0 255	0 0 255	0 0 255	0 0 255	0 0 255	0 0 255	0 0 255	0 0 255	0 0 255	0 0 255	0 0 255	0 0 255	0 0 255	0 0 255	0 0 255	0 0 255	0 0 255	0 0 255	0 0 255	0 0 255	0 0 255	0 0 255	
0 0 255	0 0 255	0 0 255	0 0 255	0 0 255	0 0 255	0 0 255	0 0 255	0 0 255	0 0 255	0 0 255	0 0 255	0 0 255	0 0 255	0 0 255	0 0 255	0 0 255	0 0 255	0 0 255	0 0 255	0 0 255	0 0 255	0 0 255	0 0 255	0 0 255	0 0 255	0 0 255	0 0 255	0 0 255	0 0 255	0 0 255	0 0 255	0 0 255	0 0 255	0 0 255	0 0 255	0 0 255	0 0 255	0 0 255	0 0 255	0 0 255	0 0 255	0 0 255	0 0 255	0 0 255	0 0 255	0 0 255	0 0 255	0 0 255	0 0 255	0 0 255	0 0 255	0 0 255	0 0 255	0 0 255	0 0 255	0 0 255	0 0 255	0 0 255	0 0 255	0 0 255	0 0 255	0 0 255	0 0 255	0 0 255	0 0 255	0 0 255	0 0 255	0 0 255	0 0 255	0 0 255	0 0 255	0 0 255	0 0 255	0 0 255	0 0 255	0 0 255	0 0 255	0 0 255	0 0 255	0 0 255	6 0 127	6 0 127	6 0 127	1 0 127	3 0 127	5 0 127	6 0 127	8 0 127	10 0 127	11 0 127	12 0 127	13 0 127	15 0 127	16 0 127	17 0 127	18 0 127	19 0 127	19 0 127	20 0 127	21 0 127	22 0 127	34 0 63	35 0 63	36 0 63	37 0 63	38 0 63	39 0 63	39 0 63	40 0 63	41 0 63	41 0 63	42 0 63	42 0 63	43 0 63	43 0 63	44 0 63	44 0 63	45 0 63	45 0 63	45 0 63	45 0 63	46 0 63	46 0 63	46 0 63	46 0 63	46 0 63	46 0 63	46 0 63	46 0 63	46 0 63	46 0 63	46 0 63	45 0 63	45 0 63	45 0 63	45 0 63	44 0 63	44 0 63	43 0 63	43 0 63	42 0 63	42 0 63	41 0 63	41 0 63	40 0 63	39 0 63	39 0 63	38 0 63	37 0 63	36 0 63	35 0 63	34 0 63	22 0 127	21 0 127	20 0 127	19 0 127	19 0 127	18 0 127	17 0 127	16 0 127	15 0 127	13 0 127	12 0 127	11 0 127	10 0 127	8 0 127	6 0 127	5 0 127	3 0 127	1 0 127	6 0 127	6 0 127	6 0 127	0 0 255	0 0 255	0 0 255	0 0 255	0 0 255	0 0 255	0 0 255	0 0 255	0 0 255	0 0 255	0 0 255	0 0 255	0 0 255	0 0 255	0 0 255	0 0 255	0 0 255	0 0 255	0 0 255	0 0 255	0 0 255	0 0 255	0 0 255	0 0 255	0 0 255	0 0 255	0 0 255	0 0 255	0 0 255	0 0 255	0 0 255	0 0 255	0 0 255	0 0 255	0 0 255	0 0 255	0 0 255	0 0 255	0 0 255	0 0 255	0 0 255	0 0 255	0 0 255	0 0 255	0 0 255	0 0 255	0 0 255	0 0 255	0 0 255	0 0 255	0 0 255	0 0 255	0 0 255	0 0 255	0 0 255	0 0 255	0 0 255	0 0 255	0 0 255	0 0 255	0 0 255	0 0 255	0 0 255	0 0 255	0 0 255	0 0 255	0 0 255	0 0 255	0 0 255	0 0 255	0 0 255	0 0 255	0 0 255	0 0 255	0 0 255	0 0 255	0 0 255	0 0 255	0 0 255	0 0 255	0 0 255	0 0 255	
0 0 255	0 0 255	0 0 255	0 0 255	0 0 255	0 0 255	0 0 255	0 0 255	0 0 255	0 0 255	0 0 255	0 0 255	0 0 255	0 0 255	0 0 255	0 0 255	0 0 255	0 0 255	0 0 255	0 0 255	0 0 255	0 0 255	0 0 255	0 0 255	0 0 255	0 0 255	0 0 255	0 0 255	0 0 255	0 0 255	0 0 255	0 0 255	0 0 255	0 0 255	0 0 255	0 0 255	0 0 255	0 0 255	0 0 255	0 0 255	0 0 255	0 0 255	0 0 255	0 0 255	0 0 255	0 0 255	0 0 255	0 0 255	0 0 255	0 0 255	0 0 255	0 0 255	0 0 255	0 0 255	0 0 255	0 0 255	0 0 255	0 0 255	0 0 255	0 0 255	0 0 255	0 0 255	0 0 255	0 0 255	0 0 255	0 0 255	0 0 255	0 0 255	0 0 255	0 0 255	0 0 255	0 0 255	0 0 255	0 0 255	0 0 255	0 0 255	0 0 255	0 0 255	0 0 255	0 0 255	0 0 255	6 0 127	6 0 127	6 0 127	3 0 127	2 0 127	4 0 127	5 0 127	7 0 127	8 0 127	10 0 127	11 0 127	12 0 127	14 0 127	15 0 127	16 0 127	17 0 127	18 0 127	18 0 127	19 0 127	20 0 127	21 0 127	22 0 127	34 0 63	35 0 63	35 0 63	36 0 63	37 0 63	38 0 63	39 0 63	39 0 63	40 0 63	41 0 63	41 0 63	42 0 63	42 0 63	42 0 63	43 0 63	43 0 63	44 0 63	44 0 63	44 0 63	44 0 63	44 0 63	45 0 63	45 0 63	45 0 63	45 0 63	45 0 63	45 0 63	45 0 63	44 0 63	44 0 63	44 0 63	44 0 63	44 0 63	43 0 63	43 0 63	42 0 63	42 0 63	42 0 63	41 0 63	41 0 63	40 0 63	39 0 63	39 0 63	38 0 63	37 0 63	36 0 63	35 0 63	35 0 63	34 0 63	22 0 127	21 0 127	20 0 127	19 0 127	18 0 127	18 0 127	17 0 127	16 0 127	15 0 127	14 0 127	12 0 127	11 0 127	10 0 127	8 0 127	7 0 127	5 0 127	4 0 127	2 0 127	3 0 127	6 0 127	6 0 127	6 0 127	0 0 255	0 0 255	0 0 255	0 0 255	0 0 255	0 0 255	0 0 255	0 0 255	0 0 255	0 0 255	0 0 255	0 0 255	0 0 255	0 0 255	0 0 255	0 0 255	0 0 255	0 0 255	0 0 255	0 0 255	0 0 255	0 0 255	0 0 255	0 0 255	0 0 255	0 0 255	0 0 255	0 0 255	0 0 255	0 0 255	0 0 255	0 0 255	0 0 255	0 0 255	0 0 255	0 0 255	0 0 255	0 0 255	0 0 255	0 0 255	0 0 255	0 0 255	0 0 255	0 0 255	0 0 255	0 0 255	0 0 255	0 0 255	0 0 255	0 0 255	0 0 255	0 0 255	0 0 255	0 0 255	0 0 255	0 0 255	0 0 255	0 0 255	0 0 255	0 0 255	0 0 255	0 0 255	0 0 255	0 0 255	0 0 255	0 0 255	0 0 255	0 0 255	0 0 255	0 0 255	0 0 255	0 0 255	0 0 255	0 0 255	0 0 255	0 0 255	0 0 255	0 0 255	0 0 255	0 0 255	0 0 255	0 0 255	
0 0 255	0 0 255	0 0 255	0 0 255	0 0 255	0 0 255	0 0 255	0 0 255	0 0 255	0 0 255	0 0 255	0 0 255	0 0 255	0 0 255	0 0 255	0 0 255	0 0 255	0 0 255	0 0 255	0 0 255	0 0 255	0 0 255	0 0 255	0 0 255	0 0 255	0 0 255	0 0 255	0 0 255	0 0 255	0 0 255	0 0 255	0 0 255	0 0 255	0 0 255	0 0 255	0 0 255	0 0 255	0 0 255	0 0 255	0 0 255	0 0 255	0 0 255	0 0 255	0 0 255	0 0 255	0 0 255	0 0 255	0 0 255	0 0 255	0 0 255	0 0 255	0 0 255	0 0 255	0 0 255	0 0 255	0 0 255	0 0 255	0 0 255	0 0 255	0 0 255	0 0 255	0 0 255	0 0 255	0 0 255	0 0 255	0 0 255	0 0 255	0 0 255	0 0 255	0 0 255	0 0 255	0 0 255	0 0 255	0 0 255	0 0 255	0 0 255	0 0 255	0 0 255	0 0 255	0 0 255	0 0 255	6 0 127	6 0 127	6 0 127	6 0 127	0 0 127	2 0 127	4 0 127	6 0 127	7 0 127	9 0 127	10 0 127	11 0 127	13 0 127	14 0 127	15 0 127	16 0 127	17 0 127	17 0 127	18 0 127	19 0 127	20 0 127	21 0 127	21 0 127	33 0 63	34 0 63	35 0 63	36 0 63	36 0 63	37 0 63	38 0 63	39 0 63	39 0 63	40 0 63	40 0 63	41 0 63	41 0 63	41 0 63	42 0 63	42 0 63	42 0 63	43 0 63	43 0 63	43 0 63	43 0 63	43 0 63	43 0 63	43 0 63	43 0 63	43 0 63	43 0 63	43 0 63	43 0 63	43 0 63	42 0 63	42 0 63	42 0 63	41 0 63	41 0 63	41 0 63	40 0 63	40 0 63	39 0 63	39 0 63	38 0 63	37 0 63	36 0 63	36 0 63	35 0 63	34 0 63	33 0 63	21 0 127	21 0 127	20 0 127	19 0 127	18 0 127	17 0 127	17 0 127	16 0 127	15 0 127	14 0 127	13 0 127	11 0 127	10 0 127	9 0 127	7 0 127	6 0 127	4 0 127	2 0 127	0 0 127	6 0 127	6 0 127	6 0 127	6 0 127	0 0 255	0 0 255	0 0 255	0 0 255	0 0 255	0 0 255	0 0 255	0 0 255	0 0 255	0 0 255	0 0 255	0 0 255	0 0 255	0 0 255	0 0 255	0 0 255	0 0 255	0 0 255	0 0 255	0 0 255	0 0 255	0 0 255	0 0 255	0 0 255	0 0 255	0 0 255	0 0 255	0 0 255	0 0 255	0 0 255	0 0 255	0 0 255	0 0 255	0 0 255	0 0 255	0 0 255	0 0 255	0 0 255	0 0 255	0 0 255	0 0 255	0 0 255	0 0 255	0 0 255	0 0 255	0 0 255	0 0 255	0 0 255	0 0 255	0 0 255	0 0 255	0 0 255	0 0 255	0 0 255	0 0 255	0 0 255	0 0 255	0 0 255	0 0 255	0 0 255	0 0 255	0 0 255	0 0 255	0 0 255	0 0 255	0 0 255	0 0 255	0 0 255	0 0 255	0 0 255	0 0 255	0 0 255	0 0 255	0 0 255	0 0 255	0 0 255	0 0 255	0 0 255	0 0 255	0 0 255	0 0 255	0 0 255	
0 0 255	0 0 255	0 0 255	0 0 255	0 0 255	0 0 255	0 0 255	0 0 255	0 0 255	0 0 255	0 0 255	0 0 255	0 0 255	0 0 255	0 0 255	0 0 255	0 0 255	0 0 255	0 0 255	0 0 255	0 0 255	0 0 255	0 0 255	0 0 255	0 0 255	0 0 255	0 0 255	0 0 255	0 0 255	0 0 255	0 0 255	0 0 255	0 0 255	0 0 255	0 0 255	0 0 255	0 0 255	0 0 255	0 0 255	0 0 255	0 0 255	0 0 255	0 0 255	0 0 255	0 0 255	0 0 255	0 0 255	0 0 255	0 0 255	0 0 255	0 0 255	0 0 255	0 0 255	0 0 255	0 0 255	0 0 255	0 0 255	0 0 255	0 0 255	0 0 255	0 0 255	0 0 255	0 0 255	0 0 255	0 0 255	0 0 255	0 0 255	0 0 255	0 0 255	0 0 255	0 0 255	0 0 255	0 0 255	0 0 255	0 0 255	0 0 255	0 0 255	0 0 255	0 0 255	0 0 255	0 0 255	0 0 255	6 0 127	6 0 127	6 0 127	6 0 127	1 0 127	3 0 127	5 0 127	6 0 127	8 0 127	9 0 127	10 0 127	11 0 127	13 0 127	14 0 127	15 0 127	16 0 127	16 0 127	17 0 127	18 0 127	19 0 127	20 0 127	20 0 127	21 0 127	33 0 63	33 0 63	34 0 63	35 0 63	36 0 63	36 0 63	37 0 63	38 0 63	38 0 63	39 0 63	39 0 63	40 0 63	40 0 63	40 0 63	41 0 63	41 0 63	41 0 63	41 0 63	42 0 63	42 0 63	42 0 63	42 0 63	42 0 63	42 0 63	42 0 63	42 0 63	42 0 63	41 0 63	41 0 63	41 0 63	41 0 63	40 0 63	40 0 63	40 0 63	39 0 63	39 0 63	38 0 63	38 0 63	37 0 63	36 0 63	36 0 63	35 0 63	34 0 63	33 0 63	33 0 63	21 0 127	20 0 127	20 0 127	19 0 127	18 0 127	17 0 127	16 0 127	16 0 127	15 0 127	14 0 127	13 0 127	11 0 127	10 0 127	9 0 127	8 0 127	6 0 127	5 0 127	3 0 127	1 0 127	6 0 127	6 0 127	6 0 127	6 0 127	0 0 255	0 0 255	0 0 255	0 0 255	0 0 255	0 0 255	0 0 255	0 0 255	0 0 255	0 0 255	0 0 255	0 0 255	0 0 255	0 0 255	0 0 255	0 0 255	0 0 255	0 0 255	0 0 255	0 0 255	0 0 255	0 0 255	0 0 255	0 0 255	0 0 255	0 0 255	0 0 255	0 0 255	0 0 255	0 0 255	0 0 255	0 0 255	0 0 255	0 0 255	0 0 255	0 0 255	0 0 255	0 0 255	0 0 255	0 0 255	0 0 255	0 0 255	0 0 255	0 0 255	0 0 255	0 0 255	0 0 255	0 0 255	0 0 255	0 0 255	0 0 255	0 0 255	0 0 255	0 0 255	0 0 255	0 0 255	0 0 255	0 0 255	0 0 255	0 0 255	0 0 255	0 0 255	0 0 255	0 0 255	0 0 255	0 0 255	0 0 255	0 0 255	0 0 255	0 0 255	0 0 255	0 0 255	0 0 255	0 0 255	0 0 255	0 0 255	0 0 255	0 0 255	0 0 255	0 0 255	0 0 255	0 0 255	0 0 255	
0 0 255	0 0 255	0 0 255	0 0 255	0 0 255	0 0 255	0 0 255	0 0 255	0 0 255	0 0 255	0 0 255	0 0 255	0 0 255	0 0 255	0 0 255	0 0 255	0 0 255	0 0 255	0 0 255	0 0 255	0 0 255	0 0 255	0 0 255	0 0 255	0 0 255	0 0 255	0 0 255	0 0 255	0 0 255	0 0 255	0 0 255	0 0 255	0 0 255	0 0 255	0 0 255	0 0 255	0 0 255	0 0 255	0 0 255	0 0 255	0 0 255	0 0 255	0 0 255	0 0 255	0 0 255	0 0 255	0 0 255	0 0 255	0 0 255	0 0 255	0 0 255	0 0 255	0 0 255	0 0 255	0 0 255	0 0 255	0 0 255	0 0 255	0 0 255	0 0 255	0 0 255	0 0 255	0 0 255	0 0 255	0 0 255	0 0 255	0 0 255	0 0 255	0 0 255	0 0 255	0 0 255	0 0 255	0 0 255	0 0 255	0 0 255	0 0 255	0 0 255	0 0 255	0 0 255	0 0 255	0 0 255	0 0 255	6 0 127	6 0 127	6 0 127	6 0 127	0 0 127	2 0 127	3 0 127	5 0 127	7 0 127	8 0 127	9 0 127	10 0 127	12 0 127	13 0 127	14 0 127	15 0 127	15 0 127	16 0 127	17 0 127	18 0 127	19 0 127	19 0 127	20 0 127	21 0 127	32 0 63	33 0 63	34 0 63	34 0 63	35 0 63	36 0 63	36 0 63	37 0 63	37 0 63	38 0 63	38 0 63	39 0 63	39 0 63	39 0 63	40 0 63	40 0 63	40 0 63	40 0 63	40 0 63	40 0 63	40 0 63	40 0 63	40 0 63	40 0 63	40 0 63	40 0 63	40 0 63	40 0 63	40 0 63	39 0 63	39 0 63	39 0 63	38 0 63	38 0 63	37 0 63	37 0 63	36 0 63	36 0 63	35 0 63	34 0 63	34 0 63	33 0 63	32 0 63	21 0 127	20 0 127	19 0 127	19 0 127	18 0 127	17 0 127	16 0 127	15 0 127	15 0 127	14 0 127	13 0 127	12 0 127	10 0 127	9 0 127	8 0 127	7 0 127	5 0 127	3 0 127	2 0 127	0 0 127	6 0 127	6 0 127	6 0 127	6 0 127	0 0 255	0 0 255	0 0 255	0 0 255	0 0 255	0 0 255	0 0 255	0 0 255	0 0 255	0 0 255	0 0 255	0 0 255	0 0 255	0 0 255	0 0 255	0 0 255	0 0 255	0 0 255	0 0 255	0 0 255	0 0 255	0 0 255	0 0 255	0 0 255	0 0 255	0 0 255	0 0 255	0 0 255	0 0 255	0 0 255	0 0 255	0 0 255	0 0 255	0 0 255	0 0 255	0 0 255	0 0 255	0 0 255	0 0 255	0 0 255	0 0 255	0 0 255	0 0 255	0 0 255	0 0 255	0 0 255	0 0 255	0 0 255	0 0 255	0 0 255	0 0 255	0 0 255	0 0 255	0 0 255	0 0 255	0 0 255	0 0 255	0 0 255	0 0 255	0 0 255	0 0 255	0 0 255	0 0 255	0 0 255	0 0 255	0 0 255	0 0 255	0 0 255	0 0 255	0 0 255	0 0 255	0 0 255	0 0 255	0 0 255	0 0 255	0 0 255	0 0 255	0 0 255	0 0 255	0 0 255	0 0 255	0 0 255	0 0 255	
0 0 255	0 0 255	0 0 255	0 0 255	0 0 255	0 0 255	0 0 255	0 0 255	0 0 255	0 0 255	0 0 255	0 0 255	0 0 255	0 0 255	0 0 255	0 0 255	0 0 255	0 0 255	0 0 255	0 0 255	0 0 255	0 0 255	0 0 255	0 0 255	0 0 255	0 0 255	0 0 255	0 0 255	0 0 255	0 0 255	0 0 255	0 0 255	0 0 255	0 0 255	0 0 255	0 0 255	0 0 255	0 0 255	0 0 255	0 0 255	0 0 255	0 0 255	0 0 255	0 0 255	0 0 255	0 0 255	0 0 255	0 0 255	0 0 255	0 0 255	0 0 255	0 0 255	0 0 255	0 0 255	0 0 255	0 0 255	0 0 255	0 0 255	0 0 255	0 0 255	0 0 255	0 0 255	0 0 255	0 0 255	0 0 255	0 0 255	0 0 255	0 0 255	0 0 255	0 0 255	0 0 255	0 0 255	0 0 255	0 0 255	0 0 255	0 0 255	0 0 255	0 0 255	0 0 255	0 0 255	0 0 255	0 0 255	0 0 255	6 0 127	6 0 127	6 0 127	6 0 127	0 0 127	2 0 127	4 0 127	5 0 127	7 0 127	8 0 127	9 0 127	10 0 127	12 0 127	13 0 127	14 0 127	14 0 127	15 0 127	16 0 127	17 0 127	18 0 127	18 0 127	19 0 127	20 0 127	20 0 127	31 0 63	32 0 63	33 0 63	34 0 63	34 0 63	35 0 63	35 0 63	36 0 63	36 0 63	37 0 63	37 0 63	37 0 63	38 0 63	38 0 63	38 0 63	39 0 63	39 0 63	39 0 63	39 0 63	39 0 63	39 0 63	39 0 63	39 0 63	39 0 63	39 0 63	39 0 63	38 0 63	38 0 63	38 0 63	37 0 63	37 0 63	37 0 63	36 0 63	36 0 63	35 0 63	35 0 63	34 0 63	34 0 63	33 0 63	32 0 63	31 0 63	20 0 127	20 0 127	19 0 127	18 0 127	18 0 127	17 0 127	16 0 127	15 0 127	14 0 127	14 0 127	13 0 127	12 0 127	10 0 127	9 0 127	8 0 127	7 0 127	5 0 127	4 0 127	2 0 127	0 0 127	6 0 127	6 0 127	6 0 127	6 0 127	0 0 255	0 0 255	0 0 255	0 0 255	0 0 255	0 0 255	0 0 255	0 0 255	0 0 255	0 0 255	0 0 255	0 0 255	0 0 255	0 0 255	0 0 255	0 0 255	0 0 255	0 0 255	0 0 255	0 0 255	0 0 255	0 0 255	0 0 255	0 0 255	0 0 255	0 0 255	0 0 255	0 0 255	0 0 255	0 0 255	0 0 255	0 0 255	0 0 255	0 0 255	0 0 255	0 0 255	0 0 255	0 0 255	0 0 255	0 0 255	0 0 255	0 0 255	0 0 255	0 0 255	0 0 255	0 0 255	0 0 255	0 0 255	0 0 255	0 0 255	0 0 255	0 0 255	0 0 255	0 0 255	0 0 255	0 0 255	0 0 255	0 0 255	0 0 255	0 0 255	0 0 255	0 0 255	0 0 255	0 0 255	0 0 255	0 0 255	0 0 255	0 0 255	0 0 255	0 0 255	0 0 255	0 0 255	0 0 255	0 0 255	0 0 255	0 0 255	0 0 255	0 0 255	0 0 255	0 0 255	0 0 255	0 0 255	0 0 255	0 0 255	
0 0 255	0 0 255	0 0 255	0 0 255	0 0 255	0 0 255	0 0 255	0 0 255	0 0 255	0 0 255	0 0 255	0 0 255	0 0 255	0 0 255	0 0 255	0 0 255	0 0 255	0 0 255	0 0 255	0 0 255	0 0 255	0 0 255	0 0 255	0 0 255	0 0 255	0 0 255	0 0 255	0 0 255	0 0 255	0 0 255	0 0 255	0 0 255	0 0 255	0 0 255	0 0 255	0 0 255	0 0 255	0 0 255	0 0 255	0 0 255	0 0 255	0 0 255	0 0 255	0 0 255	0 0 255	0 0 255	0 0 255	0 0 255	0 0 255	0 0 255	0 0 255	0 0 255	0 0 255	0 0 255	0 0 255	0 0 255	0 0 255	0 0 255	0 0 255	0 0 255	0 0 255	0 0 255	0 0 255	0 0 255	0 0 255	0 0 255	0 0 255	0 0 255	0 0 255	0 0 255	0 0 255	0 0 255	0 0 255	0 0 255	0 0 255	0 0 255	0 0 255	0 0 255	0 0 255	0 0 255	0 0 255	0 0 255	0 0 255	6 0 127	6 0 127	6 0 127	6 0 127	6 0 127	1 0 127	3 0 127	4 0 127	6 0 127	7 0 127	8 0 127	9 0 127	10 0 127	11 0 127	12 0 127	13 0 127	14 0 127	15 0 127	16 0 127	17 0 127	17 0 127	18 0 127	19 0 127	19 0 127	20 0 127	30 0 63	31 0 63	32 0 63	33 0 63	33 0 63	34 0 63	34 0 63	35 0 63	35 0 63	36 0 63	36 0 63	36 0 63	37 0 63	37 0 63	37 0 63	37 0 63	37 0 63	37 0 63	37 0 63	38 0 63	37 0 63	37 0 63	37 0 63	37 0 63	37 0 63	37 0 63	37 0 63	36 0 63	36 0 63	36 0 63	35 0 63	35 0 63	34 0 63	34 0 63	33 0 63	33 0 63	32 0 63	31 0 63	30 0 63	20 0 127	19 0 127	19 0 127	18 0 127	17 0 127	17 0 127	16 0 127	15 0 127	14 0 127	13 0 127	12 0 127	11 0 127	10 0 127	9 0 127	8 0 127	7 0 127	6 0 127	4 0 127	3 0 127	1 0 127	6 0 127	6 0 127	6 0 127	6 0 127	6 0 127	0 0 255	0 0 255	0 0 255	0 0 255	0 0 255	0 0 255	0 0 255	0 0 255	0 0 255	0 0 255	0 0 255	0 0 255	0 0 255	0 0 255	0 0 255	0 0 255	0 0 255	0 0 255	0 0 255	0 0 255	0 0 255	0 0 255	0 0 255	0 0 255	0 0 255	0 0 255	0 0 255	0 0 255	0 0 255	0 0 255	0 0 255	0 0 255	0 0 255	0 0 255	0 0 255	0 0 255	0 0 255	0 0 255	0 0 255	0 0 255	0 0 255	0 0 255	0 0 255	0 0 255	0 0 255	0 0 255	0 0 255	0 0 255	0 0 255	0 0 255	0 0 255	0 0 255	0 0 255	0 0 255	0 0 255	0 0 255	0 0 255	0 0 255	0 0 255	0 0 255	0 0 255	0 0 255	0 0 255	0 0 255	0 0 255	0 0 255	0 0 255	0 0 255	0 0 255	0 0 255	0 0 255	0 0 255	0 0 255	0 0 255	0 0 255	0 0 255	0 0 255	0 0 255	0 0 255	0 0 255	0 0 255	0 0 255	0 0 255	0 0 255	
0 0 255	0 0 255	0 0 255	0 0 255	0 0 255	0 0 255	0 0 255	0 0 255	0 0 255	0 0 255	0 0 255	0 0 255	0 0 255	0 0 255	0 0 255	0 0 255	0 0 255	0 0 255	0 0 255	0 0 255	0 0 255	0 0 255	0 0 255	0 0 255	0 0 255	0 0 255	0 0 255	0 0 255	0 0 255	0 0 255	0 0 255	0 0 255	0 0 255	0 0 255	0 0 255	0 0 255	0 0 255	0 0 255	0 0 255	0 0 255	0 0 255	0 0 255	0 0 255	0 0 255	0 0 255	0 0 255	0 0 255	0 0 255	0 0 255	0 0 255	0 0 255	0 0 255	0 0 255	0 0 255	0 0 255	0 0 255	0 0 255	0 0 255	0 0 255	0 0 255	0 0 255	0 0 255	0 0 255	0 0 255	0 0 255	0 0 255	0 0 255	0 0 255	0 0 255	0 0 255	0 0 255	0 0 255	0 0 255	0 0 255	0 0 255	0 0 255	0 0 255	0 0 255	0 0 255	0 0 255	0 0 255	0 0 255	0 0 255	0 0 255	6 0 127	6 0 127	6 0 127	6 0 127	3 0 127	1 0 127	3 0 127	4 0 127	6 0 127	7 0 127	8 0 127	9 0 127	10 0 127	11 0 127	12 0 127	13 0 127	14 0 127	15 0 127	16 0 127	16 0 127	17 0 127	18 0 127	18 0 127	19 0 127	19 0 127	20 0 127	30 0 63	31 0 63	32 0 63	32 0 63	33 0 63	33 0 63	34 0 63	34 0 63	35 0 63	35 0 63	35 0 63	35 0 63	36 0 63	36 0 63	36 0 63	36 0 63	36 0 63	36 0 63	36 0 63	36 0 63	36 0 63	36 0 63	36 0 63	35 0 63	35 0 63	35 0 63	35 0 63	34 0 63	34 0 63	33 0 63	33 0 63	32 0 63	32 0 63	31 0 63	30 0 63	20 0 127	19 0 127	19 0 127	18 0 127	18 0 127	17 0 127	16 0 127	16 0 127	15 0 127	14 0 127	13 0 127	12 0 127	11 0 127	10 0 127	9 0 127	8 0 127	7 0 127	6 0 127	4 0 127	3 0 127	1 0 127	3 0 127	6 0 127	6 0 127	6 0 127	6 0 127	0 0 255	0 0 255	0 0 255	0 0 255	0 0 255	0 0 255	0 0 255	0 0 255	0 0 255	0 0 255	0 0 255	0 0 255	0 0 255	0 0 255	0 0 255	0 0 255	0 0 255	0 0 255	0 0 255	0 0 255	0 0 255	0 0 255	0 0 255	0 0 255	0 0 255	0 0 255	0 0 255	0 0 255	0 0 255	0 0 255	0 0 255	0 0 255	0 0 255	0 0 255	0 0 255	0 0 255	0 0 255	0 0 255	0 0 255	0 0 255	0 0 255	0 0 255	0 0 255	0 0 255	0 0 255	0 0 255	0 0 255	0 0 255	0 0 255	0 0 255	0 0 255	0 0 255	0 0 255	0 0 255	0 0 255	0 0 255	0 0 255	0 0 255	0 0 255	0 0 255	0 0 255	0 0 255	0 0 255	0 0 255	0 0 255	0 0 255	0 0 255	0 0 255	0 0 255	0 0 255	0 0 255	0 0 255	0 0 255	0 0 255	0 0 255	0 0 255	0 0 255	0 0 255	0 0 255	0 0 255	0 0 255	0 0 255	0 0 255	0 0 255	0 0 255	
0 0 255	0 0 255	0 0 255	0 0 255	0 0 255	0 0 255	0 0 255	0 0 255	0 0 255	0 0 255	0 0 255	0 0 255	0 0 255	0 0 255	0 0 255	0 0 255	0 0 255	0 0 255	0 0 255	0 0 255	0 0 255	0 0 255	0 0 255	0 0 255	0 0 255	0 0 255	0 0 255	0 0 255	0 0 255	0 0 255	0 0 255	0 0 255	0 0 255	0 0 255	0 0 255	0 0 255	0 0 255	0 0 255	0 0 255	0 0 255	0 0 255	0 0 255	0 0 255	0 0 255	0 0 255	0 0 255	0 0 255	0 0 255	0 0 255	0 0 255	0 0 255	0 0 255	0 0 255	0 0 255	0 0 255	0 0 255	0 0 255	0 0 255	0 0 255	0 0 255	0 0 255	0 0 255	0 0 255	0 0 255	0 0 255	0 0 255	0 0 255	0 0 255	0 0 255	0 0 255	0 0 255	0 0 255	0 0 255	0 0 255	0 0 255	0 0 255	0 0 255	0 0 255	0 0 255	0 0 255	0 0 255	0 0 255	0 0 255	0 0 255	6 0 127	6 0 127	6 0 127	6 0 127	6 0 127	0 0 127	1 0 127	3 0 127	4 0 127	6 0 127	7 0 127	8 0 127	9 0 127	10 0 127	11 0 127	12 0 127	13 0 127	14 0 127	14 0 127	15 0 127	16 0 127	16 0 127	17 0 127	18 0 127	18 0 127	19 0 127	19 0 127	29 0 63	30 0 63	31 0 63	31 0 63	32 0 63	32 0 63	33 0 63	33 0 63	33 0 63	34 0 63	34 0 63	34 0 63	34 0 63	34 0 63	34 0 63	34 0 63	35 0 63	34 0 63	34 0 63	34 0 63	34 0 63	34 0 63	34 0 63	34 0 63	33 0 63	33 0 63	33 0 63	32 0 63	32 0 63	31 0 63	31 0 63	30 0 63	29 0 63	19 0 127	19 0 127	18 0 127	18 0 127	17 0 127	16 0 127	16 0 127	15 0 127	14 0 127	14 0 127	13 0 127	12 0 127	11 0 127	10 0 127	9 0 127	8 0 127	7 0 127	6 0 127	4 0 127	3 0 127	1 0 127	0 0 127	6 0 127	6 0 127	6 0 127	6 0 127	6 0 127	0 0 255	0 0 255	0 0 255	0 0 255	0 0 255	0 0 255	0 0 255	0 0 255	0 0 255	0 0 255	0 0 255	0 0 255	0 0 255	0 0 255	0 0 255	0 0 255	0 0 255	0 0 255	0 0 255	0 0 255	0 0 255	0 0 255	0 0 255	0 0 255	0 0 255	0 0 255	0 0 255	0 0 255	0 0 255	0 0 255	0 0 255	0 0 255	0 0 255	0 0 255	0 0 255	0 0 255	0 0 255	0 0 255	0 0 255	0 0 255	0 0 255	0 0 255	0 0 255	0 0 255	0 0 255	0 0 255	0 0 255	0 0 255	0 0 255	0 0 255	0 0 255	0 0 255	0 0 255	0 0 255	0 0 255	0 0 255	0 0 255	0 0 255	0 0 255	0 0 255	0 0 255	0 0 255	0 0 255	0 0 255	0 0 255	0 0 255	0 0 255	0 0 255	0 0 255	0 0 255	0 0 255	0 0 255	0 0 255	0 0 255	0 0 255	0 0 255	0 0 255	0 0 255	0 0 255	0 0 255	0 0 255	0 0 255	0 0 255	0 0 255	0 0 255	
0 0 255	0 0 255	0 0 255	0 0 255	0 0 255	0 0 255	0 0 255	0 0 255	0 0 255	0 0 255	0 0 255	0 0 255	0 0 255	0 0 255	0 0 255	0 0 255	0 0 255	0 0 255	0 0 255	0 0 255	0 0 255	0 0 255	0 0 255	0 0 255	0 0 255	0 0 255	0 0 255	0 0 255	0 0 255	0 0 255	0 0 255	0 0 255	0 0 255	0 0 255	0 0 255	0 0 255	0 0 255	0 0 255	0 0 255	0 0 255	0 0 255	0 0 255	0 0 255	0 0 255	0 0 255	0 0 255	0 0 255	0 0 255	0 0 255	0 0 255	0 0 255	0 0 255	0 0 255	0 0 255	0 0 255	0 0 255	0 0 255	0 0 255	0 0 255	0 0 255	0 0 255	0 0 255	0 0 255	0 0 255	0 0 255	0 0 255	0 0 255	0 0 255	0 0 255	0 0 255	0 0 255	0 0 255	0 0 255	0 0 255	0 0 255	0 0 255	0 0 255	0 0 255	0 0 255	0 0 255	0 0 255	0 0 255	0 0 255	0 0 255	0 0 255	6 0 127	6 0 127	6 0 127	6 0 127	6 0 127	0 0 127	2 0 127	3 0 127	5 0 127	6 0 127	7 0 127	8 0 127	9 0 127	10 0 127	11 0 127	12 0 127	13 0 127	13 0 127	14 0 127	15 0 127	15 0 127	16 0 127	17 0 127	17 0 127	18 0 127	18 0 127	19 0 127	19 0 127	29 0 63	30 0 63	30 0 63	31 0 63	31 0 63	31 0 63	32 0 63	32 0 63	32 0 63	33 0 63	33 0 63	33 0 63	33 0 63	33 0 63	33 0 63	33 0 63	33 0 63	33 0 63	33 0 63	33 0 63	32 0 63	32 0 63	32 0 63	31 0 63	31 0 63	31 0 63	30 0 63	30 0 63	29 0 63	19 0 127	19 0 127	18 0 127	18 0 127	17 0 127	17 0 127	16 0 127	15 0 127	15 0 127	14 0 127	13 0 127	13 0 127	12 0 127	11 0 127	10 0 127	9 0 127	8 0 127	7 0 127	6 0 127	5 0 127	3 0 127	2 0 127	0 0 127	6 0 127	6 0 127	6 0 127	6 0 127	6 0 127	0 0 255	0 0 255	0 0 255	0 0 255	0 0 255	0 0 255	0 0 255	0 0 255	0 0 255	0 0 255	0 0 255	0 0 255	0 0 255	0 0 255	0 0 255	0 0 255	0 0 255	0 0 255	0 0 255	0 0 255	0 0 255	0 0 255	0 0 255	0 0 255	0 0 255	0 0 255	0 0 255	0 0 255	0 0 255	0 0 255	0 0 255	0 0 255	0 0 255	0 0 255	0 0 255	0 0 255	0 0 255	0 0 255	0 0 255	0 0 255	0 0 255	0 0 255	0 0 255	0 0 255	0 0 255	0 0 255	0 0 255	0 0 255	0 0 255	0 0 255	0 0 255	0 0 255	0 0 255	0 0 255	0 0 255	0 0 255	0 0 255	0 0 255	0 0 255	0 0 255	0 0 255	0 0 255	0 0 255	0 0 255	0 0 255	0 0 255	0 0 255	0 0 255	0 0 255	0 0 255	0 0 255	0 0 255	0 0 255	0 0 255	0 0 255	0 0 255	0 0 255	0 0 255	0 0 255	0 0 255	0 0 255	0 0 255	0 0 255	0 0 255	0 0 255	0 0 255	
0 0 255	0 0 255	0 0 255	0 0 255	0 0 255	0 0 255	0 0 255	0 0 255	0 0 255	0 0 255	0 0 255	0 0 255	0 0 255	0 0 255	0 0 255	0 0 255	0 0 255	0 0 255	0 0 255	0 0 255	0 0 255	0 0 255	0 0 255	0 0 255	0 0 255	0 0 255	0 0 255	0 0 255	0 0 255	0 0 255	0 0 255	0 0 255	0 0 255	0 0 255	0 0 255	0 0 255	0 0 255	0 0 255	0 0 255	0 0 255	0 0 255	0 0 255	0 0 255	0 0 255	0 0 255	0 0 255	0 0 255	0 0 255	0 0 255	0 0 255	0 0 255	0 0 255	0 0 255	0 0 255	0 0 255	0 0 255	0 0 255	0 0 255	0 0 255	0 0 255	0 0 255	0 0 255	0 0 255	0 0 255	0 0 255	0 0 255	0 0 255	0 0 255	0 0 255	0 0 255	0 0 255	0 0 255	0 0 255	0 0 255	0 0 255	0 0 255	0 0 255	0 0 255	0 0 255	0 0 255	0 0 255	0 0 255	0 0 255	0 0 255	0 0 255	6 0 127	6 0 127	6 0 127	6 0 127	6 0 127	6 0 127	0 0 127	2 0 127	3 0 127	5 0 127	6 0 127	7 0 127	8 0 127	9 0 127	10 0 127	11 0 127	11 0 127	12 0 127	13 0 127	14 0 127	14 0 127	15 0 127	16 0 127	16 0 127	17 0 127	17 0 127	17 0 127	18 0 127	18 0 127	19 0 127	29 0 63	29 0 63	30 0 63	30 0 63	30 0 63	30 0 63	31 0 63	31 0 63	31 0 63	31 0 63	31 0 63	31 0 63	31 0 63	31 0 63	31 0 63	31 0 63	31 0 63	31 0 63	31 0 63	30 0 63	30 0 63	30 0 63	30 0 63	29 0 63	29 0 63	19 0 127	18 0 127	18 0 127	17 0 127	17 0 127	17 0 127	16 0 127	16 0 127	15 0 127	14 0 127	14 0 127	13 0 127	12 0 127	11 0 127	11 0 127	10 0 127	9 0 127	8 0 127	7 0 127	6 0 127	5 0 127	3 0 127	2 0 127	0 0 127	6 0 127	6 0 127	6 0 127	6 0 127	6 0 127	6 0 127	0 0 255	0 0 255	0 0 255	0 0 255	0 0 255	0 0 255	0 0 255	0 0 255	0 0 255	0 0 255	0 0 255	0 0 255	0 0 255	0 0 255	0 0 255	0 0 255	0 0 255	0 0 255	0 0 255	0 0 255	0 0 255	0 0 255	0 0 255	0 0 255	0 0 255	0 0 255	0 0 255	0 0 255	0 0 255	0 0 255	0 0 255	0 0 255	0 0 255	0 0 255	0 0 255	0 0 255	0 0 255	0 0 255	0 0 255	0 0 255	0 0 255	0 0 255	0 0 255	0 0 255	0 0 255	0 0 255	0 0 255	0 0 255	0 0 255	0 0 255	0 0 255	0 0 255	0 0 255	0 0 255	0 0 255	0 0 255	0 0 255	0 0 255	0 0 255	0 0 255	0 0 255	0 0 255	0 0 255	0 0 255	0 0 255	0 0 255	0 0 255	0 0 255	0 0 255	0 0 255	0 0 255	0 0 255	0 0 255	0 0 255	0 0 255	0 0 255	0 0 255	0 0 255	0 0 255	0 0 255	0 0 255	0 0 255	0 0 255	0 0 255	0 0 255	0 0 255	
0 0 255	0 0 255	0 0 255	0 0 255	0 0 255	0 0 255	0 0 255	0 0 255	0 0 255	0 0 255	0 0 255	0 0 255	0 0 255	0 0 255	0 0 255	0 0 255	0 0 255	0 0 255	0 0 255	0 0 255	0 0 255	0 0 255	0 0 255	0 0 255	0 0 255	0 0 255	0 0 255	0 0 255	0 0 255	0 0 255	0 0 255	0 0 255	0 0 255	0 0 255	0 0 255	0 0 255	0 0 255	0 0 255	0 0 255	0 0 255	0 0 255	0 0 255	0 0 255	0 0 255	0 0 255	0 0 255	0 0 255	0 0 255	0 0 255	0 0 255	0 0 255	0 0 255	0 0 255	0 0 255	0 0 255	0 0 255	0 0 255	0 0 255	0 0 255	0 0 255	0 0 255	0 0 255	0 0 255	0 0 255	0 0 255	0 0 255	0 0 255	0 0 255	0 0 255	0 0 255	0 0 255	0 0 255	0 0 255	0 0 255	0 0 255	0 0 255	0 0 255	0 0 255	0 0 255	0 0 255	0 0 255	0 0 255	0 0 255	0 0 255	0 0 255	0 0 255	6 0 127	6 0 127	6 0 127	6 0 127	6 0 127	6 0 127	0 0 127	2 0 127	3 0 127	4 0 127	6 0 127	7 0 127	8 0 127	9 0 127	9 0 127	10 0 127	11 0 127	12 0 127	13 0 127	13 0 127	14 0 127	14 0 127	15 0 127	15 0 127	16 0 127	16 0 127	17 0 127	17 0 127	18 0 127	18 0 127	18 0 127	18 0 127	28 0 63	29 0 63	29 0 63	29 0 63	29 0 63	30 0 63	30 0 63	30 0 63	30 0 63	30 0 63	30 0 63	30 0 63	30 0 63	30 0 63	29 0 63	29 0 63	29 0 63	29 0 63	28 0 63	18 0 127	18 0 127	18 0 127	18 0 127	17 0 127	17 0 127	16 0 127	16 0 127	15 0 127	15 0 127	14 0 127	14 0 127	13 0 127	13 0 127	12 0 127	11 0 127	10 0 127	9 0 127	9 0 127	8 0 127	7 0 127	6 0 127	4 0 127	3 0 127	2 0 127	0 0 127	6 0 127	6 0 127	6 0 127	6 0 127	6 0 127	6 0 127	0 0 255	0 0 255	0 0 255	0 0 255	0 0 255	0 0 255	0 0 255	0 0 255	0 0 255	0 0 255	0 0 255	0 0 255	0 0 255	0 0 255	0 0 255	0 0 255	0 0 255	0 0 255	0 0 255	0 0 255	0 0 255	0 0 255	0 0 255	0 0 255	0 0 255	0 0 255	0 0 255	0 0 255	0 0 255	0 0 255	0 0 255	0 0 255	0 0 255	0 0 255	0 0 255	0 0 255	0 0 255	0 0 255	0 0 255	0 0 255	0 0 255	0 0 255	0 0 255	0 0 255	0 0 255	0 0 255	0 0 255	0 0 255	0 0 255	0 0 255	0 0 255	0 0 255	0 0 255	0 0 255	0 0 255	0 0 255	0 0 255	0 0 255	0 0 255	0 0 255	0 0 255	0 0 255	0 0 255	0 0 255	0 0 255	0 0 255	0 0 255	0 0 255	0 0 255	0 0 255	0 0 255	0 0 255	0 0 255	0 0 255	0 0 255	0 0 255	0 0 255	0 0 255	0 0 255	0 0 255	0 0 255	0 0 255	0 0 255	0 0 255	0 0 255	0 0 255	0 0 255	
0 0 255	0 0 255	0 0 255	0 0 255	0 0 255	0 0 255	0 0 255	0 0 255	0 0 255	0 0 255	0 0 255	0 0 255	0 0 255	0 0 255	0 0 255	0 0 255	0 0 255	0 0 255	0 0 255	0 0 255	0 0 255	0 0 255	0 0 255	0 0 255	0 0 255	0 0 255	0 0 255	0 0 255	0 0 255	0 0 255	0 0 255	0 0 255	0 0 255	0 0 255	0 0 255	0 0 255	0 0 255	0 0 255	0 0 255	0 0 255	0 0 255	0 0 255	0 0 255	0 0 255	0 0 255	0 0 255	0 0 255	0 0 255	0 0 255	0 0 255	0 0 255	0 0 255	0 0 255	0 0 255	0 0 255	0 0 255	0 0 255	0 0 255	0 0 255	0 0 255	0 0 255	0 0 255	0 0 255	0 0 255	0 0 255	0 0 255	0 0 255	0 0 255	0 0 255	0 0 255	0 0 255	0 0 255	0 0 255	0 0 255	0 0 255	0 0 255	0 0 255	0 0 255	0 0 255	0 0 255	0 0 255	0 0 255	0 0 255	0 0 255	0 0 255	0 0 255	0 0 255	6 0 127	6 0 127	6 0 127	6 0 127	6 0 127	6 0 127	0 0 127	2 0 127	3 0 127	4 0 127	5 0 127	6 0 127	7 0 127	8 0 127	9 0 127	10 0 127	11 0 127	11 0 127	12 0 127	13 0 127	13 0 127	14 0 127	14 0 127	15 0 127	15 0 127	16 0 127	16 0 127	16 0 127	17 0 127	17 0 127	17 0 127	18 0 127	18 0 127	18 0 127	18 0 127	28 0 63	28 0 63	28 0 63	28 0 63	28 0 63	28 0 63	28 0 63	28 0 63	28 0 63	28 0 63	28 0 63	18 0 127	18 0 127	18 0 127	18 0 127	17 0 127	17 0 127	17 0 127	16 0 127	16 0 127	16 0 127	15 0 127	15 0 127	14 0 127	14 0 127	13 0 127	13 0 127	12 0 127	11 0 127	11 0 127	10 0 127	9 0 127	8 0 127	7 0 127	6 0 127	5 0 127	4 0 127	3 0 127	2 0 127	0 0 127	6 0 127	6 0 127	6 0 127	6 0 127	6 0 127	6 0 127	0 0 255	0 0 255	0 0 255	0 0 255	0 0 255	0 0 255	0 0 255	0 0 255	0 0 255	0 0 255	0 0 255	0 0 255	0 0 255	0 0 255	0 0 255	0 0 255	0 0 255	0 0 255	0 0 255	0 0 255	0 0 255	0 0 255	0 0 255	0 0 255	0 0 255	0 0 255	0 0 255	0 0 255	0 0 255	0 0 255	0 0 255	0 0 255	0 0 255	0 0 255	0 0 255	0 0 255	0 0 255	0 0 255	0 0 255	0 0 255	0 0 255	0 0 255	0 0 255	0 0 255	0 0 255	0 0 255	0 0 255	0 0 255	0 0 255	0 0 255	0 0 255	0 0 255	0 0 255	0 0 255	0 0 255	0 0 255	0 0 255	0 0 255	0 0 255	0 0 255	0 0 255	0 0 255	0 0 255	0 0 255	0 0 255	0 0 255	0 0 255	0 0 255	0 0 255	0 0 255	0 0 255	0 0 255	0 0 255	0 0 255	0 0 255	0 0 255	0 0 255	0 0 255	0 0 255	0 0 255	0 0 255	0 0 255	0 0 255	0 0 255	0 0 255	0 0 255	0 0 255	0 0 255	
0 0 255	0 0 255	0 0 255	0 0 255	0 0 255	0 0 255	0 0 255	0 0 255	0 0 255	0 0 255	0 0 255	0 0 255	0 0 255	0 0 255	0 0 255	0 0 255	0 0 255	0 0 255	0 0 255	0 0 255	0 0 255	0 0 255	0 0 255	0 0 255	0 0 255	0 0 255	0 0 255	0 0 255	0 0 255	0 0 255	0 0 255	0 0 255	0 0 255	0 0 255	0 0 255	0 0 255	0 0 255	0 0 255	0 0 255	0 0 255	0 0 255	0 0 255	0 0 255	0 0 255	0 0 255	0 0 255	0 0 255	0 0 255	0 0 255	0 0 255	0 0 255	0 0 255	0 0 255	0 0 255	0 0 255	0 0 255	0 0 255	0 0 255	0 0 255	0 0 255	0 0 255	0 0 255	0 0 255	0 0 255	0 0 255	0 0 255	0 0 255	0 0 255	0 0 255	0 0 255	0 0 255	0 0 255	0 0 255	0 0 255	0 0 255	0 0 255	0 0 255	0 0 255	0 0 255	0 0 255	0 0 255	0 0 255	0 0 255	0 0 255	0 0 255	0 0 255	0 0 255	6 0 127	6 0 127	6 0 127	6 0 127	6 0 127	6 0 127	6 0 127	0 0 127	2 0 127	3 0 127	4 0 127	5 0 127	6 0 127	7 0 127	8 0 127	9 0 127	10 0 127	10 0 127	11 0 127	12 0 127	12 0 127	13 0 127	13 0 127	14 0 127	14 0 127	15 0 127	15 0 127	15 0 127	16 0 127	16 0 127	16 0 127	17 0 127	17 0 127	17 0 127	17 0 127	17 0 127	17 0 127	17 0 127	18 0 127	18 0 127	18 0 127	18 0 127	18 0 127	17 0 127	17 0 127	17 0 127	17 0 127	17 0 127	17 0 127	17 0 127	16 0 127	16 0 127	16 0 127	15 0 127	15 0 127	15 0 127	14 0 127	14 0 127	13 0 127	13 0 127	12 0 127	12 0 127	11 0 127	10 0 127	10 0 127	9 0 127	8 0 127	7 0 127	6 0 127	5 0 127	4 0 127	3 0 127	2 0 127	0 0 127	6 0 127	6 0 127	6 0 127	6 0 127	6 0 127	6 0 127	6 0 127	0 0 255	0 0 255	0 0 255	0 0 255	0 0 255	0 0 255	0 0 255	0 0 255	0 0 255	0 0 255	0 0 255	0 0 255	0 0 255	0 0 255	0 0 255	0 0 255	0 0 255	0 0 255	0 0 255	0 0 255	0 0 255	0 0 255	0 0 255	0 0 255	0 0 255	0 0 255	0 0 255	0 0 255	0 0 255	0 0 255	0 0 255	0 0 255	0 0 255	0 0 255	0 0 255	0 0 255	0 0 255	0 0 255	0 0 255	0 0 255	0 0 255	0 0 255	0 0 255	0 0 255	0 0 255	0 0 255	0 0 255	0 0 255	0 0 255	0 0 255	0 0 255	0 0 255	0 0 255	0 0 255	0 0 255	0 0 255	0 0 255	0 0 255	0 0 255	0 0 255	0 0 255	0 0 255	0 0 255	0 0 255	0 0 255	0 0 255	0 0 255	0 0 255	0 0 255	0 0 255	0 0 255	0 0 255	0 0 255	0 0 255	0 0 255	0 0 255	0 0 255	0 0 255	0 0 255	0 0 255	0 0 255	0 0 255	0 0 255	0 0 255	0 0 255	0 0 255	0 0 255	0 0 255	
0 0 255	0 0 255	0 0 255	0 0 255	0 0 255	0 0 255	0 0 255	0 0 255	0 0 255	0 0 255	0 0 255	0 0 255	0 0 255	0 0 255	0 0 255	0 0 255	0 0 255	0 0 255	0 0 255	0 0 255	0 0 255	0 0 255	0 0 255	0 0 255	0 0 255	0 0 255	0 0 255	0 0 255	0 0 255	0 0 255	0 0 255	0 0 255	0 0 255	0 0 255	0 0 255	0 0 255	0 0 255	0 0 255	0 0 255	0 0 255	0 0 255	0 0 255	0 0 255	0 0 255	0 0 255	0 0 255	0 0 255	0 0 255	0 0 255	0 0 255	0 0 255	0 0 255	0 0 255	0 0 255	0 0 255	0 0 255	0 0 255	0 0 255	0 0 255	0 0 255	0 0 255	0 0 255	0 0 255	0 0 255	0 0 255	0 0 255	0 0 255	0 0 255	0 0 255	0 0 255	0 0 255	0 0 255	0 0 255	0 0 255	0 0 255	0 0 255	0 0 255	0 0 255	0 0 255	0 0 255	0 0 255	0 0 255	0 0 255	0 0 255	0 0 255	0 0 255	0 0 255	0 0 255	6 0 127	6 0 127	6 0 127	6 0 127	6 0 127	6 0 127	6 0 127	0 0 127	2 0 127	3 0 127	4 0 127	5 0 127	6 0 127	7 0 127	8 0 127	8 0 127	9 0 127	10 0 127	10 0 127	11 0 127	12 0 127	12 0 127	13 0 127	13 0 127	13 0 127	14 0 127	14 0 127	15 0 127	15 0 127	15 0 127	15 0 127	16 0 127	16 0 127	16 0 127	16 0 127	16 0 127	16 0 127	16 0 127	16 0 127	16 0 127	16 0 127	16 0 127	16 0 127	16 0 127	16 0 127	16 0 127	16 0 127	16 0 127	15 0 127	15 0 127	15 0 127	15 0 127	14 0 127	14 0 127	13 0 127	13 0 127	13 0 127	12 0 127	12 0 127	11 0 127	10 0 127	10 0 127	9 0 127	8 0 127	8 0 127	7 0 127	6 0 127	5 0 127	4 0 127	3 0 127	2 0 127	0 0 127	6 0 127	6 0 127	6 0 127	6 0 127	6 0 127	6 0 127	6 0 127	0 0 255	0 0 255	0 0 255	0 0 255	0 0 255	0 0 255	0 0 255	0 0 255	0 0 255	0 0 255	0 0 255	0 0 255	0 0 255	0 0 255	0 0 255	0 0 255	0 0 255	0 0 255	0 0 255	0 0 255	0 0 255	0 0 255	0 0 255	0 0 255	0 0 255	0 0 255	0 0 255	0 0 255	0 0 255	0 0 255	0 0 255	0 0 255	0 0 255	0 0 255	0 0 255	0 0 255	0 0 255	0 0 255	0 0 255	0 0 255	0 0 255	0 0 255	0 0 255	0 0 255	0 0 255	0 0 255	0 0 255	0 0 255	0 0 255	0 0 255	0 0 255	0 0 255	0 0 255	0 0 255	0 0 255	0 0 255	0 0 255	0 0 255	0 0 255	0 0 255	0 0 255	0 0 255	0 0 255	0 0 255	0 0 255	0 0 255	0 0 255	0 0 255	0 0 255	0 0 255	0 0 255	0 0 255	0 0 255	0 0 255	0 0 255	0 0 255	0 0 255	0 0 255	0 0 255	0 0 255	0 0 255	0 0 255	0 0 255	0 0 255	0 0 255	0 0 255	0 0 255	0 0 255	0 0 255	
0 0 255	0 0 255	0 0 255	0 0 255	0 0 255	0 0 255	0 0 255	0 0 255	0 0 255	0 0 255	0 0 255	0 0 255	0 0 255	0 0 255	0 0 255	0 0 255	0 0 255	0 0 255	0 0 255	0 0 255	0 0 255	0 0 255	0 0 255	0 0 255	0 0 255	0 0 255	0 0 255	0 0 255	0 0 255	0 0 255	0 0 255	0 0 255	0 0 255	0 0 255	0 0 255	0 0 255	0 0 255	0 0 255	0 0 255	0 0 255	0 0 255	0 0 255	0 0 255	0 0 255	0 0 255	0 0 255	0 0 255	0 0 255	0 0 255	0 0 255	0 0 255	0 0 255	0 0 255	0 0 255	0 0 255	0 0 255	0 0 255	0 0 255	0 0 255	0 0 255	0 0 255	0 0 255	0 0 255	0 0 255	0 0 255	0 0 255	0 0 255	0 0 255	0 0 255	0 0 255	0 0 255	0 0 255	0 0 255	0 0 255	0 0 255	0 0 255	0 0 255	0 0 255	0 0 255	0 0 255	0 0 255	0 0 255	0 0 255	0 0 255	0 0 255	0 0 255	0 0 255	0 0 255	0 0 255	6 0 127	6 0 127	6 0 127	6 0 127	6 0 127	6 0 127	6 0 127	0 0 127	1 0 127	2 0 127	3 0 127	4 0 127	5 0 127	6 0 127	7 0 127	8 0 127	8 0 127	9 0 127	10 0 127	10 0 127	11 0 127	11 0 127	12 0 127	12 0 127	13 0 127	13 0 127	13 0 127	14 0 127	14 0 127	14 0 127	15 0 127	15 0 127	15 0 127	15 0 127	15 0 127	15 0 127	15 0 127	15 0 127	15 0 127	15 0 127	15 0 127	15 0 127	15 0 127	15 0 127	15 0 127	15 0 127	15 0 127	14 0 127	14 0 127	14 0 127	13 0 127	13 0 127	13 0 127	12 0 127	12 0 127	11 0 127	11 0 127	10 0 127	10 0 127	9 0 127	8 0 127	8 0 127	7 0 127	6 0 127	5 0 127	4 0 127	3 0 127	2 0 127	1 0 127	0 0 127	6 0 127	6 0 127	6 0 127	6 0 127	6 0 127	6 0 127	6 0 127	0 0 255	0 0 255	0 0 255	0 0 255	0 0 255	0 0 255	0 0 255	0 0 255	0 0 255	0 0 255	0 0 255	0 0 255	0 0 255	0 0 255	0 0 255	0 0 255	0 0 255	0 0 255	0 0 255	0 0 255	0 0 255	0 0 255	0 0 255	0 0 255	0 0 255	0 0 255	0 0 255	0 0 255	0 0 255	0 0 255	0 0 255	0 0 255	0 0 255	0 0 255	0 0 255	0 0 255	0 0 255	0 0 255	0 0 255	0 0 255	0 0 255	0 0 255	0 0 255	0 0 255	0 0 255	0 0 255	0 0 255	0 0 255	0 0 255	0 0 255	0 0 255	0 0 255	0 0 255	0 0 255	0 0 255	0 0 255	0 0 255	0 0 255	0 0 255	0 0 255	0 0 255	0 0 255	0 0 255	0 0 255	0 0 255	0 0 255	0 0 255	0 0 255	0 0 255	0 0 255	0 0 255	0 0 255	0 0 255	0 0 255	0 0 255	0 0 255	0 0 255	0 0 255	0 0 255	0 0 255	0 0 255	0 0 255	0 0 255	0 0 255	0 0 255	0 0 255	0 0 255	0 0 255	0 0 255	0 0 255	
0 0 255	0 0 255	0 0 255	0 0 255	0 0 255	0 0 255	0 0 255	0 0 255	0 0 255	0 0 255	0 0 255	0 0 255	0 0 255	0 0 255	0 0 255	0 0 255	0 0 255	0 0 255	0 0 255	0 0 255	0 0 255	0 0 255	0 0 255	0 0 255	0 0 255	0 0 255	0 0 255	0 0 255	0 0 255	0 0 255	0 0 255	0 0 255	0 0 255	0 0 255	0 0 255	0 0 255	0 0 255	0 0 255	0 0 255	0 0 255	0 0 255	0 0 255	0 0 255	0 0 255	0 0 255	0 0 255	0 0 255	0 0 255	0 0 255	0 0 255	0 0 255	0 0 255	0 0 255	0 0 255	0 0 255	0 0 255	0 0 255	0 0 255	0 0 255	0 0 255	0 0 255	0 0 255	0 0 255	0 0 255	0 0 255	0 0 255	0 0 255	0 0 255	0 0 255	0 0 255	0 0 255	0 0 255	0 0 255	0 0 255	0 0 255	0 0 255	0 0 255	0 0 255	0 0 255	0 0 255	0 0 255	0 0 255	0 0 255	0 0 255	0 0 255	0 0 255	0 0 255	0 0 255	0 0 255	0 0 255	6 0 127	6 0 127	6 0 127	6 0 127	6 0 127	6 0 127	6 0 127	0 0 127	1 0 127	2 0 127	3 0 127	4 0 127	5 0 127	6 0 127	7 0 127	7 0 127	8 0 127	9 0 127	9 0 127	10 0 127	10 0 127	11 0 127	11 0 127	12 0 127	12 0 127	12 0 127	13 0 127	13 0 127	13 0 127	13 0 127	14 0 127	14 0 127	14 0 127	14 0 127	14 0 127	14 0 127	14 0 127	14 0 127	14 0 127	14 0 127	14 0 127	14 0 127	14 0 127	14 0 127	14 0 127	13 0 127	13 0 127	13 0 127	13 0 127	12 0 127	12 0 127	12 0 127	11 0 127	11 0 127	10 0 127	10 0 127	9 0 127	9 0 127	8 0 127	7 0 127	7 0 127	6 0 127	5 0 127	4 0 127	3 0 127	2 0 127	1 0 127	0 0 127	6 0 127	6 0 127	6 0 127	6 0 127	6 0 127	6 0 127	6 0 127	0 0 255	0 0 255	0 0 255	0 0 255	0 0 255	0 0 255	0 0 255	0 0 255	0 0 255	0 0 255	0 0 255	0 0 255	0 0 255	0 0 255	0 0 255	0 0 255	0 0 255	0 0 255	0 0 255	0 0 255	0 0 255	0 0 255	0 0 255	0 0 255	0 0 255	0 0 255	0 0 255	0 0 255	0 0 255	0 0 255	0 0 255	0 0 255	0 0 255	0 0 255	0 0 255	0 0 255	0 0 255	0 0 255	0 0 255	0 0 255	0 0 255	0 0 255	0 0 255	0 0 255	0 0 255	0 0 255	0 0 255	0 0 255	0 0 255	0 0 255	0 0 255	0 0 255	0 0 255	0 0 255	0 0 255	0 0 255	0 0 255	0 0 255	0 0 255	0 0 255	0 0 255	0 0 255	0 0 255	0 0 255	0 0 255	0 0 255	0 0 255	0 0 255	0 0 255	0 0 255	0 0 255	0 0 255	0 0 255	0 0 255	0 0 255	0 0 255	0 0 255	0 0 255	0 0 255	0 0 255	0 0 255	0 0 255	0 0 255	0 0 255	0 0 255	0 0 255	0 0 255	0 0 255	0 0 255	0 0 255	0 0 255	
0 0 255	0 0 255	0 0 255	0 0 255	0 0 255	0 0 255	0 0 255	0 0 255	0 0 255	0 0 255	0 0 255	0 0 255	0 0 255	0 0 255	0 0 255	0 0 255	0 0 255	0 0 255	0 0 255	0 0 255	0 0 255	0 0 255	0 0 255	0 0 255	0 0 255	0 0 255	0 0 255	0 0 255	0 0 255	0 0 255	0 0 255	0 0 255	0 0 255	0 0 255	0 0 255	0 0 255	0 0 255	0 0 255	0 0 255	0 0 255	0 0 255	0 0 255	0 0 255	0 0 255	0 0 255	0 0 255	0 0 255	0 0 255	0 0 255	0 0 255	0 0 255	0 0 255	0 0 255	0 0 255	0 0 255	0 0 255	0 0 255	0 0 255	0 0 255	0 0 255	0 0 255	0 0 255	0 0 255	0 0 255	0 0 255	0 0 255	0 0 255	0 0 255	0 0 255	0 0 255	0 0 255	0 0 255	0 0 255	0 0 255	0 0 255	0 0 255	0 0 255	0 0 255	0 0 255	0 0 255	0 0 255	0 0 255	0 0 255	0 0 255	0 0 255	0 0 255	0 0 255	0 0 255	0 0 255	0 0 255	6 0 127	6 0 127	6 0 127	6 0 127	6 0 127	6 0 127	6 0 127	6 0 127	0 0 127	1 0 127	2 0 127	3 0 127	4 0 127	4 0 127	5 0 127	6 0 127	7 0 127	7 0 127	8 0 127	8 0 127	9 0 127	9 0 127	10 0 127	10 0 127	11 0 127	11 0 127	11 0 127	12 0 127	12 0 127	12 0 127	12 0 127	13 0 127	13 0 127	13 0 127	13 0 127	13 0 127	13 0 127	13 0 127	13 0 127	13 0 127	13 0 127	13 0 127	13 0 127	13 0 127	12 0 127	12 0 127	12 0 127	12 0 127	11 0 127	11 0 127	11 0 127	10 0 127	10 0 127	9 0 127	9 0 127	8 0 127	8 0 127	7 0 127	7 0 127	6 0 127	5 0 127	4 0 127	4 0 127	3 0 127	2 0 127	1 0 127	0 0 127	6 0 127	6 0 127	6 0 127	6 0 127	6 0 127	6 0 127	6 0 127	6 0 127	0 0 255	0 0 255	0 0 255	0 0 255	0 0 255	0 0 255	0 0 255	0 0 255	0 0 255	0 0 255	0 0 255	0 0 255	0 0 255	0 0 255	0 0 255	0 0 255	0 0 255	0 0 255	0 0 255	0 0 255	0 0 255	0 0 255	0 0 255	0 0 255	0 0 255	0 0 255	0 0 255	0 0 255	0 0 255	0 0 255	0 0 255	0 0 255	0 0 255	0 0 255	0 0 255	0 0 255	0 0 255	0 0 255	0 0 255	0 0 255	0 0 255	0 0 255	0 0 255	0 0 255	0 0 255	0 0 255	0 0 255	0 0 255	0 0 255	0 0 255	0 0 255	0 0 255	0 0 255	0 0 255	0 0 255	0 0 255	0 0 255	0 0 255	0 0 255	0 0 255	0 0 255	0 0 255	0 0 255	0 0 255	0 0 255	0 0 255	0 0 255	0 0 255	0 0 255	0 0 255	0 0 255	0 0 255	0 0 255	0 0 255	0 0 255	0 0 255	0 0 255	0 0 255	0 0 255	0 0 255	0 0 255	0 0 255	0 0 255	0 0 255	0 0 255	0 0 255	0 0 255	0 0 255	0 0 255	0 0 255	0 0 255	
0 0 255	0 0 255	0 0 255	0 0 255	0 0 255	0 0 255	0 0 255	0 0 255	0 0 255	0 0 255	0 0 255	0 0 255	0 0 255	0 0 255	0 0 255	0 0 255	0 0 255	0 0 255	0 0 255	0 0 255	0 0 255	0 0 255	0 0 255	0 0 255	0 0 255	0 0 255	0 0 255	0 0 255	0 0 255	0 0 255	0 0 255	0 0 255	0 0 255	0 0 255	0 0 255	0 0 255	0 0 255	0 0 255	0 0 255	0 0 255	0 0 255	0 0 255	0 0 255	0 0 255	0 0 255	0 0 255	0 0 255	0 0 255	0 0 255	0 0 255	0 0 255	0 0 255	0 0 255	0 0 255	0 0 255	0 0 255	0 0 255	0 0 255	0 0 255	0 0 255	0 0 255	0 0 255	0 0 255	0 0 255	0 0 255	0 0 255	0 0 255	0 0 255	0 0 255	0 0 255	0 0 255	0 0 255	0 0 255	0 0 255	0 0 255	0 0 255	0 0 255	0 0 255	0 0 255	0 0 255	0 0 255	0 0 255	0 0 255	0 0 255	0 0 255	0 0 255	0 0 255	0 0 255	0 0 255	0 0 255	0 0 255	6 0 127	6 0 127	6 0 127	6 0 127	6 0 127	6 0 127	6 0 127	6 0 127	6 0 127	0 0 127	1 0 127	2 0 127	3 0 127	4 0 127	5 0 127	5 0 127	6 0 127	7 0 127	7 0 127	8 0 127	8 0 127	9 0 127	9 0 127	9 0 127	10 0 127	10 0 127	10 0 127	11 0 127	11 0 127	11 0 127	11 0 127	12 0 127	12 0 127	12 0 127	12 0 127	12 0 127	12 0 127	12 0 127	12 0 127	12 0 127	12 0 127	12 0 127	11 0 127	11 0 127	11 0 127	11 0 127	10 0 127	10 0 127	10 0 127	9 0 127	9 0 127	9 0 127	8 0 127	8 0 127	7 0 127	7 0 127	6 0 127	5 0 127	5 0 127	4 0 127	3 0 127	2 0 127	1 0 127	0 0 127	6 0 127	6 0 127	6 0 127	6 0 127	6 0 127	6 0 127	6 0 127	6 0 127	6 0 127	0 0 255	0 0 255	0 0 255	0 0 255	0 0 255	0 0 255	0 0 255	0 0 255	0 0 255	0 0 255	0 0 255	0 0 255	0 0 255	0 0 255	0 0 255	0 0 255	0 0 255	0 0 255	0 0 255	0 0 255	0 0 255	0 0 255	0 0 255	0 0 255	0 0 255	0 0 255	0 0 255	0 0 255	0 0 255	0 0 255	0 0 255	0 0 255	0 0 255	0 0 255	0 0 255	0 0 255	0 0 255	0 0 255	0 0 255	0 0 255	0 0 255	0 0 255	0 0 255	0 0 255	0 0 255	0 0 255	0 0 255	0 0 255	0 0 255	0 0 255	0 0 255	0 0 255	0 0 255	0 0 255	0 0 255	0 0 255	0 0 255	0 0 255	0 0 255	0 0 255	0 0 255	0 0 255	0 0 255	0 0 255	0 0 255	0 0 255	0 0 255	0 0 255	0 0 255	0 0 255	0 0 255	0 0 255	0 0 255	0 0 255	0 0 255	0 0 255	0 0 255	0 0 255	0 0 255	0 0 255	0 0 255	0 0 255	0 0 255	0 0 255	0 0 255	0 0 255	0 0 255	0 0 255	0 0 255	0 0 255	0 0 255	0 0 255	
0 0 255	0 0 255	0 0 255	0 0 255	0 0 255	0 0 255	0 0 255	0 0 255	0 0 255	0 0 255	0 0 255	0 0 255	0 0 255	0 0 255	0 0 255	0 0 255	0 0 255	0 0 255	0 0 255	0 0 255	0 0 255	0 0 255	0 0 255	0 0 255	0 0 255	0 0 255	0 0 255	0 0 255	0 0 255	0 0 255	0 0 255	0 0 255	0 0 255	0 0 255	0 0 255	0 0 255	0 0 255	0 0 255	0 0 255	0 0 255	0 0 255	0 0 255	0 0 255	0 0 255	0 0 255	0 0 255	0 0 255	0 0 255	0 0 255	0 0 255	0 0 255	0 0 255	0 0 255	0 0 255	0 0 255	0 0 255	0 0 255	0 0 255	0 0 255	0 0 255	0 0 255	0 0 255	0 0 255	0 0 255	0 0 255	0 0 255	0 0 255	0 0 255	0 0 255	0 0 255	0 0 255	0 0 255	0 0 255	0 0 255	0 0 255	0 0 255	0 0 255	0 0 255	0 0 255	0 0 255	0 0 255	0 0 255	0 0 255	0 0 255	0 0 255	0 0 255	0 0 255	0 0 255	0 0 255	0 0 255	0 0 255	0 0 255	6 0 127	6 0 127	6 0 127	6 0 127	6 0 127	6 0 127	6 0 127	6 0 127	6 0 127	0 0 127	1 0 127	2 0 127	2 0 127	3 0 127	4 0 127	5 0 127	5 0 127	6 0 127	6 0 127	7 0 127	7 0 127	8 0 127	8 0 127	9 0 127	9 0 127	9 0 127	10 0 127	10 0 127	10 0 127	10 0 127	10 0 127	10 0 127	11 0 127	11 0 127	11 0 127	11 0 127	11 0 127	11 0 127	11 0 127	10 0 127	10 0 127	10 0 127	10 0 127	10 0 127	10 0 127	9 0 127	9 0 127	9 0 127	8 0 127	8 0 127	7 0 127	7 0 127	6 0 127	6 0 127	5 0 127	5 0 127	4 0 127	3 0 127	2 0 127	2 0 127	1 0 127	0 0 127	6 0 127	6 0 127	6 0 127	6 0 127	6 0 127	6 0 127	6 0 127	6 0 127	6 0 127	0 0 255	0 0 255	0 0 255	0 0 255	0 0 255	0 0 255	0 0 255	0 0 255	0 0 255	0 0 255	0 0 255	0 0 255	0 0 255	0 0 255	0 0 255	0 0 255	0 0 255	0 0 255	0 0 255	0 0 255	0 0 255	0 0 255	0 0 255	0 0 255	0 0 255	0 0 255	0 0 255	0 0 255	0 0 255	0 0 255	0 0 255	0 0 255	0 0 255	0 0 255	0 0 255	0 0 255	0 0 255	0 0 255	0 0 255	0 0 255	0 0 255	0 0 255	0 0 255	0 0 255	0 0 255	0 0 255	0 0 255	0 0 255	0 0 255	0 0 255	0 0 255	0 0 255	0 0 255	0 0 255	0 0 255	0 0 255	0 0 255	0 0 255	0 0 255	0 0 255	0 0 255	0 0 255	0 0 255	0 0 255	0 0 255	0 0 255	0 0 255	0 0 255	0 0 255	0 0 255	0 0 255	0 0 255	0 0 255	0 0 255	0 0 255	0 0 255	0 0 255	0 0 255	0 0 255	0 0 255	0 0 255	0 0 255	0 0 255	0 0 255	0 0 255	0 0 255	0 0 255	0 0 255	0 0 255	0 0 255	0 0 255	0 0 255	0 0 255	
0 0 255	0 0 255	0 0 255	0 0 255	0 0 255	0 0 255	0 0 255	0 0 255	0 0 255	0 0 255	0 0 255	0 0 255	0 0 255	0 0 255	0 0 255	0 0 255	0 0 255	0 0 255	0 0 255	0 0 255	0 0 255	0 0 255	0 0 255	0 0 255	0 0 255	0 0 255	0 0 255	0 0 255	0 0 255	0 0 255	0 0 255	0 0 255	0 0 255	0 0 255	0 0 255	0 0 255	0 0 255	0 0 255	0 0 255	0 0 255	0 0 255	0 0 255	0 0 255	0 0 255	0 0 255	0 0 255	0 0 255	0 0 255	0 0 255	0 0 255	0 0 255	0 0 255	0 0 255	0 0 255	0 0 255	0 0 255	0 0 255	0 0 255	0 0 255	0 0 255	0 0 255	0 0 255	0 0 255	0 0 255	0 0 255	0 0 255	0 0 255	0 0 255	0 0 255	0 0 255	0 0 255	0 0 255	0 0 255	0 0 255	0 0 255	0 0 255	0 0 255	0 0 255	0 0 255	0 0 255	0 0 255	0 0 255	0 0 255	0 0 255	0 0 255	0 0 255	0 0 255	0 0 255	0 0 255	0 0 255	0 0 255	0 0 255	0 0 255	6 0 127	6 0 127	6 0 127	6 0 127	6 0 127	6 0 127	6 0 127	6 0 127	6 0 127	6 0 127	0 0 127	1 0 127	2 0 127	3 0 127	3 0 127	4 0 127	5 0 127	5 0 127	6 0 127	6 0 127	7 0 127	7 0 127	7 0 127	8 0 127	8 0 127	8 0 127	8 0 127	9 0 127	9 0 127	9 0 127	9 0 127	9 0 127	9 0 127	9 0 127	9 0 127	9 0 127	9 0 127	9 0 127	9 0 127	9 0 127	9 0 127	9 0 127	8 0 127	8 0 127	8 0 127	8 0 127	7 0 127	7 0 127	7 0 127	6 0 127	6 0 127	5 0 127	5 0 127	4 0 127	3 0 127	3 0 127	2 0 127	1 0 127	0 0 127	6 0 127	6 0 127	6 0 127	6 0 127	6 0 127	6 0 127	6 0 127	6 0 127	6 0 127	6 0 127	0 0 255	0 0 255	0 0 255	0 0 255	0 0 255	0 0 255	0 0 255	0 0 255	0 0 255	0 0 255	0 0 255	0 0 255	0 0 255	0 0 255	0 0 255	0 0 255	0 0 255	0 0 255	0 0 255	0 0 255	0 0 255	0 0 255	0 0 255	0 0 255	0 0 255	0 0 255	0 0 255	0 0 255	0 0 255	0 0 255	0 0 255	0 0 255	0 0 255	0 0 255	0 0 255	0 0 255	0 0 255	0 0 255	0 0 255	0 0 255	0 0 255	0 0 255	0 0 255	0 0 255	0 0 255	0 0 255	0 0 255	0 0 255	0 0 255	0 0 255	0 0 255	0 0 255	0 0 255	0 0 255	0 0 255	0 0 255	0 0 255	0 0 255	0 0 255	0 0 255	0 0 255	0 0 255	0 0 255	0 0 255	0 0 255	0 0 255	0 0 255	0 0 255	0 0 255	0 0 255	0 0 255	0 0 255	0 0 255	0 0 255	0 0 255	0 0 255	0 0 255	0 0 255	0 0 255	0 0 255	0 0 255	0 0 255	0 0 255	0 0 255	0 0 255	0 0 255	0 0 255	0 0 255	0 0 255	0 0 255	0 0 255	0 0 255	0 0 255	0 0 255	
0 0 255	0 0 255	0 0 255	0 0 255	0 0 255	0 0 255	0 0 255	0 0 255	0 0 255	0 0 255	0 0 255	0 0 255	0 0 255	0 0 255	0 0 255	0 0 255	0 0 255	0 0 255	0 0 255	0 0 255	0 0 255	0 0 255	0 0 255	0 0 255	0 0 255	0 0 255	0 0 255	0 0 255	0 0 255	0 0 255	0 0 255	0 0 255	0 0 255	0 0 255	0 0 255	0 0 255	0 0 255	0 0 255	0 0 255	0 0 255	0 0 255	0 0 255	0 0 255	0 0 255	0 0 255	0 0 255	0 0 255	0 0 255	0 0 255	0 0 255	0 0 255	0 0 255	0 0 255	0 0 255	0 0 255	0 0 255	0 0 255	0 0 255	0 0 255	0 0 255	0 0 255	0 0 255	0 0 255	0 0 255	0 0 255	0 0 255	0 0 255	0 0 255	0 0 255	0 0 255	0 0 255	0 0 255	0 0 255	0 0 255	0 0 255	0 0 255	0 0 255	0 0 255	0 0 255	0 0 255	0 0 255	0 0 255	0 0 255	0 0 255	0 0 255	0 0 255	0 0 255	0 0 255	0 0 255	0 0 255	0 0 255	0 0 255	0 0 255	0 0 255	6 0 127	6 0 127	6 0 127	6 0 127	6 0 127	6 0 127	6 0 127	6 0 127	6 0 127	6 0 127	3 0 127	0 0 127	1 0 127	2 0 127	2 0 127	3 0 127	4 0 127	4 0 127	5 0 127	5 0 127	6 0 127	6 0 127	6 0 127	7 0 127	7 0 127	7 0 127	7 0 127	8 0 127	8 0 127	8 0 127	8 0 127	8 0 127	8 0 127	8 0 127	8 0 127	8 0 127	8 0 127	8 0 127	8 0 127	8 0 127	7 0 127	7 0 127	7 0 127	7 0 127	6 0 127	6 0 127	6 0 127	5 0 127	5 0 127	4 0 127	4 0 127	3 0 127	2 0 127	2 0 127	1 0 127	0 0 127	3 0 127	6 0 127	6 0 127	6 0 127	6 0 127	6 0 127	6 0 127	6 0 127	6 0 127	6 0 127	6 0 127	0 0 255	0 0 255	0 0 255	0 0 255	0 0 255	0 0 255	0 0 255	0 0 255	0 0 255	0 0 255	0 0 255	0 0 255	0 0 255	0 0 255	0 0 255	0 0 255	0 0 255	0 0 255	0 0 255	0 0 255	0 0 255	0 0 255	0 0 255	0 0 255	0 0 255	0 0 255	0 0 255	0 0 255	0 0 255	0 0 255	0 0 255	0 0 255	0 0 255	0 0 255	0 0 255	0 0 255	0 0 255	0 0 255	0 0 255	0 0 255	0 0 255	0 0 255	0 0 255	0 0 255	0 0 255	0 0 255	0 0 255	0 0 255	0 0 255	0 0 255	0 0 255	0 0 255	0 0 255	0 0 255	0 0 255	0 0 255	0 0 255	0 0 255	0 0 255	0 0 255	0 0 255	0 0 255	0 0 255	0 0 255	0 0 255	0 0 255	0 0 255	0 0 255	0 0 255	0 0 255	0 0 255	0 0 255	0 0 255	0 0 255	0 0 255	0 0 255	0 0 255	0 0 255	0 0 255	0 0 255	0 0 255	0 0 255	0 0 255	0 0 255	0 0 255	0 0 255	0 0 255	0 0 255	0 0 255	0 0 255	0 0 255	0 0 255	0 0 255	0 0 255	0 0 255	
0 0 255	0 0 255	0 0 255	0 0 255	0 0 255	0 0 255	0 0 255	0 0 255	0 0 255	0 0 255	0 0 255	0 0 255	0 0 255	0 0 255	0 0 255	0 0 255	0 0 255	0 0 255	0 0 255	0 0 255	0 0 255	0 0 255	0 0 255	0 0 255	0 0 255	0 0 255	0 0 255	0 0 255	0 0 255	0 0 255	0 0 255	0 0 255	0 0 255	0 0 255	0 0 255	0 0 255	0 0 255	0 0 255	0 0 255	0 0 255	0 0 255	0 0 255	0 0 255	0 0 255	0 0 255	0 0 255	0 0 255	0 0 255	0 0 255	0 0 255	0 0 255	0 0 255	0 0 255	0 0 255	0 0 255	0 0 255	0 0 255	0 0 255	0 0 255	0 0 255	0 0 255	0 0 255	0 0 255	0 0 255	0 0 255	0 0 255	0 0 255	0 0 255	0 0 255	0 0 255	0 0 255	0 0 255	0 0 255	0 0 255	0 0 255	0 0 255	0 0 255	0 0 255	0 0 255	0 0 255	0 0 255	0 0 255	0 0 255	0 0 255	0 0 255	0 0 255	0 0 255	0 0 255	0 0 255	0 0 255	0 0 255	0 0 255	0 0 255	0 0 255	0 0 255	6 0 127	6 0 127	6 0 127	6 0 127	6 0 127	6 0 127	6 0 127	6 0 127	6 0 127	6 0 127	6 0 127	0 0 127	0 0 127	1 0 127	2 0 127	2 0 127	3 0 127	3 0 127	4 0 127	4 0 127	5 0 127	5 0 127	5 0 127	6 0 127	6 0 127	6 0 127	6 0 127	6 0 127	7 0 127	7 0 127	7 0 127	7 0 127	7 0 127	7 0 127	7 0 127	7 0 127	7 0 127	6 0 127	6 0 127	6 0 127	6 0 127	6 0 127	5 0 127	5 0 127	5 0 127	4 0 127	4 0 127	3 0 127	3 0 127	2 0 127	2 0 127	1 0 127	0 0 127	0 0 127	6 0 127	6 0 127	6 0 127	6 0 127	6 0 127	6 0 127	6 0 127	6 0 127	6 0 127	6 0 127	6 0 127	0 0 255	0 0 255	0 0 255	0 0 255	0 0 255	0 0 255	0 0 255	0 0 255	0 0 255	0 0 255	0 0 255	0 0 255	0 0 255	0 0 255	0 0 255	0 0 255	0 0 255	0 0 255	0 0 255	0 0 255	0 0 255	0 0 255	0 0 255	0 0 255	0 0 255	0 0 255	0 0 255	0 0 255	0 0 255	0 0 255	0 0 255	0 0 255	0 0 255	0 0 255	0 0 255	0 0 255	0 0 255	0 0 255	0 0 255	0 0 255	0 0 255	0 0 255	0 0 255	0 0 255	0 0 255	0 0 255	0 0 255	0 0 255	0 0 255	0 0 255	0 0 255	0 0 255	0 0 255	0 0 255	0 0 255	0 0 255	0 0 255	0 0 255	0 0 255	0 0 255	0 0 255	0 0 255	0 0 255	0 0 255	0 0 255	0 0 255	0 0 255	0 0 255	0 0 255	0 0 255	0 0 255	0 0 255	0 0 255	0 0 255	0 0 255	0 0 255	0 0 255	0 0 255	0 0 255	0 0 255	0 0 255	0 0 255	0 0 255	0 0 255	0 0 255	0 0 255	0 0 255	0 0 255	0 0 255	0 0 255	0 0 255	0 0 255	0 0 255	0 0 255	0 0 255	0 0 255	
0 0 255	0 0 255	0 0 255	0 0 255	0 0 255	0 0 255	0 0 255	0 0 255	0 0 255	0 0 255	0 0 255	0 0 255	0 0 255	0 0 255	0 0 255	0 0 255	0 0 255	0 0 255	0 0 255	0 0 255	0 0 255	0 0 255	0 0 255	0 0 255	0 0 255	0 0 255	0 0 255	0 0 255	0 0 255	0 0 255	0 0 255	0 0 255	0 0 255	0 0 255	0 0 255	0 0 255	0 0 255	0 0 255	0 0 255	0 0 255	0 0 255	0 0 255	0 0 255	0 0 255	0 0 255	0 0 255	0 0 255	0 0 255	0 0 255	0 0 255	0 0 255	0 0 255	0 0 255	0 0 255	0 0 255	0 0 255	0 0 255	0 0 255	0 0 255	0 0 255	0 0 255	0 0 255	0 0 255	0 0 255	0 0 255	0 0 255	0 0 255	0 0 255	0 0 255	0 0 255	0 0 255	0 0 255	0 0 255	0 0 255	0 0 255	0 0 255	0 0 255	0 0 255	0 0 255	0 0 255	0 0 255	0 0 255	0 0 255	0 0 255	0 0 255	0 0 255	0 0 255	0 0 255	0 0 255	0 0 255	0 0 255	0 0 255	0 0 255	0 0 255	0 0 255	0 0 255	6 0 127	6 0 127	6 0 127	6 0 127	6 0 127	6 0 127	6 0 127	6 0 127	6 0 127	6 0 127	6 0 127	6 0 127	3 0 127	0 0 127	1 0 127	1 0 127	2 0 127	2 0 127	3 0 127	3 0 127	4 0 127	4 0 127	4 0 127	4 0 127	5 0 127	5 0 127	5 0 127	5 0 127	5 0 127	5 0 127	5 0 127	5 0 127	5 0 127	5 0 127	5 0 127	5 0 127	5 0 127	5 0 127	5 0 127	4 0 127	4 0 127	4 0 127	4 0 127	3 0 127	3 0 127	2 0 127	2 0 127	1 0 127	1 0 127	0 0 127	3 0 127	6 0 127	6 0 127	6 0 127	6 0 127	6 0 127	6 0 127	6 0 127	6 0 127	6 0 127	6 0 127	6 0 127	6 0 127	0 0 255	0 0 255	0 0 255	0 0 255	0 0 255	0 0 255	0 0 255	0 0 255	0 0 255	0 0 255	0 0 255	0 0 255	0 0 255	0 0 255	0 0 255	0 0 255	0 0 255	0 0 255	0 0 255	0 0 255	0 0 255	0 0 255	0 0 255	0 0 255	0 0 255	0 0 255	0 0 255	0 0 255	0 0 255	0 0 255	0 0 255	0 0 255	0 0 255	0 0 255	0 0 255	0 0 255	0 0 255	0 0 255	0 0 255	0 0 255	0 0 255	0 0 255	0 0 255	0 0 255	0 0 255	0 0 255	0 0 255	0 0 255	0 0 255	0 0 255	0 0 255	0 0 255	0 0 255	0 0 255	0 0 255	0 0 255	0 0 255	0 0 255	0 0 255	0 0 255	0 0 255	0 0 255	0 0 255	0 0 255	0 0 255	0 0 255	0 0 255	0 0 255	0 0 255	0 0 255	0 0 255	0 0 255	0 0 255	0 0 255	0 0 255	0 0 255	0 0 255	0 0 255	0 0 255	0 0 255	0 0 255	0 0 255	0 0 255	0 0 255	0 0 255	0 0 255	0 0 255	0 0 255	0 0 255	0 0 255	0 0 255	0 0 255	0 0 255	0 0 255	0 0 255	0 0 255	0 0 255	
0 0 255	0 0 255	0 0 255	0 0 255	0 0 255	0 0 255	0 0 255	0 0 255	0 0 255	0 0 255	0 0 255	0 0 255	0 0 255	0 0 255	0 0 255	0 0 255	0 0 255	0 0 255	0 0 255	0 0 255	0 0 255	0 0 255	0 0 255	0 0 255	0 0 255	0 0 255	0 0 255	0 0 255	0 0 255	0 0 255	0 0 255	0 0 255	0 0 255	0 0 255	0 0 255	0 0 255	0 0 255	0 0 255	0 0 255	0 0 255	0 0 255	0 0 255	0 0 255	0 0 255	0 0 255	0 0 255	0 0 255	0 0 255	0 0 255	0 0 255	0 0 255	0 0 255	0 0 255	0 0 255	0 0 255	0 0 255	0 0 255	0 0 255	0 0 255	0 0 255	0 0 255	0 0 255	0 0 255	0 0 255	0 0 255	0 0 255	0 0 255	0 0 255	0 0 255	0 0 255	0 0 255	0 0 255	0 0 255	0 0 255	0 0 255	0 0 255	0 0 255	0 0 255	0 0 255	0 0 255	0 0 255	0 0 255	0 0 255	0 0 255	0 0 255	0 0 255	0 0 255	0 0 255	0 0 255	0 0 255	0 0 255	0 0 255	0 0 255	0 0 255	0 0 255	0 0 255	0 0 255	6 0 127	6 0 127	6 0 127	6 0 127	6 0 127	6 0 127	6 0 127	6 0 127	6 0 127	6 0 127	6 0 127	6 0 127	6 0 127	6 0 127	0 0 127	0 0 127	1 0 127	1 0 127	2 0 127	2 0 127	2 0 127	3 0 127	3 0 127	3 0 127	4 0 127	4 0 127	4 0 127	4 0 127	4 0 127	4 0 127	4 0 127	4 0 127	4 0 127	4 0 127	4 0 127	4 0 127	4 0 127	3 0 127	3 0 127	3 0 127	2 0 127	2 0 127	2 0 127	1 0 127	1 0 127	0 0 127	0 0 127	6 0 127	6 0 127	6 0 127	6 0 127	6 0 127	6 0 127	6 0 127	6 0 127	6 0 127	6 0 127	6 0 127	6 0 127	6 0 127	6 0 127	0 0 255	0 0 255	0 0 255	0 0 255	0 0 255	0 0 255	0 0 255	0 0 255	0 0 255	0 0 255	0 0 255	0 0 255	0 0 255	0 0 255	0 0 255	0 0 255	0 0 255	0 0 255	0 0 255	0 0 255	0 0 255	0 0 255	0 0 255	0 0 255	0 0 255	0 0 255	0 0 255	0 0 255	0 0 255	0 0 255	0 0 255	0 0 255	0 0 255	0 0 255	0 0 255	0 0 255	0 0 255	0 0 255	0 0 255	0 0 255	0 0 255	0 0 255	0 0 255	0 0 255	0 0 255	0 0 255	0 0 255	0 0 255	0 0 255	0 0 255	0 0 255	0 0 255	0 0 255	0 0 255	0 0 255	0 0 255	0 0 255	0 0 255	0 0 255	0 0 255	0 0 255	0 0 255	0 0 255	0 0 255	0 0 255	0 0 255	0 0 255	0 0 255	0 0 255	0 0 255	0 0 255	0 0 255	0 0 255	0 0 255	0 0 255	0 0 255	0 0 255	0 0 255	0 0 255	0 0 255	0 0 255	0 0 255	0 0 255	0 0 255	0 0 255	0 0 255	0 0 255	0 0 255	0 0 255	0 0 255	0 0 255	0 0 255	0 0 255	0 0 255	0 0 255	0 0 255	0 0 255	0 0 255	
0 0 255	0 0 255	0 0 255	0 0 255	0 0 255	0 0 255	0 0 255	0 0 255	0 0 255	0 0 255	0 0 255	0 0 255	0 0 255	0 0 255	0 0 255	0 0 255	0 0 255	0 0 255	0 0 255	0 0 255	0 0 255	0 0 255	0 0 255	0 0 255	0 0 255	0 0 255	0 0 255	0 0 255	0 0 255	0 0 255	0 0 255	0 0 255	0 0 255	0 0 255	0 0 255	0 0 255	0 0 255	0 0 255	0 0 255	0 0 255	0 0 255	0 0 255	0 0 255	0 0 255	0 0 255	0 0 255	0 0 255	0 0 255	0 0 255	0 0 255	0 0 255	0 0 255	0 0 255	0 0 255	0 0 255	0 0 255	0 0 255	0 0 255	0 0 255	0 0 255	0 0 255	0 0 255	0 0 255	0 0 255	0 0 255	0 0 255	0 0 255	0 0 255	0 0 255	0 0 255	0 0 255	0 0 255	0 0 255	0 0 255	0 0 255	0 0 255	0 0 255	0 0 255	0 0 255	0 0 255	0 0 255	0 0 255	0 0 255	0 0 255	0 0 255	0 0 255	0 0 255	0 0 255	0 0 255	0 0 255	0 0 255	0 0 255	0 0 255	0 0 255	0 0 255	0 0 255	0 0 255	0 0 255	6 0 127	6 0 127	6 0 127	6 0 127	6 0 127	6 0 127	6 0 127	6 0 127	6 0 127	6 0 127	6 0 127	6 0 127	6 0 127	6 0 127	6 0 127	3 0 127	0 0 127	0 0 127	1 0 127	1 0 127	1 0 127	2 0 127	2 0 127	2 0 127	2 0 127	2 0 127	2 0 127	3 0 127	3 0 127	3 0 127	3 0 127	3 0 127	2 0 127	2 0 127	2 0 127	2 0 127	2 0 127	2 0 127	1 0 127	1 0 127	1 0 127	0 0 127	0 0 127	3 0 127	6 0 127	6 0 127	6 0 127	6 0 127	6 0 127	6 0 127	6 0 127	6 0 127	6 0 127	6 0 127	6 0 127	6 0 127	6 0 127	6 0 127	6 0 127	0 0 255	0 0 255	0 0 255	0 0 255	0 0 255	0 0 255	0 0 255	0 0 255	0 0 255	0 0 255	0 0 255	0 0 255	0 0 255	0 0 255	0 0 255	0 0 255	0 0 255	0 0 255	0 0 255	0 0 255	0 0 255	0 0 255	0 0 255	0 0 255	0 0 255	0 0 255	0 0 255	0 0 255	0 0 255	0 0 255	0 0 255	0 0 255	0 0 255	0 0 255	0 0 255	0 0 255	0 0 255	0 0 255	0 0 255	0 0 255	0 0 255	0 0 255	0 0 255	0 0 255	0 0 255	0 0 255	0 0 255	0 0 255	0 0 255	0 0 255	0 0 255	0 0 255	0 0 255	0 0 255	0 0 255	0 0 255	0 0 255	0 0 255	0 0 255	0 0 255	0 0 255	0 0 255	0 0 255	0 0 255	0 0 255	0 0 255	0 0 255	0 0 255	0 0 255	0 0 255	0 0 255	0 0 255	0 0 255	0 0 255	0 0 255	0 0 255	0 0 255	0 0 255	0 0 255	0 0 255	0 0 255	0 0 255	0 0 255	0 0 255	0 0 255	0 0 255	0 0 255	0 0 255	0 0 255	0 0 255	0 0 255	0 0 255	0 0 255	0 0 255	0 0 255	0 0 255	0 0 255	0 0 255	0 0 255	
0 0 255	0 0 255	0 0 255	0 0 255	0 0 255	0 0 255	0 0 255	0 0 255	0 0 255	0 0 255	0 0 255	0 0 255	0 0 255	0 0 255	0 0 255	0 0 255	0 0 255	0 0 255	0 0 255	0 0 255	0 0 255	0 0 255	0 0 255	0 0 255	0 0 255	0 0 255	0 0 255	0 0 255	0 0 255	0 0 255	0 0 255	0 0 255	0 0 255	0 0 255	0 0 255	0 0 255	0 0 255	0 0 255	0 0 255	0 0 255	0 0 255	0 0 255	0 0 255	0 0 255	0 0 255	0 0 255	0 0 255	0 0 255	0 0 255	0 0 255	0 0 255	0 0 255	0 0 255	0 0 255	0 0 255	0 0 255	0 0 255	0 0 255	0 0 255	0 0 255	0 0 255	0 0 255	0 0 255	0 0 255	0 0 255	0 0 255	0 0 255	0 0 255	0 0 255	0 0 255	0 0 255	0 0 255	0 0 255	0 0 255	0 0 255	0 0 255	0 0 255	0 0 255	0 0 255	0 0 255	0 0 255	0 0 255	0 0 255	0 0 255	0 0 255	0 0 255	0 0 255	0 0 255	0 0 255	0 0 255	0 0 255	0 0 255	0 0 255	0 0 255	0 0 255	0 0 255	0 0 255	0 0 255	0 0 255	0 0 255	6 0 127	6 0 127	6 0 127	6 0 127	6 0 127	6 0 127	6 0 127	6 0 127	6 0 127	6 0 127	6 0 127	6 0 127	6 0 127	6 0 127	6 0 127	6 0 127	6 0 127	3 0 127	0 0 127	0 0 127	0 0 127	1 0 127	1 0 127	1 0 127	1 0 127	1 0 127	1 0 127	1 0 127	1 0 127	1 0 127	1 0 127	1 0 127	1 0 127	1 0 127	0 0 127	0 0 127	0 0 127	3 0 127	6 0 127	6 0 127	6 0 127	6 0 127	6 0 127	6 0 127	6 0 127	6 0 127	6 0 127	6 0 127	6 0 127	6 0 127	6 0 127	6 0 127	6 0 127	6 0 127	6 0 127	0 0 255	0 0 255	0 0 255	0 0 255	0 0 255	0 0 255	0 0 255	0 0 255	0 0 255	0 0 255	0 0 255	0 0 255	0 0 255	0 0 255	0 0 255	0 0 255	0 0 255	0 0 255	0 0 255	0 0 255	0 0 255	0 0 255	0 0 255	0 0 255	0 0 255	0 0 255	0 0 255	0 0 255	0 0 255	0 0 255	0 0 255	0 0 255	0 0 255	0 0 255	0 0 255	0 0 255	0 0 255	0 0 255	0 0 255	0 0 255	0 0 255	0 0 255	0 0 255	0 0 255	0 0 255	0 0 255	0 0 255	0 0 255	0 0 255	0 0 255	0 0 255	0 0 255	0 0 255	0 0 255	0 0 255	0 0 255	0 0 255	0 0 255	0 0 255	0 0 255	0 0 255	0 0 255	0 0 255	0 0 255	0 0 255	0 0 255	0 0 255	0 0 255	0 0 255	0 0 255	0 0 255	0 0 255	0 0 255	0 0 255	0 0 255	0 0 255	0 0 255	0 0 255	0 0 255	0 0 255	0 0 255	0 0 255	0 0 255	0 0 255	0 0 255	0 0 255	0 0 255	0 0 255	0 0 255	0 0 255	0 0 255	0 0 255	0 0 255	0 0 255	0 0 255	0 0 255	0 0 255	0 0 255	0 0 255	0 0 255	0 0 255	
0 0 255	0 0 255	0 0 255	0 0 255	0 0 255	0 0 255	0 0 255	0 0 255	0 0 255	0 0 255	0 0 255	0 0 255	0 0 255	0 0 255	0 0 255	0 0 255	0 0 255	0 0 255	0 0 255	0 0 255	0 0 255	0 0 255	0 0 255	0 0 255	0 0 255	0 0 255	0 0 255	0 0 255	0 0 255	0 0 255	0 0 255	0 0 255	0 0 255	0 0 255	0 0 255	0 0 255	0 0 255	0 0 255	0 0 255	0 0 255	0 0 255	0 0 255	0 0 255	0 0 255	0 0 255	0 0 255	0 0 255	0 0 255	0 0 255	0 0 255	0 0 255	0 0 255	0 0 255	0 0 255	0 0 255	0 0 255	0 0 255	0 0 255	0 0 255	0 0 255	0 0 255	0 0 255	0 0 255	0 0 255	0 0 255	0 0 255	0 0 255	0 0 255	0 0 255	0 0 255	0 0 255	0 0 255	0 0 255	0 0 255	0 0 255	0 0 255	0 0 255	0 0 255	0 0 255	0 0 255	0 0 255	0 0 255	0 0 255	0 0 255	0 0 255	0 0 255	0 0 255	0 0 255	0 0 255	0 0 255	0 0 255	0 0 255	0 0 255	0 0 255	0 0 255	0 0 255	0 0 255	0 0 255	0 0 255	0 0 255	0 0 255	6 0 127	6 0 127	6 0 127	6 0 127	6 0 127	6 0 127	6 0 127	6 0 127	6 0 127	6 0 127	6 0 127	6 0 127	6 0 127	6 0 127	6 0 127	6 0 127	6 0 127	6 0 127	6 0 127	6 0 127	6 0 127	6 0 127	3 0 127	3 0 127	0 0 127	0 0 127	0 0 127	0 0 127	0 0 127	3 0 127	3 0 127	6 0 127	6 0 127	6 0 127	6 0 127	6 0 127	6 0 127	6 0 127	6 0 127	6 0 127	6 0 127	6 0 127	6 0 127	6 0 127	6 0 127	6 0 127	6 0 127	6 0 127	6 0 127	6 0 127	6 0 127	6 0 127	6 0 127	0 0 255	0 0 255	0 0 255	0 0 255	0 0 255	0 0 255	0 0 255	0 0 255	0 0 255	0 0 255	0 0 255	0 0 255	0 0 255	0 0 255	0 0 255	0 0 255	0 0 255	0 0 255	0 0 255	0 0 255	0 0 255	0 0 255	0 0 255	0 0 255	0 0 255	0 0 255	0 0 255	0 0 255	0 0 255	0 0 255	0 0 255	0 0 255	0 0 255	0 0 255	0 0 255	0 0 255	0 0 255	0 0 255	0 0 255	0 0 255	0 0 255	0 0 255	0 0 255	0 0 255	0 0 255	0 0 255	0 0 255	0 0 255	0 0 255	0 0 255	0 0 255	0 0 255	0 0 255	0 0 255	0 0 255	0 0 255	0 0 255	0 0 255	0 0 255	0 0 255	0 0 255	0 0 255	0 0 255	0 0 255	0 0 255	0 0 255	0 0 255	0 0 255	0 0 255	0 0 255	0 0 255	0 0 255	0 0 255	0 0 255	0 0 255	0 0 255	0 0 255	0 0 255	0 0 255	0 0 255	0 0 255	0 0 255	0 0 255	0 0 255	0 0 255	0 0 255	0 0 255	0 0 255	0 0 255	0 0 255	0 0 255	0 0 255	0 0 255	0 0 255	0 0 255	0 0 255	0 0 255	0 0 255	0 0 255	0 0 255	0 0 255	0 0 255	
0 0 255	0 0 255	0 0 255	0 0 255	0 0 255	0 0 255	0 0 255	0 0 255	0 0 255	0 0 255	0 0 255	0 0 255	0 0 255	0 0 255	0 0 255	0 0 255	0 0 255	0 0 255	0 0 255	0 0 255	0 0 255	0 0 255	0 0 255	0 0 255	0 0 255	0 0 255	0 0 255	0 0 255	0 0 255	0 0 255	0 0 255	0 0 255	0 0 255	0 0 255	0 0 255	0 0 255	0 0 255	0 0 255	0 0 255	0 0 255	0 0 255	0 0 255	0 0 255	0 0 255	0 0 255	0 0 255	0 0 255	0 0 255	0 0 255	0 0 255	0 0 255	0 0 255	0 0 255	0 0 255	0 0 255	0 0 255	0 0 255	0 0 255	0 0 255	0 0 255	0 0 255	0 0 255	0 0 255	0 0 255	0 0 255	0 0 255	0 0 255	0 0 255	0 0 255	0 0 255	0 0 255	0 0 255	0 0 255	0 0 255	0 0 255	0 0 255	0 0 255	0 0 255	0 0 255	0 0 255	0 0 255	0 0 255	0 0 255	0 0 255	0 0 255	0 0 255	0 0 255	0 0 255	0 0 255	0 0 255	0 0 255	0 0 255	0 0 255	0 0 255	0 0 255	0 0 255	0 0 255	0 0 255	0 0 255	0 0 255	0 0 255	0 0 255	6 0 127	6 0 127	6 0 127	6 0 127	6 0 127	6 0 127	6 0 127	6 0 127	6 0 127	6 0 127	6 0 127	6 0 127	6 0 127	6 0 127	6 0 127	6 0 127	6 0 127	6 0 127	6 0 127	6 0 127	6 0 127	6 0 127	6 0 127	6 0 127	6 0 127	6 0 127	6 0 127	6 0 127	6 0 127	6 0 127	6 0 127	6 0 127	6 0 127	6 0 127	6 0 127	6 0 127	6 0 127	6 0 127	6 0 127	6 0 127	6 0 127	6 0 127	6 0 127	6 0 127	6 0 127	6 0 127	6 0 127	6 0 127	6 0 127	6 0 127	6 0 127	0 0 255	0 0 255	0 0 255	0 0 255	0 0 255	0 0 255	0 0 255	0 0 255	0 0 255	0 0 255	0 0 255	0 0 255	0 0 255	0 0 255	0 0 255	0 0 255	0 0 255	0 0 255	0 0 255	0 0 255	0 0 255	0 0 255	0 0 255	0 0 255	0 0 255	0 0 255	0 0 255	0 0 255	0 0 255	0 0 255	0 0 255	0 0 255	0 0 255	0 0 255	0 0 255	0 0 255	0 0 255	0 0 255	0 0 255	0 0 255	0 0 255	0 0 255	0 0 255	0 0 255	0 0 255	0 0 255	0 0 255	0 0 255	0 0 255	0 0 255	0 0 255	0 0 255	0 0 255	0 0 255	0 0 255	0 0 255	0 0 255	0 0 255	0 0 255	0 0 255	0 0 255	0 0 255	0 0 255	0 0 255	0 0 255	0 0 255	0 0 255	0 0 255	0 0 255	0 0 255	0 0 255	0 0 255	0 0 255	0 0 255	0 0 255	0 0 255	0 0 255	0 0 255	0 0 255	0 0 255	0 0 255	0 0 255	0 0 255	0 0 255	0 0 255	0 0 255	0 0 255	0 0 255	0 0 255	0 0 255	0 0 255	0 0 255	0 0 255	0 0 255	0 0 255	0 0 255	0 0 255	0 0 255	0 0 255	0 0 255	0 0 255	0 0 255	0 0 255	
0 0 255	0 0 255	0 0 255	0 0 255	0 0 255	0 0 255	0 0 255	0 0 255	0 0 255	0 0 255	0 0 255	0 0 255	0 0 255	0 0 255	0 0 255	0 0 255	0 0 255	0 0 255	0 0 255	0 0 255	0 0 255	0 0 255	0 0 255	0 0 255	0 0 255	0 0 255	0 0 255	0 0 255	0 0 255	0 0 255	0 0 255	0 0 255	0 0 255	0 0 255	0 0 255	0 0 255	0 0 255	0 0 255	0 0 255	0 0 255	0 0 255	0 0 255	0 0 255	0 0 255	0 0 255	0 0 255	0 0 255	0 0 255	0 0 255	0 0 255	0 0 255	0 0 255	0 0 255	0 0 255	0 0 255	0 0 255	0 0 255	0 0 255	0 0 255	0 0 255	0 0 255	0 0 255	0 0 255	0 0 255	0 0 255	0 0 255	0 0 255	0 0 255	0 0 255	0 0 255	0 0 255	0 0 255	0 0 255	0 0 255	0 0 255	0 0 255	0 0 255	0 0 255	0 0 255	0 0 255	0 0 255	0 0 255	0 0 255	0 0 255	0 0 255	0 0 255	0 0 255	0 0 255	0 0 255	0 0 255	0 0 255	0 0 255	0 0 255	0 0 255	0 0 255	0 0 255	0 0 255	0 0 255	0 0 255	0 0 255	0 0 255	0 0 255	0 0 255	0 0 255	6 0 127	6 0 127	6 0 127	6 0 127	6 0 127	6 0 127	6 0 127	6 0 127	6 0 127	6 0 127	6 0 127	6 0 127	6 0 127	6 0 127	6 0 127	6 0 127	6 0 127	6 0 127	6 0 127	6 0 127	6 0 127	6 0 127	6 0 127	6 0 127	6 0 127	6 0 127	6 0 127	6 0 127	6 0 127	6 0 127	6 0 127	6 0 127	6 0 127	6 0 127	6 0 127	6 0 127	6 0 127	6 0 127	6 0 127	6 0 127	6 0 127	6 0 127	6 0 127	6 0 127	6 0 127	6 0 127	6 0 127	0 0 255	0 0 255	0 0 255	0 0 255	0 0 255	0 0 255	0 0 255	0 0 255	0 0 255	0 0 255	0 0 255	0 0 255	0 0 255	0 0 255	0 0 255	0 0 255	0 0 255	0 0 255	0 0 255	0 0 255	0 0 255	0 0 255	0 0 255	0 0 255	0 0 255	0 0 255	0 0 255	0 0 255	0 0 255	0 0 255	0 0 255	0 0 255	0 0 255	0 0 255	0 0 255	0 0 255	0 0 255	0 0 255	0 0 255	0 0 255	0 0 255	0 0 255	0 0 255	0 0 255	0 0 255	0 0 255	0 0 255	0 0 255	0 0 255	0 0 255	0 0 255	0 0 255	0 0 255	0 0 255	0 0 255	0 0 255	0 0 255	0 0 255	0 0 255	0 0 255	0 0 255	0 0 255	0 0 255	0 0 255	0 0 255	0 0 255	0 0 255	0 0 255	0 0 255	0 0 255	0 0 255	0 0 255	0 0 255	0 0 255	0 0 255	0 0 255	0 0 255	0 0 255	0 0 255	0 0 255	0 0 255	0 0 255	0 0 255	0 0 255	0 0 255	0 0 255	0 0 255	0 0 255	0 0 255	0 0 255	0 0 255	0 0 255	0 0 255	0 0 255	0 0 255	0 0 255	0 0 255	0 0 255	0 0 255	0 0 255	0 0 255	0 0 255	0 0 255	0 0 255	0 0 255	
0 0 255	0 0 255	0 0 255	0 0 255	0 0 255	0 0 255	0 0 255	0 0 255	0 0 255	0 0 255	0 0 255	0 0 255	0 0 255	0 0 255	0 0 255	0 0 255	0 0 255	0 0 255	0 0 255	0 0 255	0 0 255	0 0 255	0 0 255	0 0 255	0 0 255	0 0 255	0 0 255	0 0 255	0 0 255	0 0 255	0 0 255	0 0 255	0 0 255	0 0 255	0 0 255	0 0 255	0 0 255	0 0 255	0 0 255	0 0 255	0 0 255	0 0 255	0 0 255	0 0 255	0 0 255	0 0 255	0 0 255	0 0 255	0 0 255	0 0 255	0 0 255	0 0 255	0 0 255	0 0 255	0 0 255	0 0 255	0 0 255	0 0 255	0 0 255	0 0 255	0 0 255	0 0 255	0 0 255	0 0 255	0 0 255	0 0 255	0 0 255	0 0 255	0 0 255	0 0 255	0 0 255	0 0 255	0 0 255	0 0 255	0 0 255	0 0 255	0 0 255	0 0 255	0 0 255	0 0 255	0 0 255	0 0 255	0 0 255	0 0 255	0 0 255	0 0 255	0 0 255	0 0 255	0 0 255	0 0 255	0 0 255	0 0 255	0 0 255	0 0 255	0 0 255	0 0 255	0 0 255	0 0 255	0 0 255	0 0 255	0 0 255	0 0 255	0 0 255	0 0 255	0 0 255	0 0 255	6 0 127	6 0 127	6 0 127	6 0 127	6 0 127	6 0 127	6 0 127	6 0 127	6 0 127	6 0 127	6 0 127	6 0 127	6 0 127	6 0 127	6 0 127	6 0 127	6 0 127	6 0 127	6 0 127	6 0 127	6 0 127	6 0 127	6 0 127	6 0 127	6 0 127	6 0 127	6 0 127	6 0 127	6 0 127	6 0 127	6 0 127	6 0 127	6 0 127	6 0 127	6 0 127	6 0 127	6 0 127	6 0 127	6 0 127	6 0 127	6 0 127	6 0 127	6 0 127	0 0 255	0 0 255	0 0 255	0 0 255	0 0 255	0 0 255	0 0 255	0 0 255	0 0 255	0 0 255	0 0 255	0 0 255	0 0 255	0 0 255	0 0 255	0 0 255	0 0 255	0 0 255	0 0 255	0 0 255	0 0 255	0 0 255	0 0 255	0 0 255	0 0 255	0 0 255	0 0 255	0 0 255	0 0 255	0 0 255	0 0 255	0 0 255	0 0 255	0 0 255	0 0 255	0 0 255	0 0 255	0 0 255	0 0 255	0 0 255	0 0 255	0 0 255	0 0 255	0 0 255	0 0 255	0 0 255	0 0 255	0 0 255	0 0 255	0 0 255	0 0 255	0 0 255	0 0 255	0 0 255	0 0 255	0 0 255	0 0 255	0 0 255	0 0 255	0 0 255	0 0 255	0 0 255	0 0 255	0 0 255	0 0 255	0 0 255	0 0 255	0 0 255	0 0 255	0 0 255	0 0 255	0 0 255	0 0 255	0 0 255	0 0 255	0 0 255	0 0 255	0 0 255	0 0 255	0 0 255	0 0 255	0 0 255	0 0 255	0 0 255	0 0 255	0 0 255	0 0 255	0 0 255	0 0 255	0 0 255	0 0 255	0 0 255	0 0 255	0 0 255	0 0 255	0 0 255	0 0 255	0 0 255	0 0 255	0 0 255	0 0 255	0 0 255	0 0 255	0 0 255	0 0 255	0 0 255	0 0 255	
0 0 255	0 0 255	0 0 255	0 0 255	0 0 255	0 0 255	0 0 255	0 0 255	0 0 255	0 0 255	0 0 255	0 0 255	0 0 255	0 0 255	0 0 255	0 0 255	0 0 255	0 0 255	0 0 255	0 0 255	0 0 255	0 0 255	0 0 255	0 0 255	0 0 255	0 0 255	0 0 255	0 0 255	0 0 255	0 0 255	0 0 255	0 0 255	0 0 255	0 0 255	0 0 255	0 0 255	0 0 255	0 0 255	0 0 255	0 0 255	0 0 255	0 0 255	0 0 255	0 0 255	0 0 255	0 0 255	0 0 255	0 0 255	0 0 255	0 0 255	0 0 255	0 0 255	0 0 255	0 0 255	0 0 255	0 0 255	0 0 255	0 0 255	0 0 255	0 0 255	0 0 255	0 0 255	0 0 255	0 0 255	0 0 255	0 0 255	0 0 255	0 0 255	0 0 255	0 0 255	0 0 255	0 0 255	0 0 255	0 0 255	0 0 255	0 0 255	0 0 255	0 0 255	0 0 255	0 0 255	0 0 255	0 0 255	0 0 255	0 0 255	0 0 255	0 0 255	0 0 255	0 0 255	0 0 255	0 0 255	0 0 255	0 0 255	0 0 255	0 0 255	0 0 255	0 0 255	0 0 255	0 0 255	0 0 255	0 0 255	0 0 255	0 0 255	0 0 255	0 0 255	0 0 255	0 0 255	0 0 255	6 0 127	6 0 127	6 0 127	6 0 127	6 0 127	6 0 127	6 0 127	6 0 127	6 0 127	6 0 127	6 0 127	6 0 127	6 0 127	6 0 127	6 0 127	6 0 127	6 0 127	6 0 127	6 0 127	6 0 127	6 0 127	6 0 127	6 0 127	6 0 127	6 0 127	6 0 127	6 0 127	6 0 127	6 0 127	6 0 127	6 0 127	6 0 127	6 0 127	6 0 127	6 0 127	6 0 127	6 0 127	6 0 127	6 0 127	6 0 127	6 0 127	0 0 255	0 0 255	0 0 255	0 0 255	0 0 255	0 0 255	0 0 255	0 0 255	0 0 255	0 0 255	0 0 255	0 0 255	0 0 255	0 0 255	0 0 255	0 0 255	0 0 255	0 0 255	0 0 255	0 0 255	0 0 255	0 0 255	0 0 255	0 0 255	0 0 255	0 0 255	0 0 255	0 0 255	0 0 255	0 0 255	0 0 255	0 0 255	0 0 255	0 0 255	0 0 255	0 0 255	0 0 255	0 0 255	0 0 255	0 0 255	0 0 255	0 0 255	0 0 255	0 0 255	0 0 255	0 0 255	0 0 255	0 0 255	0 0 255	0 0 255	0 0 255	0 0 255	0 0 255	0 0 255	0 0 255	0 0 255	0 0 255	0 0 255	0 0 255	0 0 255	0 0 255	0 0 255	0 0 255	0 0 255	0 0 255	0 0 255	0 0 255	0 0 255	0 0 255	0 0 255	0 0 255	0 0 255	0 0 255	0 0 255	0 0 255	0 0 255	0 0 255	0 0 255	0 0 255	0 0 255	0 0 255	0 0 255	0 0 255	0 0 255	0 0 255	0 0 255	0 0 255	0 0 255	0 0 255	0 0 255	0 0 255	0 0 255	0 0 255	0 0 255	0 0 255	0 0 255	0 0 255	0 0 255	0 0 255	0 0 255	0 0 255	0 0 255	0 0 255	0 0 255	0 0 255	0 0 255	0 0 255	0 0 255	
0 0 255	0 0 255	0 0 255	0 0 255	0 0 255	0 0 255	0 0 255	0 0 255	0 0 255	0 0 255	0 0 255	0 0 255	0 0 255	0 0 255	0 0 255	0 0 255	0 0 255	0 0 255	0 0 255	0 0 255	0 0 255	0 0 255	0 0 255	0 0 255	0 0 255	0 0 255	0 0 255	0 0 255	0 0 255	0 0 255	0 0 255	0 0 255	0 0 255	0 0 255	0 0 255	0 0 255	0 0 255	0 0 255	0 0 255	0 0 255	0 0 255	0 0 255	0 0 255	0 0 255	0 0 255	0 0 255	0 0 255	0 0 255	0 0 255	0 0 255	0 0 255	0 0 255	0 0 255	0 0 255	0 0 255	0 0 255	0 0 255	0 0 255	0 0 255	0 0 255	0 0 255	0 0 255	0 0 255	0 0 255	0 0 255	0 0 255	0 0 255	0 0 255	0 0 255	0 0 255	0 0 255	0 0 255	0 0 255	0 0 255	0 0 255	0 0 255	0 0 255	0 0 255	0 0 255	0 0 255	0 0 255	0 0 255	0 0 255	0 0 255	0 0 255	0 0 255	0 0 255	0 0 255	0 0 255	0 0 255	0 0 255	0 0 255	0 0 255	0 0 255	0 0 255	0 0 255	0 0 255	0 0 255	0 0 255	0 0 255	0 0 255	0 0 255	0 0 255	0 0 255	0 0 255	0 0 255	0 0 255	0 0 255	0 0 255	0 0 255	6 0 127	6 0 127	6 0 127	6 0 127	6 0 127	6 0 127	6 0 127	6 0 127	6 0 127	6 0 127	6 0 127	6 0 127	6 0 127	6 0 127	6 0 127	6 0 127	6 0 127	6 0 127	6 0 127	6 0 127	6 0 127	6 0 127	6 0 127	6 0 127	6 0 127	6 0 127	6 0 127	6 0 127	6 0 127	6 0 127	6 0 127	6 0 127	6 0 127	6 0 127	6 0 127	0 0 255	0 0 255	0 0 255	0 0 255	0 0 255	0 0 255	0 0 255	0 0 255	0 0 255	0 0 255	0 0 255	0 0 255	0 0 255	0 0 255	0 0 255	0 0 255	0 0 255	0 0 255	0 0 255	0 0 255	0 0 255	0 0 255	0 0 255	0 0 255	0 0 255	0 0 255	0 0 255	0 0 255	0 0 255	0 0 255	0 0 255	0 0 255	0 0 255	0 0 255	0 0 255	0 0 255	0 0 255	0 0 255	0 0 255	0 0 255	0 0 255	0 0 255	0 0 255	0 0 255	0 0 255	0 0 255	0 0 255	0 0 255	0 0 255	0 0 255	0 0 255	0 0 255	0 0 255	0 0 255	0 0 255	0 0 255	0 0 255	0 0 255	0 0 255	0 0 255	0 0 255	0 0 255	0 0 255	0 0 255	0 0 255	0 0 255	0 0 255	0 0 255	0 0 255	0 0 255	0 0 255	0 0 255	0 0 255	0 0 255	0 0 255	0 0 255	0 0 255	0 0 255	0 0 255	0 0 255	0 0 255	0 0 255	0 0 255	0 0 255	0 0 255	0 0 255	0 0 255	0 0 255	0 0 255	0 0 255	0 0 255	0 0 255	0 0 255	0 0 255	0 0 255	0 0 255	0 0 255	0 0 255	0 0 255	0 0 255	0 0 255	0 0 255	0 0 255	0 0 255	0 0 255	0 0 255	0 0 255	0 0 255	0 0 255	0 0 255	0 0 255	
0 0 255	0 0 255	0 0 255	0 0 255	0 0 255	0 0 255	0 0 255	0 0 255	0 0 255	0 0 255	0 0 255	0 0 255	0 0 255	0 0 255	0 0 255	0 0 255	0 0 255	0 0 255	0 0 255	0 0 255	0 0 255	0 0 255	0 0 255	0 0 255	0 0 255	0 0 255	0 0 255	0 0 255	0 0 255	0 0 255	0 0 255	0 0 255	0 0 255	0 0 255	0 0 255	0 0 255	0 0 255	0 0 255	0 0 255	0 0 255	0 0 255	0 0 255	0 0 255	0 0 255	0 0 255	0 0 255	0 0 255	0 0 255	0 0 255	0 0 255	0 0 255	0 0 255	0 0 255	0 0 255	0 0 255	0 0 255	0 0 255	0 0 255	0 0 255	0 0 255	0 0 255	0 0 255	0 0 255	0 0 255	0 0 255	0 0 255	0 0 255	0 0 255	0 0 255	0 0 255	0 0 255	0 0 255	0 0 255	0 0 255	0 0 255	0 0 255	0 0 255	0 0 255	0 0 255	0 0 255	0 0 255	0 0 255	0 0 255	0 0 255	0 0 255	0 0 255	0 0 255	0 0 255	0 0 255	0 0 255	0 0 255	0 0 255	0 0 255	0 0 255	0 0 255	0 0 255	0 0 255	0 0 255	0 0 255	0 0 255	0 0 255	0 0 255	0 0 255	0 0 255	0 0 255	0 0 255	0 0 255	0 0 255	0 0 255	0 0 255	0 0 255	0 0 255	6 0 127	6 0 127	6 0 127	6 0 127	6 0 127	6 0 127	6 0 127	6 0 127	6 0 127	6 0 127	6 0 127	6 0 127	6 0 127	6 0 127	6 0 127	6 0 127	6 0 127	6 0 127	6 0 127	6 0 127	6 0 127	6 0 127	6 0 127	6 0 127	6 0 127	6 0 127	6 0 127	6 0 127	6 0 127	6 0 127	6 0 127	0 0 255	0 0 255	0 0 255	0 0 255	0 0 255	0 0 255	0 0 255	0 0 255	0 0 255	0 0 255	0 0 255	0 0 255	0 0 255	0 0 255	0 0 255	0 0 255	0 0 255	0 0 255	0 0 255	0 0 255	0 0 255	0 0 255	0 0 255	0 0 255	0 0 255	0 0 255	0 0 255	0 0 255	0 0 255	0 0 255	0 0 255	0 0 255	0 0 255	0 0 255	0 0 255	0 0 255	0 0 255	0 0 255	0 0 255	0 0 255	0 0 255	0 0 255	0 0 255	0 0 255	0 0 255	0 0 255	0 0 255	0 0 255	0 0 255	0 0 255	0 0 255	0 0 255	0 0 255	0 0 255	0 0 255	0 0 255	0 0 255	0 0 255	0 0 255	0 0 255	0 0 255	0 0 255	0 0 255	0 0 255	0 0 255	0 0 255	0 0 255	0 0 255	0 0 255	0 0 255	0 0 255	0 0 255	0 0 255	0 0 255	0 0 255	0 0 255	0 0 255	0 0 255	0 0 255	0 0 255	0 0 255	0 0 255	0 0 255	0 0 255	0 0 255	0 0 255	0 0 255	0 0 255	0 0 255	0 0 255	0 0 255	0 0 255	0 0 255	0 0 255	0 0 255	0 0 255	0 0 255	0 0 255	0 0 255	0 0 255	0 0 255	0 0 255	0 0 255	0 0 255	0 0 255	0 0 255	0 0 255	0 0 255	0 0 255	0 0 255	0 0 255	0 0 255	0 0 255	
0 0 255	0 0 255	0 0 255	0 0 255	0 0 255	0 0 255	0 0 255	0 0 255	0 0 255	0 0 255	0 0 255	0 0 255	0 0 255	0 0 255	0 0 255	0 0 255	0 0 255	0 0 255	0 0 255	0 0 255	0 0 255	0 0 255	0 0 255	0 0 255	0 0 255	0 0 255	0 0 255	0 0 255	0 0 255	0 0 255	0 0 255	0 0 255	0 0 255	0 0 255	0 0 255	0 0 255	0 0 255	0 0 255	0 0 255	0 0 255	0 0 255	0 0 255	0 0 255	0 0 255	0 0 255	0 0 255	0 0 255	0 0 255	0 0 255	0 0 255	0 0 255	0 0 255	0 0 255	0 0 255	0 0 255	0 0 255	0 0 255	0 0 255	0 0 255	0 0 255	0 0 255	0 0 255	0 0 255	0 0 255	0 0 255	0 0 255	0 0 255	0 0 255	0 0 255	0 0 255	0 0 255	0 0 255	0 0 255	0 0 255	0 0 255	0 0 255	0 0 255	0 0 255	0 0 255	0 0 255	0 0 255	0 0 255	0 0 255	0 0 255	0 0 255	0 0 255	0 0 255	0 0 255	0 0 255	0 0 255	0 0 255	0 0 255	0 0 255	0 0 255	0 0 255	0 0 255	0 0 255	0 0 255	0 0 255	0 0 255	0 0 255	0 0 255	0 0 255	0 0 255	0 0 255	0 0 255	0 0 255	0 0 255	0 0 255	0 0 255	0 0 255	0 0 255	0 0 255	0 0 255	0 0 255	6 0 127	6 0 127	6 0 127	6 0 127	6 0 127	6 0 127	6 0 127	6 0 127	6 0 127	6 0 127	6 0 127	6 0 127	6 0 127	6 0 127	6 0 127	6 0 127	6 0 127	6 0 127	6 0 127	6 0 127	6 0 127	6 0 127	6 0 127	6 0 127	6 0 127	0 0 255	0 0 255	0 0 255	0 0 255	0 0 255	0 0 255	0 0 255	0 0 255	0 0 255	0 0 255	0 0 255	0 0 255	0 0 255	0 0 255	0 0 255	0 0 255	0 0 255	0 0 255	0 0 255	0 0 255	0 0 255	0 0 255	0 0 255	0 0 255	0 0 255	0 0 255	0 0 255	0 0 255	0 0 255	0 0 255	0 0 255	0 0 255	0 0 255	0 0 255	0 0 255	0 0 255	0 0 255	0 0 255	0 0 255	0 0 255	0 0 255	0 0 255	0 0 255	0 0 255	0 0 255	0 0 255	0 0 255	0 0 255	0 0 255	0 0 255	0 0 255	0 0 255	0 0 255	0 0 255	0 0 255	0 0 255	0 0 255	0 0 255	0 0 255	0 0 255	0 0 255	0 0 255	0 0 255	0 0 255	0 0 255	0 0 255	0 0 255	0 0 255	0 0 255	0 0 255	0 0 255	0 0 255	0 0 255	0 0 255	0 0 255	0 0 255	0 0 255	0 0 255	0 0 255	0 0 255	0 0 255	0 0 255	0 0 255	0 0 255	0 0 255	0 0 255	0 0 255	0 0 255	0 0 255	0 0 255	0 0 255	0 0 255	0 0 255	0 0 255	0 0 255	0 0 255	0 0 255	0 0 255	0 0 255	0 0 255	0 0 255	0 0 255	0 0 255	0 0 255	0 0 255	0 0 255	0 0 255	0 0 255	0 0 255	0 0 255	0 0 255	0 0 255	0 0 255	0 0 255	0 0 255	0 0 255	
0 0 255	0 0 255	0 0 255	0 0 255	0 0 255	0 0 255	0 0 255	0 0 255	0 0 255	0 0 255	0 0 255	0 0 255	0 0 255	0 0 255	0 0 255	0 0 255	0 0 255	0 0 255	0 0 255	0 0 255	0 0 255	0 0 255	0 0 255	0 0 255	0 0 255	0 0 255	0 0 255	0 0 255	0 0 255	0 0 255	0 0 255	0 0 255	0 0 255	0 0 255	0 0 255	0 0 255	0 0 255	0 0 255	0 0 255	0 0 255	0 0 255	0 0 255	0 0 255	0 0 255	0 0 255	0 0 255	0 0 255	0 0 255	0 0 255	0 0 255	0 0 255	0 0 255	0 0 255	0 0 255	0 0 255	0 0 255	0 0 255	0 0 255	0 0 255	0 0 255	0 0 255	0 0 255	0 0 255	0 0 255	0 0 255	0 0 255	0 0 255	0 0 255	0 0 255	0 0 255	0 0 255	0 0 255	0 0 255	0 0 255	0 0 255	0 0 255	0 0 255	0 0 255	0 0 255	0 0 255	0 0 255	0 0 255	0 0 255	0 0 255	0 0 255	0 0 255	0 0 255	0 0 255	0 0 255	0 0 255	0 0 255	0 0 255	0 0 255	0 0 255	0 0 255	0 0 255	0 0 255	0 0 255	0 0 255	0 0 255	0 0 255	0 0 255	0 0 255	0 0 255	0 0 255	0 0 255	0 0 255	0 0 255	0 0 255	0 0 255	0 0 255	0 0 255	0 0 255	0 0 255	0 0 255	0 0 255	0 0 255	0 0 255	0 0 255	6 0 127	6 0 127	6 0 127	6 0 127	6 0 127	6 0 127	6 0 127	6 0 127	6 0 127	6 0 127	6 0 127	6 0 127	6 0 127	6 0 127	6 0 127	6 0 127	6 0 127	0 0 255	0 0 255	0 0 255	0 0 255	0 0 255	0 0 255	0 0 255	0 0 255	0 0 255	0 0 255	0 0 255	0 0 255	0 0 255	0 0 255	0 0 255	0 0 255	0 0 255	0 0 255	0 0 255	0 0 255	0 0 255	0 0 255	0 0 255	0 0 255	0 0 255	0 0 255	0 0 255	0 0 255	0 0 255	0 0 255	0 0 255	0 0 255	0 0 255	0 0 255	0 0 255	0 0 255	0 0 255	0 0 255	0 0 255	0 0 255	0 0 255	0 0 255	0 0 255	0 0 255	0 0 255	0 0 255	0 0 255	0 0 255	0 0 255	0 0 255	0 0 255	0 0 255	0 0 255	0 0 255	0 0 255	0 0 255	0 0 255	0 0 255	0 0 255	0 0 255	0 0 255	0 0 255	0 0 255	0 0 255	0 0 255	0 0 255	0 0 255	0 0 255	0 0 255	0 0 255	0 0 255	0 0 255	0 0 255	0 0 255	0 0 255	0 0 255	0 0 255	0 0 255	0 0 255	0 0 255	0 0 255	0 0 255	0 0 255	0 0 255	0 0 255	0 0 255	0 0 255	0 0 255	0 0 255	0 0 255	0 0 255	0 0 255	0 0 255	0 0 255	0 0 255	0 0 255	0 0 255	0 0 255	0 0 255	0 0 255	0 0 255	0 0 255	0 0 255	0 0 255	0 0 255	0 0 255	0 0 255	0 0 255	0 0 255	0 0 255	0 0 255	0 0 255	0 0 255	0 0 255	0 0 255	0 0 255	0 0 255	0 0 255	0 0 255	0 0 255	
0 0 255	0 0 255	0 0 255	0 0 255	0 0 255	0 0 255	0 0 255	0 0 255	0 0 255	0 0 255	0 0 255	0 0 255	0 0 255	0 0 255	0 0 255	0 0 255	0 0 255	0 0 255	0 0 255	0 0 255	0 0 255	0 0 255	0 0 255	0 0 255	0 0 255	0 0 255	0 0 255	0 0 255	0 0 255	0 0 255	0 0 255	0 0 255	0 0 255	0 0 255	0 0 255	0 0 255	0 0 255	0 0 255	0 0 255	0 0 255	0 0 255	0 0 255	0 0 255	0 0 255	0 0 255	0 0 255	0 0 255	0 0 255	0 0 255	0 0 255	0 0 255	0 0 255	0 0 255	0 0 255	0 0 255	0 0 255	0 0 255	0 0 255	0 0 255	0 0 255	0 0 255	0 0 255	0 0 255	0 0 255	0 0 255	0 0 255	0 0 255	0 0 255	0 0 255	0 0 255	0 0 255	0 0 255	0 0 255	0 0 255	0 0 255	0 0 255	0 0 255	0 0 255	0 0 255	0 0 255	0 0 255	0 0 255	0 0 255	0 0 255	0 0 255	0 0 255	0 0 255	0 0 255	0 0 255	0 0 255	0 0 255	0 0 255	0 0 255	0 0 255	0 0 255	0 0 255	0 0 255	0 0 255	0 0 255	0 0 255	0 0 255	0 0 255	0 0 255	0 0 255	0 0 255	0 0 255	0 0 255	0 0 255	0 0 255	0 0 255	0 0 255	0 0 255	0 0 255	0 0 255	0 0 255	0 0 255	0 0 255	0 0 255	0 0 255	0 0 255	0 0 255	0 0 255	0 0 255	0 0 255	0 0 255	0 0 255	0 0 255	0 0 255	0 0 255	0 0 255	0 0 255	0 0 255	0 0 255	0 0 255	0 0 255	0 0 255	0 0 255	0 0 255	0 0 255	0 0 255	0 0 255	0 0 255	0 0 255	0 0 255	0 0 255	0 0 255	0 0 255	0 0 255	0 0 255	0 0 255	0 0 255	0 0 255	0 0 255	0 0 255	0 0 255	0 0 255	0 0 255	0 0 255	0 0 255	0 0 255	0 0 255	0 0 255	0 0 255	0 0 255	0 0 255	0 0 255	0 0 255	0 0 255	0 0 255	0 0 255	0 0 255	0 0 255	0 0 255	0 0 255	0 0 255	0 0 255	0 0 255	0 0 255	0 0 255	0 0 255	0 0 255	0 0 255	0 0 255	0 0 255	0 0 255	0 0 255	0 0 255	0 0 255	0 0 255	0 0 255	0 0 255	0 0 255	0 0 255	0 0 255	0 0 255	0 0 255	0 0 255	0 0 255	0 0 255	0 0 255	0 0 255	0 0 255	0 0 255	0 0 255	0 0 255	0 0 255	0 0 255	0 0 255	0 0 255	0 0 255	0 0 255	0 0 255	0 0 255	0 0 255	0 0 255	0 0 255	0 0 255	0 0 255	0 0 255	0 0 255	0 0 255	0 0 255	0 0 255	0 0 255	0 0 255	0 0 255	0 0 255	0 0 255	0 0 255	0 0 255	0 0 255	0 0 255	0 0 255	0 0 255	0 0 255	0 0 255	0 0 255	0 0 255	0 0 255	0 0 255	0 0 255	0 0 255	0 0 255	0 0 255	0 0 255	0 0 255	0 0 255	0 0 255	0 0 255	0 0 255	0 0 255	0 0 255	0 0 255	0 0 255	0 0 255	0 0 255	
0 0 255	0 0 255	0 0 255	0 0 255	0 0 255	0 0 255	0 0 255	0 0 255	0 0 255	0 0 255	0 0 255	0 0 255	0 0 255	0 0 255	0 0 255	0 0 255	0 0 255	0 0 255	0 0 255	0 0 255	0 0 255	0 0 255	0 0 255	0 0 255	0 0 255	0 0 255	0 0 255	0 0 255	0 0 255	0 0 255	0 0 255	0 0 255	0 0 255	0 0 255	0 0 255	0 0 255	0 0 255	0 0 255	0 0 255	0 0 255	0 0 255	0 0 255	0 0 255	0 0 255	0 0 255	0 0 255	0 0 255	0 0 255	0 0 255	0 0 255	0 0 255	0 0 255	0 0 255	0 0 255	0 0 255	0 0 255	0 0 255	0 0 255	0 0 255	0 0 255	0 0 255	0 0 255	0 0 255	0 0 255	0 0 255	0 0 255	0 0 255	0 0 255	0 0 255	0 0 255	0 0 255	0 0 255	0 0 255	0 0 255	0 0 255	0 0 255	0 0 255	0 0 255	0 0 255	0 0 255	0 0 255	0 0 255	0 0 255	0 0 255	0 0 255	0 0 255	0 0 255	0 0 255	0 0 255	0 0 255	0 0 255	0 0 255	0 0 255	0 0 255	0 0 255	0 0 255	0 0 255	0 0 255	0 0 255	0 0 255	0 0 255	0 0 255	0 0 255	0 0 255	0 0 255	0 0 255	0 0 255	0 0 255	0 0 255	0 0 255	0 0 255	0 0 255	0 0 255	0 0 255	0 0 255	0 0 255	0 0 255	0 0 255	0 0 255	0 0 255	0 0 255	0 0 255	0 0 255	0 0 255	0 0 255	0 0 255	0 0 255	0 0 255	0 0 255	0 0 255	0 0 255	0 0 255	0 0 255	0 0 255	0 0 255	0 0 255	0 0 255	0 0 255	0 0 255	0 0 255	0 0 255	0 0 255	0 0 255	0 0 255	0 0 255	0 0 255	0 0 255	0 0 255	0 0 255	0 0 255	0 0 255	0 0 255	0 0 255	0 0 255	0 0 255	0 0 255	0 0 255	0 0 255	0 0 255	0 0 255	0 0 255	0 0 255	0 0 255	0 0 255	0 0 255	0 0 255	0 0 255	0 0 255	0 0 255	0 0 255	0 0 255	0 0 255	0 0 255	0 0 255	0 0 255	0 0 255	0 0 255	0 0 255	0 0 255	0 0 255	0 0 255	0 0 255	0 0 255	0 0 255	0 0 255	0 0 255	0 0 255	0 0 255	0 0 255	0 0 255	0 0 255	0 0 255	0 0 255	0 0 255	0 0 255	0 0 255	0 0 255	0 0 255	0 0 255	0 0 255	0 0 255	0 0 255	0 0 255	0 0 255	0 0 255	0 0 255	0 0 255	0 0 255	0 0 255	0 0 255	0 0 255	0 0 255	0 0 255	0 0 255	0 0 255	0 0 255	0 0 255	0 0 255	0 0 255	0 0 255	0 0 255	0 0 255	0 0 255	0 0 255	0 0 255	0 0 255	0 0 255	0 0 255	0 0 255	0 0 255	0 0 255	0 0 255	0 0 255	0 0 255	0 0 255	0 0 255	0 0 255	0 0 255	0 0 255	0 0 255	0 0 255	0 0 255	0 0 255	0 0 255	0 0 255	0 0 255	0 0 255	0 0 255	0 0 255	0 0 255	0 0 255	0 0 255	0 0 255	0 0 255	0 0 255	0 0 255	
0 0 255	0 0 255	0 0 255	0 0 255	0 0 255	0 0 255	0 0 255	0 0 255	0 0 255	0 0 255	0 0 255	0 0 255	0 0 255	0 0 255	0 0 255	0 0 255	0 0 255	0 0 255	0 0 255	0 0 255	0 0 255	0 0 255	0 0 255	0 0 255	0 0 255	0 0 255	0 0 255	0 0 255	0 0 255	0 0 255	0 0 255	0 0 255	0 0 255	0 0 255	0 0 255	0 0 255	0 0 255	0 0 255	0 0 255	0 0 255	0 0 255	0 0 255	0 0 255	0 0 255	0 0 255	0 0 255	0 0 255	0 0 255	0 0 255	0 0 255	0 0 255	0 0 255	0 0 255	0 0 255	0 0 255	0 0 255	0 0 255	0 0 255	0 0 255	0 0 255	0 0 255	0 0 255	0 0 255	0 0 255	0 0 255	0 0 255	0 0 255	0 0 255	0 0 255	0 0 255	0 0 255	0 0 255	0 0 255	0 0 255	0 0 255	0 0 255	0 0 255	0 0 255	0 0 255	0 0 255	0 0 255	0 0 255	0 0 255	0 0 255	0 0 255	0 0 255	0 0 255	0 0 255	0 0 255	0 0 255	0 0 255	0 0 255	0 0 255	0 0 255	0 0 255	0 0 255	0 0 255	0 0 255	0 0 255	0 0 255	0 0 255	0 0 255	0 0 255	0 0 255	0 0 255	0 0 255	0 0 255	0 0 255	0 0 255	0 0 255	0 0 255	0 0 255	0 0 255	0 0 255	0 0 255	0 0 255	0 0 255	0 0 255	0 0 255	0 0 255	0 0 255	0 0 255	0 0 255	0 0 255	0 0 255	0 0 255	0 0 255	0 0 255	0 0 255	0 0 255	0 0 255	0 0 255	0 0 255	0 0 255	0 0 255	0 0 255	0 0 255	0 0 255	0 0 255	0 0 255	0 0 255	0 0 255	0 0 255	0 0 255	0 0 255	0 0 255	0 0 255	0 0 255	0 0 255	0 0 255	0 0 255	0 0 255	0 0 255	0 0 255	0 0 255	0 0 255	0 0 255	0 0 255	0 0 255	0 0 255	0 0 255	0 0 255	0 0 255	0 0 255	0 0 255	0 0 255	0 0 255	0 0 255	0 0 255	0 0 255	0 0 255	0 0 255	0 0 255	0 0 255	0 0 255	0 0 255	0 0 255	0 0 255	0 0 255	0 0 255	0 0 255	0 0 255	0 0 255	0 0 255	0 0 255	0 0 255	0 0 255	0 0 255	0 0 255	0 0 255	0 0 255	0 0 255	0 0 255	0 0 255	0 0 255	0 0 255	0 0 255	0 0 255	0 0 255	0 0 255	0 0 255	0 0 255	0 0 255	0 0 255	0 0 255	0 0 255	0 0 255	0 0 255	0 0 255	0 0 255	0 0 255	0 0 255	0 0 255	0 0 255	0 0 255	0 0 255	0 0 255	0 0 255	0 0 255	0 0 255	0 0 255	0 0 255	0 0 255	0 0 255	0 0 255	0 0 255	0 0 255	0 0 255	0 0 255	0 0 255	0 0 255	0 0 255	0 0 255	0 0 255	0 0 255	0 0 255	0 0 255	0 0 255	0 0 255	0 0 255	0 0 255	0 0 255	0 0 255	0 0 255	0 0 255	0 0 255	0 0 255	0 0 255	0 0 255	0 0 255	0 0 255	0 0 255	0 0 255	0 0 255	0 0 255	0 0 255	
0 0 255	0 0 255	0 0 255	0 0 255	0 0 255	0 0 255	0 0 255	0 0 255	0 0 255	0 0 255	0 0 255	0 0 255	0 0 255	0 0 255	0 0 255	0 0 255	0 0 255	0 0 255	0 0 255	0 0 255	0 0 255	0 0 255	0 0 255	0 0 255	0 0 255	0 0 255	0 0 255	0 0 255	0 0 255	0 0 255	0 0 255	0 0 255	0 0 255	0 0 255	0 0 255	0 0 255	0 0 255	0 0 255	0 0 255	0 0 255	0 0 255	0 0 255	0 0 255	0 0 255	0 0 255	0 0 255	0 0 255	0 0 255	0 0 255	0 0 255	0 0 255	0 0 255	0 0 255	0 0 255	0 0 255	0 0 255	0 0 255	0 0 255	0 0 255	0 0 255	0 0 255	0 0 255	0 0 255	0 0 255	0 0 255	0 0 255	0 0 255	0 0 255	0 0 255	0 0 255	0 0 255	0 0 255	0 0 255	0 0 255	0 0 255	0 0 255	0 0 255	0 0 255	0 0 255	0 0 255	0 0 255	0 0 255	0 0 255	0 0 255	0 0 255	0 0 255	0 0 255	0 0 255	0 0 255	0 0 255	0 0 255	0 0 255	0 0 255	0 0 255	0 0 255	0 0 255	0 0 255	0 0 255	0 0 255	0 0 255	0 0 255	0 0 255	0 0 255	0 0 255	0 0 255	0 0 255	0 0 255	0 0 255	0 0 255	0 0 255	0 0 255	0 0 255	0 0 255	0 0 255	0 0 255	0 0 255	0 0 255	0 0 255	0 0 255	0 0 255	0 0 255	0 0 255	0 0 255	0 0 255	0 0 255	0 0 255	0 0 255	0 0 255	0 0 255	0 0 255	0 0 255	0 0 255	0 0 255	0 0 255	0 0 255	0 0 255	0 0 255	0 0 255	0 0 255	0 0 255	0 0 255	0 0 255	0 0 255	0 0 255	0 0 255	0 0 255	0 0 255	0 0 255	0 0 255	0 0 255	0 0 255	0 0 255	0 0 255	0 0 255	0 0 255	0 0 255	0 0 255	0 0 255	0 0 255	0 0 255	0 0 255	0 0 255	0 0 255	0 0 255	0 0 255	0 0 255	0 0 255	0 0 255	0 0 255	0 0 255	0 0 255	0 0 255	0 0 255	0 0 255	0 0 255	0 0 255	0 0 255	0 0 255	0 0 255	0 0 255	0 0 255	0 0 255	0 0 255	0 0 255	0 0 255	0 0 255	0 0 255	0 0 255	0 0 255	0 0 255	0 0 255	0 0 255	0 0 255	0 0 255	0 0 255	0 0 255	0 0 255	0 0 255	0 0 255	0 0 255	0 0 255	0 0 255	0 0 255	0 0 255	0 0 255	0 0 255	0 0 255	0 0 255	0 0 255	0 0 255	0 0 255	0 0 255	0 0 255	0 0 255	0 0 255	0 0 255	0 0 255	0 0 255	0 0 255	0 0 255	0 0 255	0 0 255	0 0 255	0 0 255	0 0 255	0 0 255	0 0 255	0 0 255	0 0 255	0 0 255	0 0 255	0 0 255	0 0 255	0 0 255	0 0 255	0 0 255	0 0 255	0 0 255	0 0 255	0 0 255	0 0 255	0 0 255	0 0 255	0 0 255	0 0 255	0 0 255	0 0 255	0 0 255	0 0 255	0 0 255	0 0 255	0 0 255	0 0 255	0 0 255	0 0 255	0 0 255	
0 0 255	0 0 255	0 0 255	0 0 255	0 0 255	0 0 255	0 0 255	0 0 255	0 0 255	0 0 255	0 0 255	0 0 255	0 0 255	0 0 255	0 0 255	0 0 255	0 0 255	0 0 255	0 0 255	0 0 255	0 0 255	0 0 255	0 0 255	0 0 255	0 0 255	0 0 255	0 0 255	0 0 255	0 0 255	0 0 255	0 0 255	0 0 255	0 0 255	0 0 255	0 0 255	0 0 255	0 0 255	0 0 255	0 0 255	0 0 255	0 0 255	0 0 255	0 0 255	0 0 255	0 0 255	0 0 255	0 0 255	0 0 255	0 0 255	0 0 255	0 0 255	0 0 255	0 0 255	0 0 255	0 0 255	0 0 255	0 0 255	0 0 255	0 0 255	0 0 255	0 0 255	0 0 255	0 0 255	0 0 255	0 0 255	0 0 255	0 0 255	0 0 255	0 0 255	0 0 255	0 0 255	0 0 255	0 0 255	0 0 255	0 0 255	0 0 255	0 0 255	0 0 255	0 0 255	0 0 255	0 0 255	0 0 255	0 0 255	0 0 255	0 0 255	0 0 255	0 0 255	0 0 255	0 0 255	0 0 255	0 0 255	0 0 255	0 0 255	0 0 255	0 0 255	0 0 255	0 0 255	0 0 255	0 0 255	0 0 255	0 0 255	0 0 255	0 0 255	0 0 255	0 0 255	0 0 255	0 0 255	0 0 255	0 0 255	0 0 255	0 0 255	0 0 255	0 0 255	0 0 255	0 0 255	0 0 255	0 0 255	0 0 255	0 0 255	0 0 255	0 0 255	0 0 255	0 0 255	0 0 255	0 0 255	0 0 255	0 0 255	0 0 255	0 0 255	0 0 255	0 0 255	0 0 255	0 0 255	0 0 255	0 0 255	0 0 255	0 0 255	0 0 255	0 0 255	0 0 255	0 0 255	0 0 255	0 0 255	0 0 255	0 0 255	0 0 255	0 0 255	0 0 255	0 0 255	0 0 255	0 0 255	0 0 255	0 0 255	0 0 255	0 0 255	0 0 255	0 0 255	0 0 255	0 0 255	0 0 255	0 0 255	0 0 255	0 0 255	0 0 255	0 0 255	0 0 255	0 0 255	0 0 255	0 0 255	0 0 255	0 0 255	0 0 255	0 0 255	0 0 255	0 0 255	0 0 255	0 0 255	0 0 255	0 0 255	0 0 255	0 0 255	0 0 255	0 0 255	0 0 255	0 0 255	0 0 255	0 0 255	0 0 255	0 0 255	0 0 255	0 0 255	0 0 255	0 0 255	0 0 255	0 0 255	0 0 255	0 0 255	0 0 255	0 0 255	0 0 255	0 0 255	0 0 255	0 0 255	0 0 255	0 0 255	0 0 255	0 0 255	0 0 255	0 0 255	0 0 255	0 0 255	0 0 255	0 0 255	0 0 255	0 0 255	0 0 255	0 0 255	0 0 255	0 0 255	0 0 255	0 0 255	0 0 255	0 0 255	0 0 255	0 0 255	0 0 255	0 0 255	0 0 255	0 0 255	0 0 255	0 0 255	0 0 255	0 0 255	0 0 255	0 0 255	0 0 255	0 0 255	0 0 255	0 0 255	0 0 255	0 0 255	0 0 255	0 0 255	0 0 255	0 0 255	0 0 255	0 0 255	0 0 255	0 0 255	0 0 255	0 0 255	0 0 255	0 0 255	0 0 255	0 0 255	0 0 255	
0 0 255	0 0 255	0 0 255	0 0 255	0 0 255	0 0 255	0 0 255	0 0 255	0 0 255	0 0 255	0 0 255	0 0 255	0 0 255	0 0 255	0 0 255	0 0 255	0 0 255	0 0 255	0 0 255	0 0 255	0 0 255	0 0 255	0 0 255	0 0 255	0 0 255	0 0 255	0 0 255	0 0 255	0 0 255	0 0 255	0 0 255	0 0 255	0 0 255	0 0 255	0 0 255	0 0 255	0 0 255	0 0 255	0 0 255	0 0 255	0 0 255	0 0 255	0 0 255	0 0 255	0 0 255	0 0 255	0 0 255	0 0 255	0 0 255	0 0 255	0 0 255	0 0 255	0 0 255	0 0 255	0 0 255	0 0 255	0 0 255	0 0 255	0 0 255	0 0 255	0 0 255	0 0 255	0 0 255	0 0 255	0 0 255	0 0 255	0 0 255	0 0 255	0 0 255	0 0 255	0 0 255	0 0 255	0 0 255	0 0 255	0 0 255	0 0 255	0 0 255	0 0 255	0 0 255	0 0 255	0 0 255	0 0 255	0 0 255	0 0 255	0 0 255	0 0 255	0 0 255	0 0 255	0 0 255	0 0 255	0 0 255	0 0 255	0 0 255	0 0 255	0 0 255	0 0 255	0 0 255	0 0 255	0 0 255	0 0 255	0 0 255	0 0 255	0 0 255	0 0 255	0 0 255	0 0 255	0 0 255	0 0 255	0 0 255	0 0 255	0 0 255	0 0 255	0 0 255	0 0 255	0 0 255	0 0 255	0 0 255	0 0 255	0 0 255	0 0 255	0 0 255	0 0 255	0 0 255	0 0 255	0 0 255	0 0 255	0 0 255	0 0 255	0 0 255	0 0 255	0 0 255	0 0 255	0 0 255	0 0 255	0 0 255	0 0 255	0 0 255	0 0 255	0 0 255	0 0 255	0 0 255	0 0 255	0 0 255	0 0 255	0 0 255	0 0 255	0 0 255	0 0 255	0 0 255	0 0 255	0 0 255	0 0 255	0 0 255	0 0 255	0 0 255	0 0 255	0 0 255	0 0 255	0 0 255	0 0 255	0 0 255	0 0 255	0 0 255	0 0 255	0 0 255	0 0 255	0 0 255	0 0 255	0 0 255	0 0 255	0 0 255	0 0 255	0 0 255	0 0 255	0 0 255	0 0 255	0 0 255	0 0 255	0 0 255	0 0 255	0 0 255	0 0 255	0 0 255	0 0 255	0 0 255	0 0 255	0 0 255	0 0 255	0 0 255	0 0 255	0 0 255	0 0 255	0 0 255	0 0 255	0 0 255	0 0 255	0 0 255	0 0 255	0 0 255	0 0 255	0 0 255	0 0 255	0 0 255	0 0 255	0 0 255	0 0 255	0 0 255	0 0 255	0 0 255	0 0 255	0 0 255	0 0 255	0 0 255	0 0 255	0 0 255	0 0 255	0 0 255	0 0 255	0 0 255	0 0 255	0 0 255	0 0 255	0 0 255	0 0 255	0 0 255	0 0 255	0 0 255	0 0 255	0 0 255	0 0 255	0 0 255	0 0 255	0 0 255	0 0 255	0 0 255	0 0 255	0 0 255	0 0 255	0 0 255	0 0 255	0 0 255	0 0 255	0 0 255	0 0 255	0 0 255	0 0 255	0 0 255	0 0 255	0 0 255	0 0 255	0 0 255	0 0 255	0 0 255	0 0 255	0 0 255	0 0 255	
